(0.75mm depth 1500 test)
(T1  D=4 CR=0 - ZMIN=-3 - flat end mill)
G90 G94
G17
G21
G28 G91 Z0
G90

(0.75mm depth 1500)
T1
S10000 M3
G54
G0 X55.328 Y324.426
Z15
Z7
G1 Z2.9 F450
X55.335 Y324.429 Z2.822 F1000
X55.357 Y324.435 Z2.747
X55.393 Y324.446 Z2.678
X55.44 Y324.46 Z2.617
X55.498 Y324.478 Z2.567
X55.564 Y324.498 Z2.53
X55.636 Y324.52 Z2.508
X55.711 Y324.542 Z2.5
X56.094 Y324.658
G2 X56.592 Y324.392 I0.116 J-0.383
G1 X57.763 Y320.53 Z2.359
G3 X99.12 Y305.481 Z0.577 I26.319 J7.974
G1 X121.55 Y320.132 Z-0.358
G3 X125.996 Y329.802 Z-0.75 I-5.469 J8.372
X121.55 Y336.875 I-9.915 J-1.298 F1500
G1 X105.357 Y347.453
G2 X104.759 Y347.884 I4.373 J6.699
X105.359 Y353.532 I7.737 J2.033
G3 X97.783 Y365.134 I-7.138 J3.614
G2 X90.646 Y368.748 I-0.439 J7.988
G1 X85.489 Y376.644
G2 X85.05 Y384.632 I6.698 J4.374
G3 X76.693 Y396.153 I-7.137 J3.614
G2 X70.51 Y397.785 I-1.22 J7.906
G3 X40.54 Y377.373 I-11.786 J-14.903
G1 X46.786 Y356.76
G2 X44.966 Y348.97 I-7.656 J-2.32
G3 X48.984 Y335.708 I5.837 J-5.471
G2 X54.821 Y330.237 I-1.819 J-7.79
G1 X57.763 Y320.53
G3 X99.12 Y305.481 I26.319 J7.974
G1 X121.55 Y320.132
G3 X125.996 Y329.802 I-5.469 J8.372
X121.55 Y336.875 Z-1.051 I-9.915 J-1.298 F1000
G1 X110.785 Y343.907 Z-1.5
X105.357 Y347.453 F1500
G2 X104.759 Y347.884 I4.373 J6.699
X105.359 Y353.532 I7.737 J2.033
G3 X97.783 Y365.134 I-7.138 J3.614
G2 X90.646 Y368.748 I-0.439 J7.988
G1 X85.489 Y376.644
G2 X85.05 Y384.632 I6.698 J4.374
G3 X76.693 Y396.153 I-7.137 J3.614
G2 X70.51 Y397.785 I-1.22 J7.906
G3 X40.54 Y377.373 I-11.786 J-14.903
G1 X46.786 Y356.76
G2 X44.966 Y348.97 I-7.656 J-2.32
G3 X48.984 Y335.708 I5.837 J-5.471
G2 X54.821 Y330.237 I-1.819 J-7.79
G1 X57.763 Y320.53
G3 X99.12 Y305.481 I26.319 J7.974
G1 X121.55 Y320.132
G3 X121.55 Y336.875 I-5.469 J8.372
G1 X110.785 Y343.907
X105.357 Y347.453 Z-1.726 F1000
G2 X104.759 Y347.884 Z-1.752 I4.373 J6.699
X105.359 Y353.532 Z-1.955 I7.737 J2.033
G3 X104.881 Y361.58 Z-2.25 I-7.138 J3.614
X97.783 Y365.134 I-6.659 J-4.434 F1500
G2 X90.646 Y368.748 I-0.439 J7.988
G1 X85.489 Y376.644
G2 X85.05 Y384.632 I6.698 J4.374
G3 X76.693 Y396.153 I-7.137 J3.614
G2 X70.51 Y397.785 I-1.22 J7.906
G3 X40.54 Y377.373 I-11.786 J-14.903
G1 X46.786 Y356.76
G2 X44.966 Y348.97 I-7.656 J-2.32
G3 X48.984 Y335.708 I5.837 J-5.471
G2 X54.821 Y330.237 I-1.819 J-7.79
G1 X57.763 Y320.53
G3 X99.12 Y305.481 I26.319 J7.974
G1 X121.55 Y320.132
G3 X121.55 Y336.875 I-5.469 J8.372
G1 X110.785 Y343.907
X105.357 Y347.453
G2 X104.759 Y347.884 I4.373 J6.699
X105.359 Y353.532 I7.737 J2.033
G3 X104.881 Y361.58 I-7.138 J3.614
X97.783 Y365.134 Z-2.54 I-6.659 J-4.434 F1000
G2 X90.646 Y368.748 Z-2.833 I-0.439 J7.988
G1 X88.025 Y372.762 Z-3
X85.489 Y376.644 F1500
G2 X85.05 Y384.632 I6.698 J4.374
G3 X76.693 Y396.153 I-7.137 J3.614
G2 X70.51 Y397.785 I-1.22 J7.906
G3 X40.54 Y377.373 I-11.786 J-14.903
G1 X46.786 Y356.76
G2 X44.966 Y348.97 I-7.656 J-2.32
G3 X48.984 Y335.708 I5.837 J-5.471
G2 X54.821 Y330.237 I-1.819 J-7.79
G1 X57.763 Y320.53
G3 X99.12 Y305.481 I26.319 J7.974
G1 X121.55 Y320.132
G3 X121.55 Y336.875 I-5.469 J8.372
G1 X105.357 Y347.453
G2 X104.759 Y347.884 I4.373 J6.699
X105.359 Y353.532 I7.737 J2.033
G3 X97.783 Y365.134 I-7.138 J3.614
G2 X90.646 Y368.748 I-0.439 J7.988
G1 X88.025 Y372.762
G2 X88.141 Y373.315 I0.335 J0.219
G1 X88.476 Y373.534
X88.541 Y373.577 Z-2.992
X88.604 Y373.618 Z-2.97
X88.662 Y373.655 Z-2.933
X88.713 Y373.688 Z-2.883
X88.754 Y373.716 Z-2.822
X88.785 Y373.736 Z-2.753
X88.804 Y373.748 Z-2.678
X88.811 Y373.753 Z-2.6
G0 Z15
G28 G91 Z0
G90
G28 G91 X0 Y0
G90
M5
M30
