(0.75mm depth 1143 test)
(T1  D=4 CR=0 - ZMIN=-3 - flat end mill)
G90 G94
G17
G21
G28 G91 Z0
G90

(0.75mm depth 1143)
T1
S10000 M3
G54
G0 X172.051 Y118.831
Z15
Z7
G1 Z2.9 F450
X172.043 Y118.829 Z2.822 F1000
X172.021 Y118.823 Z2.747
X171.986 Y118.812 Z2.678
X171.938 Y118.797 Z2.617
X171.88 Y118.78 Z2.567
X171.814 Y118.76 Z2.53
X171.742 Y118.738 Z2.508
X171.668 Y118.715 Z2.5
X171.285 Y118.599
G2 X170.786 Y118.866 I-0.116 J0.383
G1 X169.616 Y122.728 Z2.359
G3 X128.258 Y137.777 Z0.577 I-26.319 J-7.974
G1 X105.829 Y123.126 Z-0.358
G3 X101.383 Y113.456 Z-0.75 I5.469 J-8.372
X105.829 Y106.383 I9.915 J1.298 F1143
G1 X122.021 Y95.805
G2 X122.62 Y95.373 I-4.372 J-6.699
X122.02 Y89.726 I-7.737 J-2.033
G3 X129.596 Y78.124 I7.137 J-3.614
G2 X136.733 Y74.51 I0.439 J-7.988
G1 X141.889 Y66.613
G2 X142.329 Y58.625 I-6.698 J-4.375
G3 X150.686 Y47.105 I7.137 J-3.614
G2 X156.868 Y45.473 I1.22 J-7.906
G3 X186.838 Y65.885 I11.786 J14.902
G1 X180.593 Y86.498
G2 X182.412 Y94.289 I7.656 J2.32
G3 X178.395 Y107.55 I-5.837 J5.471
G2 X172.557 Y113.021 I1.819 J7.791
G1 X169.616 Y122.728
G3 X128.258 Y137.777 I-26.319 J-7.974
G1 X105.829 Y123.126
G3 X101.383 Y113.456 I5.469 J-8.372
X105.829 Y106.383 Z-1.051 I9.915 J1.298 F1000
G1 X116.594 Y99.351 Z-1.5
X122.021 Y95.805 F1143
G2 X122.62 Y95.373 I-4.372 J-6.699
X122.02 Y89.726 I-7.737 J-2.033
G3 X129.596 Y78.124 I7.137 J-3.614
G2 X136.733 Y74.51 I0.439 J-7.988
G1 X141.889 Y66.613
G2 X142.329 Y58.625 I-6.698 J-4.375
G3 X150.686 Y47.105 I7.137 J-3.614
G2 X156.868 Y45.473 I1.22 J-7.906
G3 X186.838 Y65.885 I11.786 J14.902
G1 X180.593 Y86.498
G2 X182.412 Y94.289 I7.656 J2.32
G3 X178.395 Y107.55 I-5.837 J5.471
G2 X172.557 Y113.021 I1.819 J7.791
G1 X169.616 Y122.728
G3 X128.258 Y137.777 I-26.319 J-7.974
G1 X105.829 Y123.126
G3 X105.829 Y106.383 I5.469 J-8.372
G1 X116.594 Y99.351
X122.021 Y95.805 Z-1.726 F1000
G2 X122.62 Y95.373 Z-1.752 I-4.372 J-6.699
X122.02 Y89.726 Z-1.955 I-7.737 J-2.033
G3 X122.498 Y81.678 Z-2.25 I7.137 J-3.614
X129.596 Y78.124 I6.659 J4.434 F1143
G2 X136.733 Y74.51 I0.439 J-7.988
G1 X141.889 Y66.613
G2 X142.329 Y58.625 I-6.698 J-4.375
G3 X150.686 Y47.105 I7.137 J-3.614
G2 X156.868 Y45.473 I1.22 J-7.906
G3 X186.838 Y65.885 I11.786 J14.902
G1 X180.593 Y86.498
G2 X182.412 Y94.289 I7.656 J2.32
G3 X178.395 Y107.55 I-5.837 J5.471
G2 X172.557 Y113.021 I1.819 J7.791
G1 X169.616 Y122.728
G3 X128.258 Y137.777 I-26.319 J-7.974
G1 X105.829 Y123.126
G3 X105.829 Y106.383 I5.469 J-8.372
G1 X116.594 Y99.351
X122.021 Y95.805
G2 X122.62 Y95.373 I-4.372 J-6.699
X122.02 Y89.726 I-7.737 J-2.033
G3 X122.498 Y81.678 I7.137 J-3.614
X129.596 Y78.124 Z-2.54 I6.659 J4.434 F1000
G2 X136.733 Y74.51 Z-2.833 I0.439 J-7.988
G1 X139.354 Y70.496 Z-3
X141.889 Y66.613 F1143
G2 X142.329 Y58.625 I-6.698 J-4.375
G3 X150.686 Y47.105 I7.137 J-3.614
G2 X156.868 Y45.473 I1.22 J-7.906
G3 X186.838 Y65.885 I11.786 J14.902
G1 X180.593 Y86.498
G2 X182.412 Y94.289 I7.656 J2.32
G3 X178.395 Y107.55 I-5.837 J5.471
G2 X172.557 Y113.021 I1.819 J7.791
G1 X169.616 Y122.728
G3 X128.258 Y137.777 I-26.319 J-7.974
G1 X105.829 Y123.126
G3 X105.829 Y106.383 I5.469 J-8.372
G1 X122.021 Y95.805
G2 X122.62 Y95.373 I-4.372 J-6.699
X122.02 Y89.726 I-7.737 J-2.033
G3 X129.596 Y78.124 I7.137 J-3.614
G2 X136.733 Y74.51 I0.439 J-7.988
G1 X139.354 Y70.496
G2 X139.238 Y69.943 I-0.335 J-0.219
G1 X138.903 Y69.724
X138.838 Y69.681 Z-2.992
X138.775 Y69.64 Z-2.97
X138.717 Y69.602 Z-2.933
X138.666 Y69.569 Z-2.883
X138.624 Y69.542 Z-2.822
X138.594 Y69.522 Z-2.753
X138.574 Y69.509 Z-2.678
X138.568 Y69.505 Z-2.6
G0 Z15
G28 G91 Z0
G90
G28 G91 X0 Y0
G90
M5
M30
