(1mm depth 1143 test)
(T1  D=4 CR=0 - ZMIN=-3 - flat end mill)
G90 G94
G17
G21
G28 G91 Z0
G90

(1mm depth 1143)
T1
S10000 M3
G54
G0 X172.406 Y373.362
Z15
Z7
G1 Z2.9 F450
X172.399 Y373.359 Z2.822 F1000
X172.378 Y373.35 Z2.747
X172.345 Y373.334 Z2.678
X172.299 Y373.314 Z2.617
X172.244 Y373.289 Z2.567
X172.181 Y373.26 Z2.53
X172.113 Y373.229 Z2.508
X172.042 Y373.197 Z2.5
X171.677 Y373.032
G2 X171.148 Y373.232 I-0.165 J0.364
X170.779 Y374.213 Z2.463 I7.287 J3.3
G1 X167.838 Y383.921 Z2.109
G3 X126.48 Y398.97 Z0.328 I-26.319 J-7.974
G1 X104.05 Y384.318 Z-0.608
G3 X99.604 Y374.648 Z-1 I5.469 J-8.372
X104.05 Y367.575 I9.915 J1.298 F1143
G1 X120.243 Y356.998
G2 X120.841 Y356.566 I-4.376 J-6.697
X120.242 Y350.918 I-7.737 J-2.034
G3 X127.818 Y339.316 I7.137 J-3.614
G2 X134.954 Y335.702 I0.439 J-7.988
G1 X140.111 Y327.806
G2 X140.55 Y319.818 I-6.698 J-4.374
G3 X148.907 Y308.297 I7.137 J-3.614
G2 X155.09 Y306.665 I1.22 J-7.906
G3 X185.06 Y327.078 I11.786 J14.903
G1 X178.814 Y347.691
G2 X180.634 Y355.481 I7.657 J2.319
G3 X176.616 Y368.742 I-5.837 J5.47
G2 X170.779 Y374.213 I1.82 J7.79
G1 X167.838 Y383.921
G3 X126.48 Y398.97 I-26.319 J-7.974
G1 X104.05 Y384.318
G3 X99.604 Y374.648 I5.469 J-8.372
X104.05 Y367.575 Z-1.301 I9.915 J1.298 F1000
G1 X120.243 Y356.998 Z-1.976
G2 X120.792 Y356.605 Z-2 I-4.376 J-6.697
G1 X120.841 Y356.566 F1143
G2 X120.242 Y350.918 I-7.737 J-2.034
G3 X127.818 Y339.316 I7.137 J-3.614
G2 X134.954 Y335.702 I0.439 J-7.988
G1 X140.111 Y327.806
G2 X140.55 Y319.818 I-6.698 J-4.374
G3 X148.907 Y308.297 I7.137 J-3.614
G2 X155.09 Y306.665 I1.22 J-7.906
G3 X185.06 Y327.078 I11.786 J14.903
G1 X178.814 Y347.691
G2 X180.634 Y355.481 I7.657 J2.319
G3 X176.616 Y368.742 I-5.837 J5.47
G2 X170.779 Y374.213 I1.82 J7.79
G1 X167.838 Y383.921
G3 X126.48 Y398.97 I-26.319 J-7.974
G1 X104.05 Y384.318
G3 X104.05 Y367.575 I5.469 J-8.372
G1 X120.243 Y356.998
G2 X120.792 Y356.605 I-4.376 J-6.697
G1 X120.841 Y356.566 Z-2.002 F1000
G2 X120.242 Y350.918 Z-2.205 I-7.737 J-2.034
G3 X127.818 Y339.316 Z-2.79 I7.137 J-3.614
G2 X133.39 Y337.464 Z-3 I0.439 J-7.988
X134.954 Y335.702 I-5.133 J-6.136 F1143
G1 X140.111 Y327.806
G2 X140.55 Y319.818 I-6.698 J-4.374
G3 X148.907 Y308.297 I7.137 J-3.614
G2 X155.09 Y306.665 I1.22 J-7.906
G3 X185.06 Y327.078 I11.786 J14.903
G1 X178.814 Y347.691
G2 X180.634 Y355.481 I7.657 J2.319
G3 X176.616 Y368.742 I-5.837 J5.47
G2 X170.779 Y374.213 I1.82 J7.79
G1 X167.838 Y383.921
G3 X126.48 Y398.97 I-26.319 J-7.974
G1 X104.05 Y384.318
G3 X104.05 Y367.575 I5.469 J-8.372
G1 X120.243 Y356.998
G2 X120.841 Y356.566 I-4.376 J-6.697
X120.242 Y350.918 I-7.737 J-2.034
G3 X127.818 Y339.316 I7.137 J-3.614
G2 X133.39 Y337.464 I0.439 J-7.988
X133.44 Y336.9 I-0.257 J-0.307
G1 X133.183 Y336.594
X133.133 Y336.534 Z-2.992
X133.085 Y336.476 Z-2.97
X133.04 Y336.423 Z-2.933
X133.002 Y336.377 Z-2.883
X132.97 Y336.339 Z-2.822
X132.946 Y336.31 Z-2.753
X132.931 Y336.293 Z-2.678
X132.926 Y336.287 Z-2.6
G0 Z15
G28 G91 Z0
G90
G28 G91 X0 Y0
G90
M5
M30
