(1mm depth 1500 depth)
(T1  D=4 CR=0 - ZMIN=-3 - flat end mill)
G90 G94
G17
G21
G28 G91 Z0
G90

(1mm depth 1500)
T1
S10000 M3
G54
G0 X112.261 Y463.382
Z15
Z7
G1 Z2.9 F450
X112.254 Y463.378 Z2.822 F1000
X112.234 Y463.369 Z2.747
X112.2 Y463.354 Z2.678
X112.155 Y463.333 Z2.617
X112.099 Y463.308 Z2.567
X112.036 Y463.28 Z2.53
X111.968 Y463.249 Z2.508
X111.897 Y463.217 Z2.5
X111.533 Y463.052
G2 X111.003 Y463.251 I-0.165 J0.364
X110.634 Y464.232 Z2.463 I7.287 J3.301
G1 X107.693 Y473.94 Z2.109
G3 X66.335 Y488.989 Z0.328 I-26.319 J-7.974
G1 X43.905 Y474.338 Z-0.608
G3 X39.458 Y464.668 Z-1 I5.469 J-8.372
X43.905 Y457.594 I9.916 J1.298 F1500
G1 X60.098 Y447.017
G2 X60.697 Y446.585 I-4.375 J-6.698
X60.096 Y440.938 I-7.737 J-2.034
G3 X67.672 Y429.336 I7.137 J-3.614
G2 X74.81 Y425.722 I0.439 J-7.988
G1 X79.966 Y417.825
G2 X80.405 Y409.838 I-6.698 J-4.374
G3 X88.762 Y398.316 I7.137 J-3.615
G2 X94.945 Y396.685 I1.221 J-7.907
G3 X124.915 Y417.097 I11.786 J14.903
G1 X118.67 Y437.71
G2 X120.489 Y445.5 I7.656 J2.32
G3 X116.471 Y458.762 I-5.837 J5.471
G2 X110.634 Y464.232 I1.819 J7.79
G1 X107.693 Y473.94
G3 X66.335 Y488.989 I-26.319 J-7.974
G1 X43.905 Y474.338
G3 X39.458 Y464.668 I5.469 J-8.372
X43.905 Y457.594 Z-1.301 I9.916 J1.298 F1000
G1 X60.098 Y447.017 Z-1.976
G2 X60.647 Y446.624 Z-2 I-4.375 J-6.698
G1 X60.697 Y446.585 F1500
G2 X60.096 Y440.938 I-7.737 J-2.034
G3 X67.672 Y429.336 I7.137 J-3.614
G2 X74.81 Y425.722 I0.439 J-7.988
G1 X79.966 Y417.825
G2 X80.405 Y409.838 I-6.698 J-4.374
G3 X88.762 Y398.316 I7.137 J-3.615
G2 X94.945 Y396.685 I1.221 J-7.907
G3 X124.915 Y417.097 I11.786 J14.903
G1 X118.67 Y437.71
G2 X120.489 Y445.5 I7.656 J2.32
G3 X116.471 Y458.762 I-5.837 J5.471
G2 X110.634 Y464.232 I1.819 J7.79
G1 X107.693 Y473.94
G3 X66.335 Y488.989 I-26.319 J-7.974
G1 X43.905 Y474.338
G3 X43.905 Y457.594 I5.469 J-8.372
G1 X60.098 Y447.017
G2 X60.647 Y446.624 I-4.375 J-6.698
G1 X60.697 Y446.585 Z-2.002 F1000
G2 X60.096 Y440.938 Z-2.205 I-7.737 J-2.034
G3 X67.672 Y429.336 Z-2.79 I7.137 J-3.614
G2 X73.245 Y427.484 Z-3 I0.439 J-7.988
X74.81 Y425.722 I-5.134 J-6.135 F1500
G1 X79.966 Y417.825
G2 X80.405 Y409.838 I-6.698 J-4.374
G3 X88.762 Y398.316 I7.137 J-3.615
G2 X94.945 Y396.685 I1.221 J-7.907
G3 X124.915 Y417.097 I11.786 J14.903
G1 X118.67 Y437.71
G2 X120.489 Y445.5 I7.656 J2.32
G3 X116.471 Y458.762 I-5.837 J5.471
G2 X110.634 Y464.232 I1.819 J7.79
G1 X107.693 Y473.94
G3 X66.335 Y488.989 I-26.319 J-7.974
G1 X43.905 Y474.338
G3 X43.905 Y457.594 I5.469 J-8.372
G1 X60.098 Y447.017
G2 X60.697 Y446.585 I-4.375 J-6.698
X60.096 Y440.938 I-7.737 J-2.034
G3 X67.672 Y429.336 I7.137 J-3.614
G2 X73.245 Y427.484 I0.439 J-7.988
X73.295 Y426.92 I-0.257 J-0.307
G1 X73.038 Y426.613
X72.988 Y426.553 Z-2.992
X72.94 Y426.496 Z-2.97
X72.895 Y426.443 Z-2.933
X72.857 Y426.396 Z-2.883
X72.825 Y426.358 Z-2.822
X72.801 Y426.33 Z-2.753
X72.786 Y426.312 Z-2.678
X72.781 Y426.307 Z-2.6
G0 Z15
G28 G91 Z0
G90
G28 G91 X0 Y0
G90
M5
M30
