(1mm doc 1500)
(T2  D=4 CR=0 - ZMIN=-3 - flat end mill)
G90 G94
G17
G21
G28 G91 Z0
G90

(1mm DOC 1500)
T2
S10000 M3
G54
G0 X47.014 Y369.3
Z15
Z7
G1 Z5 F550
Z2.9
G19 G2 Y368.9 Z2.5 J-0.4 K0 F1000
G1 Y368.5
G17 G2 X46.614 Y368.1 I-0.4 J0
G1 X14.343 Z1.373
G3 X12.929 Y367.514 Z1.318 I0 J-2
G1 X6.586 Y361.171 Z1.005
G3 X6 Y359.757 Z0.95 I1.414 J-1.414
G1 Y303.913 Z-1
Y302.1 F1500
G3 X8 Y300.1 I2 J0
G1 X448
G3 X450 Y302.1 I0 J2
G1 Y359.757
G3 X449.414 Y361.171 I-2 J0
G1 X443.071 Y367.514
G3 X441.657 Y368.1 I-1.414 J-1.414
G1 X14.343
G3 X12.929 Y367.514 I0 J-2
G1 X6.586 Y361.171
G3 X6 Y359.757 I1.414 J-1.414
G1 Y303.913
G2 X5.6 Y303.513 I-0.4 J0
G1 X5.2
G18 G3 X4.8 Z-0.6 I0 K0.4
G0 Z10
X102.871 Y298.95
Z7
G1 Z5 F550
Z2.9
G19 G2 Y298.55 Z2.5 J-0.4 K0 F1000
G1 Y298.15
G17 G2 X102.471 Y297.75 I-0.4 J0
G1 X14.343 Z-0.577
G3 X12.929 Y297.164 Z-0.632 I0 J-2
G1 X6.586 Y290.821 Z-0.946
G3 X6 Y289.42 Z-1 I1.414 J-1.414
G1 Y289.407 F1500
Y231.75
G3 X8 Y229.75 I2 J0
G1 X448
G3 X450 Y231.75 I0 J2
G1 Y289.407
G3 X449.414 Y290.821 I-2 J0
G1 X443.071 Y297.164
G3 X441.657 Y297.75 I-1.414 J-1.414
G1 X14.343
G3 X12.929 Y297.164 I0 J-2
G1 X6.586 Y290.821
G3 X6 Y289.42 I1.414 J-1.414
G2 X5.597 Y289.023 I-0.4 J0.003
G1 X5.197 Y289.025
X5.119 Y289.026 Z-0.992
X5.044 Z-0.97
X4.975 Y289.027 Z-0.933
X4.915 Z-0.883
X4.865 Y289.028 Z-0.822
X4.828 Z-0.753
X4.805 Z-0.678
X4.797 Z-0.6
G0 Z10
X102.873 Y228.6
Z7
G1 Z5 F550
Z2.9
G19 G2 Y228.2 Z2.5 J-0.4 K0 F1000
G1 Y227.8
G17 G2 X102.473 Y227.4 I-0.4 J0
G1 X14.343 Z-0.578
G3 X12.929 Y226.814 Z-0.632 I0 J-2
G1 X6.586 Y220.471 Z-0.946
G3 X6 Y219.072 Z-1 I1.414 J-1.414
G1 Y219.057 F1500
Y161.4
G3 X8 Y159.4 I2 J0
G1 X448
G3 X450 Y161.4 I0 J2
G1 Y219.057
G3 X449.414 Y220.471 I-2 J0
G1 X443.071 Y226.814
G3 X441.657 Y227.4 I-1.414 J-1.414
G1 X14.343
G3 X12.929 Y226.814 I0 J-2
G1 X6.586 Y220.471
G3 X6 Y219.072 I1.414 J-1.414
G2 X5.597 Y218.675 I-0.4 J0.003
G1 X5.197 Y218.678
X5.119 Z-0.992
X5.044 Y218.679 Z-0.97
X4.975 Z-0.933
X4.914 Y218.68 Z-0.883
X4.865 Z-0.822
X4.828 Z-0.753
X4.805 Y218.681 Z-0.678
X4.797 Z-0.6
G0 Z10
X105.494 Y158.25
Z7
G1 Z5 F550
Z2.9
G19 G2 Y157.85 Z2.5 J-0.4 K0 F1000
G1 Y157.45
G17 G2 X105.094 Y157.05 I-0.4 J0
G1 X8 Z-0.891
G3 X6 Y155.058 Z-1 I0 J-2
G1 Y155.05 F1500
Y84.7
G3 X8 Y82.7 I2 J0
G1 X448
G3 X450 Y84.7 I0 J2
G1 Y155.05
G3 X448 Y157.05 I-2 J0
G1 X8
G3 X6 Y155.058 I0 J-2
G2 X5.598 Y154.66 I-0.4 J0.002
G1 X5.198 Y154.662
X5.12 Z-0.992
X5.045 Z-0.97
X4.976 Z-0.933
X4.916 Y154.663 Z-0.883
X4.866 Z-0.822
X4.829 Z-0.753
X4.806 Z-0.678
X4.798 Z-0.6
G0 Z10
X196.892 Y4.8
Z7
G1 Z5 F550
Z2.9
G19 G3 Y5.2 Z2.5 J0.4 K0 F1000
G1 Y5.6
G17 G2 X197.292 Y6 I0.4 J0
G1 X297.519 Z-1
X448 F1500
G3 X450 Y8 I0 J2
G1 Y45.128
Y78.35
G3 X448 Y80.35 I-2 J0
G1 X8
G3 X6 Y78.35 I0 J-2
G1 Y8
G3 X8 Y6 I2 J0
G1 X297.519
G2 X297.919 Y5.6 I0 J-0.4
G1 Y5.2
G19 G2 Y4.8 Z-0.6 J0 K0.4
G0 Z10
X471.375 Y58.961
Z7
G1 Z5 F550
Z2.9
X471.378 Y58.954 Z2.822 F1000
X471.386 Y58.933 Z2.747
X471.399 Y58.899 Z2.678
X471.417 Y58.852 Z2.617
X471.439 Y58.796 Z2.567
X471.464 Y58.731 Z2.53
X471.491 Y58.661 Z2.508
X471.52 Y58.589 Z2.5
X471.664 Y58.216
G17 G2 X471.436 Y57.698 I-0.373 J-0.145
G1 X458.244 Y52.575 Z2.006
G3 X453.172 Y44.395 Z1.645 I2.896 J-7.458
G1 X454.215 Y32.895 Z1.242
G3 X457.316 Y27.268 Z1.011 I7.968 J0.723
G1 X477.104 Y12.105 Z0.14
G3 X480.772 Y10.545 Z0 I4.866 J6.35
G1 X506.889 Y6.59 Z-0.923
G3 X509.094 Y6.382 Z-1 I2.95 J19.478
X513.524 Y6.716 I0.744 J19.686 F1500
G1 X534.207 Y10.655
G3 X535.145 Y10.893 I-1.494 J7.859
G1 X582.429 Y25.997
G3 X587.962 Y32.895 I-2.434 J7.621
G1 X589.005 Y44.395
G3 X583.934 Y52.575 I-7.967 J0.723
G1 X565.475 Y59.743
G3 X558.344 Y61.079 I-7.131 J-18.364
G1 X483.834
G3 X476.703 Y59.743 I0 J-19.7
G1 X458.244 Y52.575
G3 X453.172 Y44.395 I2.896 J-7.458
G1 X454.215 Y32.895
G3 X457.316 Y27.268 I7.968 J0.723
G1 X477.104 Y12.105
G3 X480.772 Y10.545 I4.866 J6.35
G1 X506.889 Y6.59
G3 X509.094 Y6.382 I2.95 J19.478
G2 X509.479 Y5.967 I-0.015 J-0.4
G1 X509.464 Y5.567
X509.461 Y5.489 Z-0.992
X509.458 Y5.414 Z-0.97
X509.456 Y5.345 Z-0.933
X509.453 Y5.285 Z-0.883
X509.451 Y5.235 Z-0.822
X509.45 Y5.198 Z-0.753
X509.449 Y5.175 Z-0.678
Y5.168 Z-0.6
G0 Z10
X506.831 Y62.787
Z7
G1 Z5 F550
Z2.9
X506.832 Y62.795 Z2.822 F1000
X506.835 Y62.817 Z2.747
X506.84 Y62.854 Z2.678
X506.846 Y62.903 Z2.617
X506.854 Y62.963 Z2.567
X506.862 Y63.032 Z2.53
X506.872 Y63.106 Z2.508
X506.881 Y63.184 Z2.5
X506.931 Y63.581
G2 X507.378 Y63.928 I0.397 J-0.05
G3 X513.524 Y64.121 Z2.284 I2.46 J19.546
G1 X534.207 Y68.06 Z1.549
G3 X535.145 Y68.299 Z1.515 I-1.495 J7.859
G1 X582.429 Y83.403 Z-0.218
G3 X587.962 Y90.301 Z-0.545 I-2.434 J7.62
G1 X589.005 Y101.8 Z-0.948
G3 X589.002 Y103.274 Z-1 I-7.967 J0.723
X583.934 Y109.98 I-7.964 J-0.751 F1500
G1 X565.475 Y117.148
G3 X558.344 Y118.485 I-7.133 J-18.363
G1 X483.834
G3 X476.703 Y117.148 I0.002 J-19.7
G1 X458.244 Y109.98
G3 X453.172 Y101.8 I2.896 J-7.458
G1 X454.215 Y90.301
G3 X457.316 Y84.673 I7.968 J0.723
G1 X477.104 Y69.51
G3 X480.772 Y67.95 I4.866 J6.35
G1 X506.889 Y63.995
G3 X513.524 Y64.121 I2.95 J19.478
G1 X534.207 Y68.06
G3 X535.145 Y68.299 I-1.495 J7.859
G1 X582.429 Y83.403
G3 X587.962 Y90.301 I-2.434 J7.62
G1 X589.005 Y101.8
G3 X589.002 Y103.274 I-7.967 J0.723
G2 X589.363 Y103.71 I0.398 J0.038
G1 X589.761 Y103.747
X589.839 Y103.755 Z-0.992
X589.914 Y103.762 Z-0.97
X589.982 Y103.768 Z-0.933
X590.043 Y103.774 Z-0.883
X590.092 Y103.779 Z-0.822
X590.129 Y103.782 Z-0.753
X590.152 Y103.784 Z-0.678
X590.159 Y103.785 Z-0.6
G0 Z10
X495.603 Y120.988
Z7
G1 Z5 F550
Z2.9
X495.602 Y120.995 Z2.822 F1000
X495.6 Y121.018 Z2.747
X495.597 Y121.055 Z2.678
X495.592 Y121.104 Z2.617
X495.587 Y121.165 Z2.567
X495.581 Y121.234 Z2.53
X495.574 Y121.308 Z2.508
X495.567 Y121.386 Z2.5
X495.532 Y121.785
G2 X495.895 Y122.218 I0.398 J0.035
G1 X520.543 Y124.409 Z1.636
G2 X521.959 Y124.409 Z1.586 I0.708 J-7.969
G1 X571.449 Y120.011 Z-0.149
G3 X586.642 Y135.101 Z-1 I1.24 J13.945
X582.867 Y143.568 I-13.953 J-1.145 F1500
G1 X546.794 Y181.762
G3 X541.705 Y183.956 I-5.089 J-4.806
G1 X535.95
G3 X506.552 Y183.956 I-14.699 J-27.86
G1 X500.797
G3 X495.708 Y181.762 I0 J-7
G1 X459.635 Y143.568
G3 X471.053 Y120.011 I10.178 J-9.613
G1 X520.543 Y124.409
G2 X521.959 Y124.409 I0.708 J-7.969
G1 X571.449 Y120.011
G3 X586.642 Y135.101 I1.24 J13.945
G2 X587.008 Y135.532 I0.399 J0.033
G1 X587.406 Y135.565
X587.484 Y135.571 Z-0.992
X587.559 Y135.577 Z-0.97
X587.628 Y135.583 Z-0.933
X587.688 Y135.588 Z-0.883
X587.738 Y135.592 Z-0.822
X587.775 Y135.595 Z-0.753
X587.797 Y135.597 Z-0.678
X587.805 Z-0.6
G0 Z10
X506.831 Y62.787
Z7
G1 Z4 F550
Z1.9
X506.832 Y62.795 Z1.822 F1000
X506.835 Y62.817 Z1.747
X506.84 Y62.854 Z1.678
X506.846 Y62.903 Z1.617
X506.854 Y62.963 Z1.567
X506.862 Y63.032 Z1.53
X506.872 Y63.106 Z1.508
X506.881 Y63.184 Z1.5
X506.931 Y63.581
G2 X507.378 Y63.928 I0.397 J-0.05
G3 X513.524 Y64.121 Z1.284 I2.46 J19.546
G1 X534.207 Y68.06 Z0.549
G3 X535.145 Y68.299 Z0.515 I-1.495 J7.859
G1 X582.429 Y83.403 Z-1.218
G3 X587.962 Y90.301 Z-1.545 I-2.434 J7.62
G1 X589.005 Y101.8 Z-1.948
G3 X589.002 Y103.274 Z-2 I-7.967 J0.723
X583.934 Y109.98 I-7.964 J-0.751 F1500
G1 X565.475 Y117.148
G3 X558.344 Y118.485 I-7.133 J-18.363
G1 X483.834
G3 X476.703 Y117.148 I0.002 J-19.7
G1 X458.244 Y109.98
G3 X453.172 Y101.8 I2.896 J-7.458
G1 X454.215 Y90.301
G3 X457.316 Y84.673 I7.968 J0.723
G1 X477.104 Y69.51
G3 X480.772 Y67.95 I4.866 J6.35
G1 X506.889 Y63.995
G3 X513.524 Y64.121 I2.95 J19.478
G1 X534.207 Y68.06
G3 X535.145 Y68.299 I-1.495 J7.859
G1 X582.429 Y83.403
G3 X587.962 Y90.301 I-2.434 J7.62
G1 X589.005 Y101.8
G3 X589.002 Y103.274 I-7.967 J0.723
G2 X589.363 Y103.71 I0.398 J0.038
G1 X589.761 Y103.747
X589.839 Y103.755 Z-1.992
X589.914 Y103.762 Z-1.97
X589.982 Y103.768 Z-1.933
X590.043 Y103.774 Z-1.883
X590.092 Y103.779 Z-1.822
X590.129 Y103.782 Z-1.753
X590.152 Y103.784 Z-1.678
X590.159 Y103.785 Z-1.6
G0 Z10
X471.375 Y58.961
Z7
G1 Z4 F550
Z1.9
X471.378 Y58.954 Z1.822 F1000
X471.386 Y58.933 Z1.747
X471.399 Y58.899 Z1.678
X471.417 Y58.852 Z1.617
X471.439 Y58.796 Z1.567
X471.464 Y58.731 Z1.53
X471.491 Y58.661 Z1.508
X471.52 Y58.589 Z1.5
X471.664 Y58.216
G2 X471.436 Y57.698 I-0.373 J-0.145
G1 X458.244 Y52.575 Z1.006
G3 X453.172 Y44.395 Z0.645 I2.896 J-7.458
G1 X454.215 Y32.895 Z0.242
G3 X457.316 Y27.268 Z0.011 I7.968 J0.723
G1 X477.104 Y12.105 Z-0.86
G3 X480.772 Y10.545 Z-1 I4.866 J6.35
G1 X506.889 Y6.59 Z-1.923
G3 X509.094 Y6.382 Z-2 I2.95 J19.478
X513.524 Y6.716 I0.744 J19.686 F1500
G1 X534.207 Y10.655
G3 X535.145 Y10.893 I-1.494 J7.859
G1 X582.429 Y25.997
G3 X587.962 Y32.895 I-2.434 J7.621
G1 X589.005 Y44.395
G3 X583.934 Y52.575 I-7.967 J0.723
G1 X565.475 Y59.743
G3 X558.344 Y61.079 I-7.131 J-18.364
G1 X483.834
G3 X476.703 Y59.743 I0 J-19.7
G1 X458.244 Y52.575
G3 X453.172 Y44.395 I2.896 J-7.458
G1 X454.215 Y32.895
G3 X457.316 Y27.268 I7.968 J0.723
G1 X477.104 Y12.105
G3 X480.772 Y10.545 I4.866 J6.35
G1 X506.889 Y6.59
G3 X509.094 Y6.382 I2.95 J19.478
G2 X509.479 Y5.967 I-0.015 J-0.4
G1 X509.464 Y5.567
X509.461 Y5.489 Z-1.992
X509.458 Y5.414 Z-1.97
X509.456 Y5.345 Z-1.933
X509.453 Y5.285 Z-1.883
X509.451 Y5.235 Z-1.822
X509.45 Y5.198 Z-1.753
X509.449 Y5.175 Z-1.678
Y5.168 Z-1.6
G0 Z10
X196.892 Y4.8
Z7
G1 Z4 F550
Z1.9
G19 G3 Y5.2 Z1.5 J0.4 K0 F1000
G1 Y5.6
G17 G2 X197.292 Y6 I0.4 J0
G1 X297.519 Z-2
X448 F1500
G3 X450 Y8 I0 J2
G1 Y45.128
Y78.35
G3 X448 Y80.35 I-2 J0
G1 X8
G3 X6 Y78.35 I0 J-2
G1 Y8
G3 X8 Y6 I2 J0
G1 X297.519
G2 X297.919 Y5.6 I0 J-0.4
G1 Y5.2
G19 G2 Y4.8 Z-1.6 J0 K0.4
G0 Z10
X105.494 Y158.25
Z7
G1 Z4 F550
Z1.9
G2 Y157.85 Z1.5 J-0.4 K0 F1000
G1 Y157.45
G17 G2 X105.094 Y157.05 I-0.4 J0
G1 X8 Z-1.891
G3 X6 Y155.058 Z-2 I0 J-2
G1 Y155.05 F1500
Y84.7
G3 X8 Y82.7 I2 J0
G1 X448
G3 X450 Y84.7 I0 J2
G1 Y155.05
G3 X448 Y157.05 I-2 J0
G1 X8
G3 X6 Y155.058 I0 J-2
G2 X5.598 Y154.66 I-0.4 J0.002
G1 X5.198 Y154.662
X5.12 Z-1.992
X5.045 Z-1.97
X4.976 Z-1.933
X4.916 Y154.663 Z-1.883
X4.866 Z-1.822
X4.829 Z-1.753
X4.806 Z-1.678
X4.798 Z-1.6
G0 Z10
X196.892 Y4.8
Z7
G1 Z3 F550
Z0.9
G19 G3 Y5.2 Z0.5 J0.4 K0 F1000
G1 Y5.6
G17 G2 X197.292 Y6 I0.4 J0
G1 X297.519 Z-3
X448 F1500
G3 X450 Y8 I0 J2
G1 Y45.128
Y78.35
G3 X448 Y80.35 I-2 J0
G1 X8
G3 X6 Y78.35 I0 J-2
G1 Y8
G3 X8 Y6 I2 J0
G1 X297.519
G2 X297.919 Y5.6 I0 J-0.4
G1 Y5.2
G19 G2 Y4.8 Z-2.6 J0 K0.4
G0 Z10
X471.375 Y58.961
Z7
G1 Z3 F550
Z0.9
X471.378 Y58.954 Z0.822 F1000
X471.386 Y58.933 Z0.747
X471.399 Y58.899 Z0.678
X471.417 Y58.852 Z0.617
X471.439 Y58.796 Z0.567
X471.464 Y58.731 Z0.53
X471.491 Y58.661 Z0.508
X471.52 Y58.589 Z0.5
X471.664 Y58.216
G17 G2 X471.436 Y57.698 I-0.373 J-0.145
G1 X458.244 Y52.575 Z0.006
G3 X453.172 Y44.395 Z-0.355 I2.896 J-7.458
G1 X454.215 Y32.895 Z-0.758
G3 X457.316 Y27.268 Z-0.989 I7.968 J0.723
G1 X477.104 Y12.105 Z-1.86
G3 X480.772 Y10.545 Z-2 I4.866 J6.35
G1 X506.889 Y6.59 Z-2.923
G3 X509.094 Y6.382 Z-3 I2.95 J19.478
X513.524 Y6.716 I0.744 J19.686 F1500
G1 X534.207 Y10.655
G3 X535.145 Y10.893 I-1.494 J7.859
G1 X582.429 Y25.997
G3 X587.962 Y32.895 I-2.434 J7.621
G1 X589.005 Y44.395
G3 X583.934 Y52.575 I-7.967 J0.723
G1 X565.475 Y59.743
G3 X558.344 Y61.079 I-7.131 J-18.364
G1 X483.834
G3 X476.703 Y59.743 I0 J-19.7
G1 X458.244 Y52.575
G3 X453.172 Y44.395 I2.896 J-7.458
G1 X454.215 Y32.895
G3 X457.316 Y27.268 I7.968 J0.723
G1 X477.104 Y12.105
G3 X480.772 Y10.545 I4.866 J6.35
G1 X506.889 Y6.59
G3 X509.094 Y6.382 I2.95 J19.478
G2 X509.479 Y5.967 I-0.015 J-0.4
G1 X509.464 Y5.567
X509.461 Y5.489 Z-2.992
X509.458 Y5.414 Z-2.97
X509.456 Y5.345 Z-2.933
X509.453 Y5.285 Z-2.883
X509.451 Y5.235 Z-2.822
X509.45 Y5.198 Z-2.753
X509.449 Y5.175 Z-2.678
Y5.168 Z-2.6
G0 Z10
X492.177 Y187.467
Z7
G1 Z5 F550
Z2.9
Y187.474 Z2.822 F1000
X492.175 Y187.497 Z2.747
X492.171 Y187.534 Z2.678
X492.167 Y187.584 Z2.617
X492.162 Y187.644 Z2.567
X492.155 Y187.713 Z2.53
X492.149 Y187.788 Z2.508
X492.142 Y187.865 Z2.5
X492.107 Y188.264
G2 X492.47 Y188.698 I0.398 J0.035
G1 X517.736 Y190.943 Z1.614
G2 X519.152 Y190.943 Z1.565 I0.708 J-7.969
G1 X568.642 Y186.545 Z-0.17
G3 X583.871 Y201.016 Z-1 I1.239 J13.945
X580.059 Y210.102 I-13.99 J-0.526 F1500
G1 X543.987 Y248.296
G3 X538.898 Y250.49 I-5.089 J-4.806
G1 X533.143
G3 X503.744 Y250.49 I-14.699 J-27.86
G1 X497.99
G3 X492.901 Y248.296 I0 J-7
G1 X456.828 Y210.102
G3 X468.246 Y186.545 I10.178 J-9.613
G1 X517.736 Y190.943
G2 X519.152 Y190.943 I0.708 J-7.969
G1 X568.642 Y186.545
G3 X583.871 Y201.016 I1.239 J13.945
G2 X584.255 Y201.431 I0.4 J0.015
G1 X584.655 Y201.446
X584.733 Y201.449 Z-0.992
X584.808 Y201.452 Z-0.97
X584.877 Y201.454 Z-0.933
X584.938 Y201.457 Z-0.883
X584.988 Y201.459 Z-0.822
X585.025 Y201.46 Z-0.753
X585.047 Y201.461 Z-0.678
X585.055 Z-0.6
G0 Z10
X495.603 Y120.988
Z7
G1 Z4 F550
Z1.9
X495.602 Y120.995 Z1.822 F1000
X495.6 Y121.018 Z1.747
X495.597 Y121.055 Z1.678
X495.592 Y121.104 Z1.617
X495.587 Y121.165 Z1.567
X495.581 Y121.234 Z1.53
X495.574 Y121.308 Z1.508
X495.567 Y121.386 Z1.5
X495.532 Y121.785
G2 X495.895 Y122.218 I0.398 J0.035
G1 X520.543 Y124.409 Z0.636
G2 X521.959 Y124.409 Z0.586 I0.708 J-7.969
G1 X571.449 Y120.011 Z-1.149
G3 X586.642 Y135.101 Z-2 I1.24 J13.945
X582.867 Y143.568 I-13.953 J-1.145 F1500
G1 X546.794 Y181.762
G3 X541.705 Y183.956 I-5.089 J-4.806
G1 X535.95
G3 X506.552 Y183.956 I-14.699 J-27.86
G1 X500.797
G3 X495.708 Y181.762 I0 J-7
G1 X459.635 Y143.568
G3 X471.053 Y120.011 I10.178 J-9.613
G1 X520.543 Y124.409
G2 X521.959 Y124.409 I0.708 J-7.969
G1 X571.449 Y120.011
G3 X586.642 Y135.101 I1.24 J13.945
G2 X587.008 Y135.532 I0.399 J0.033
G1 X587.406 Y135.565
X587.484 Y135.571 Z-1.992
X587.559 Y135.577 Z-1.97
X587.628 Y135.583 Z-1.933
X587.688 Y135.588 Z-1.883
X587.738 Y135.592 Z-1.822
X587.775 Y135.595 Z-1.753
X587.797 Y135.597 Z-1.678
X587.805 Z-1.6
G0 Z10
X506.831 Y62.787
Z7
G1 Z3 F550
Z0.9
X506.832 Y62.795 Z0.822 F1000
X506.835 Y62.817 Z0.747
X506.84 Y62.854 Z0.678
X506.846 Y62.903 Z0.617
X506.854 Y62.963 Z0.567
X506.862 Y63.032 Z0.53
X506.872 Y63.106 Z0.508
X506.881 Y63.184 Z0.5
X506.931 Y63.581
G2 X507.378 Y63.928 I0.397 J-0.05
G3 X513.524 Y64.121 Z0.284 I2.46 J19.546
G1 X534.207 Y68.06 Z-0.451
G3 X535.145 Y68.299 Z-0.485 I-1.495 J7.859
G1 X582.429 Y83.403 Z-2.218
G3 X587.962 Y90.301 Z-2.545 I-2.434 J7.62
G1 X589.005 Y101.8 Z-2.948
G3 X589.002 Y103.274 Z-3 I-7.967 J0.723
X583.934 Y109.98 I-7.964 J-0.751 F1500
G1 X565.475 Y117.148
G3 X558.344 Y118.485 I-7.133 J-18.363
G1 X483.834
G3 X476.703 Y117.148 I0.002 J-19.7
G1 X458.244 Y109.98
G3 X453.172 Y101.8 I2.896 J-7.458
G1 X454.215 Y90.301
G3 X457.316 Y84.673 I7.968 J0.723
G1 X477.104 Y69.51
G3 X480.772 Y67.95 I4.866 J6.35
G1 X506.889 Y63.995
G3 X513.524 Y64.121 I2.95 J19.478
G1 X534.207 Y68.06
G3 X535.145 Y68.299 I-1.495 J7.859
G1 X582.429 Y83.403
G3 X587.962 Y90.301 I-2.434 J7.62
G1 X589.005 Y101.8
G3 X589.002 Y103.274 I-7.967 J0.723
G2 X589.363 Y103.71 I0.398 J0.038
G1 X589.761 Y103.747
X589.839 Y103.755 Z-2.992
X589.914 Y103.762 Z-2.97
X589.982 Y103.768 Z-2.933
X590.043 Y103.774 Z-2.883
X590.092 Y103.779 Z-2.822
X590.129 Y103.782 Z-2.753
X590.152 Y103.784 Z-2.678
X590.159 Y103.785 Z-2.6
G0 Z10
X492.126 Y253.755
Z7
G1 Z5 F550
Z2.9
Y253.763 Z2.822 F1000
X492.124 Y253.786 Z2.747
X492.12 Y253.822 Z2.678
X492.116 Y253.872 Z2.617
X492.111 Y253.932 Z2.567
X492.105 Y254.001 Z2.53
X492.098 Y254.076 Z2.508
X492.091 Y254.154 Z2.5
X492.056 Y254.552
G2 X492.419 Y254.986 I0.398 J0.035
G1 X517.736 Y257.236 Z1.612
G2 X519.152 Y257.236 Z1.563 I0.708 J-7.969
G1 X568.642 Y252.838 Z-0.172
G3 X583.873 Y267.258 Z-1 I1.239 J13.945
X580.059 Y276.396 I-13.992 J-0.475 F1500
G1 X543.987 Y314.589
G3 X538.898 Y316.783 I-5.089 J-4.806
G1 X533.143
G3 X503.744 Y316.783 I-14.699 J-27.86
G1 X497.99
G3 X492.901 Y314.589 I0 J-7
G1 X456.828 Y276.396
G3 X468.246 Y252.838 I10.178 J-9.613
G1 X517.736 Y257.236
G2 X519.152 Y257.236 I0.708 J-7.969
G1 X568.642 Y252.838
G3 X583.873 Y267.258 I1.239 J13.945
G2 X584.259 Y267.671 I0.4 J0.014
G1 X584.659 Y267.685
X584.737 Y267.687 Z-0.992
X584.812 Y267.69 Z-0.97
X584.881 Y267.692 Z-0.933
X584.942 Y267.694 Z-0.883
X584.992 Y267.696 Z-0.822
X585.028 Y267.697 Z-0.753
X585.051 Y267.698 Z-0.678
X585.059 Z-0.6
G0 Z10
X492.177 Y187.467
Z7
G1 Z4 F550
Z1.9
Y187.474 Z1.822 F1000
X492.175 Y187.497 Z1.747
X492.171 Y187.534 Z1.678
X492.167 Y187.584 Z1.617
X492.162 Y187.644 Z1.567
X492.155 Y187.713 Z1.53
X492.149 Y187.788 Z1.508
X492.142 Y187.865 Z1.5
X492.107 Y188.264
G2 X492.47 Y188.698 I0.398 J0.035
G1 X517.736 Y190.943 Z0.614
G2 X519.152 Y190.943 Z0.565 I0.708 J-7.969
G1 X568.642 Y186.545 Z-1.17
G3 X583.871 Y201.016 Z-2 I1.239 J13.945
X580.059 Y210.102 I-13.99 J-0.526 F1500
G1 X543.987 Y248.296
G3 X538.898 Y250.49 I-5.089 J-4.806
G1 X533.143
G3 X503.744 Y250.49 I-14.699 J-27.86
G1 X497.99
G3 X492.901 Y248.296 I0 J-7
G1 X456.828 Y210.102
G3 X468.246 Y186.545 I10.178 J-9.613
G1 X517.736 Y190.943
G2 X519.152 Y190.943 I0.708 J-7.969
G1 X568.642 Y186.545
G3 X583.871 Y201.016 I1.239 J13.945
G2 X584.255 Y201.431 I0.4 J0.015
G1 X584.655 Y201.446
X584.733 Y201.449 Z-1.992
X584.808 Y201.452 Z-1.97
X584.877 Y201.454 Z-1.933
X584.938 Y201.457 Z-1.883
X584.988 Y201.459 Z-1.822
X585.025 Y201.46 Z-1.753
X585.047 Y201.461 Z-1.678
X585.055 Z-1.6
G0 Z10
X495.603 Y120.988
Z7
G1 Z3 F550
Z0.9
X495.602 Y120.995 Z0.822 F1000
X495.6 Y121.018 Z0.747
X495.597 Y121.055 Z0.678
X495.592 Y121.104 Z0.617
X495.587 Y121.165 Z0.567
X495.581 Y121.234 Z0.53
X495.574 Y121.308 Z0.508
X495.567 Y121.386 Z0.5
X495.532 Y121.785
G2 X495.895 Y122.218 I0.398 J0.035
G1 X520.543 Y124.409 Z-0.364
G2 X521.959 Y124.409 Z-0.414 I0.708 J-7.969
G1 X571.449 Y120.011 Z-2.149
G3 X586.642 Y135.101 Z-3 I1.24 J13.945
X582.867 Y143.568 I-13.953 J-1.145 F1500
G1 X546.794 Y181.762
G3 X541.705 Y183.956 I-5.089 J-4.806
G1 X535.95
G3 X506.552 Y183.956 I-14.699 J-27.86
G1 X500.797
G3 X495.708 Y181.762 I0 J-7
G1 X459.635 Y143.568
G3 X471.053 Y120.011 I10.178 J-9.613
G1 X520.543 Y124.409
G2 X521.959 Y124.409 I0.708 J-7.969
G1 X571.449 Y120.011
G3 X586.642 Y135.101 I1.24 J13.945
G2 X587.008 Y135.532 I0.399 J0.033
G1 X587.406 Y135.565
X587.484 Y135.571 Z-2.992
X587.559 Y135.577 Z-2.97
X587.628 Y135.583 Z-2.933
X587.688 Y135.588 Z-2.883
X587.738 Y135.592 Z-2.822
X587.775 Y135.595 Z-2.753
X587.797 Y135.597 Z-2.678
X587.805 Z-2.6
G0 Z10
X102.873 Y228.6
Z7
G1 Z4 F550
Z1.9
G19 G2 Y228.2 Z1.5 J-0.4 K0 F1000
G1 Y227.8
G17 G2 X102.473 Y227.4 I-0.4 J0
G1 X14.343 Z-1.578
G3 X12.929 Y226.814 Z-1.632 I0 J-2
G1 X6.586 Y220.471 Z-1.946
G3 X6 Y219.072 Z-2 I1.414 J-1.414
G1 Y219.057 F1500
Y161.4
G3 X8 Y159.4 I2 J0
G1 X448
G3 X450 Y161.4 I0 J2
G1 Y219.057
G3 X449.414 Y220.471 I-2 J0
G1 X443.071 Y226.814
G3 X441.657 Y227.4 I-1.414 J-1.414
G1 X14.343
G3 X12.929 Y226.814 I0 J-2
G1 X6.586 Y220.471
G3 X6 Y219.072 I1.414 J-1.414
G2 X5.597 Y218.675 I-0.4 J0.003
G1 X5.197 Y218.678
X5.119 Z-1.992
X5.044 Y218.679 Z-1.97
X4.975 Z-1.933
X4.914 Y218.68 Z-1.883
X4.865 Z-1.822
X4.828 Z-1.753
X4.805 Y218.681 Z-1.678
X4.797 Z-1.6
G0 Z10
X102.871 Y298.95
Z7
G1 Z4 F550
Z1.9
G19 G2 Y298.55 Z1.5 J-0.4 K0 F1000
G1 Y298.15
G17 G2 X102.471 Y297.75 I-0.4 J0
G1 X14.343 Z-1.577
G3 X12.929 Y297.164 Z-1.632 I0 J-2
G1 X6.586 Y290.821 Z-1.946
G3 X6 Y289.42 Z-2 I1.414 J-1.414
G1 Y289.407 F1500
Y231.75
G3 X8 Y229.75 I2 J0
G1 X448
G3 X450 Y231.75 I0 J2
G1 Y289.407
G3 X449.414 Y290.821 I-2 J0
G1 X443.071 Y297.164
G3 X441.657 Y297.75 I-1.414 J-1.414
G1 X14.343
G3 X12.929 Y297.164 I0 J-2
G1 X6.586 Y290.821
G3 X6 Y289.42 I1.414 J-1.414
G2 X5.597 Y289.023 I-0.4 J0.003
G1 X5.197 Y289.025
X5.119 Y289.026 Z-1.992
X5.044 Z-1.97
X4.975 Y289.027 Z-1.933
X4.915 Z-1.883
X4.865 Y289.028 Z-1.822
X4.828 Z-1.753
X4.805 Z-1.678
X4.797 Z-1.6
G0 Z10
X102.873 Y228.6
Z7
G1 Z3 F550
Z0.9
G19 G2 Y228.2 Z0.5 J-0.4 K0 F1000
G1 Y227.8
G17 G2 X102.473 Y227.4 I-0.4 J0
G1 X14.343 Z-2.578
G3 X12.929 Y226.814 Z-2.632 I0 J-2
G1 X6.586 Y220.471 Z-2.946
G3 X6 Y219.072 Z-3 I1.414 J-1.414
G1 Y219.057 F1500
Y161.4
G3 X8 Y159.4 I2 J0
G1 X448
G3 X450 Y161.4 I0 J2
G1 Y219.057
G3 X449.414 Y220.471 I-2 J0
G1 X443.071 Y226.814
G3 X441.657 Y227.4 I-1.414 J-1.414
G1 X14.343
G3 X12.929 Y226.814 I0 J-2
G1 X6.586 Y220.471
G3 X6 Y219.072 I1.414 J-1.414
G2 X5.597 Y218.675 I-0.4 J0.003
G1 X5.197 Y218.678
X5.119 Z-2.992
X5.044 Y218.679 Z-2.97
X4.975 Z-2.933
X4.914 Y218.68 Z-2.883
X4.865 Z-2.822
X4.828 Z-2.753
X4.805 Y218.681 Z-2.678
X4.797 Z-2.6
G0 Z10
X105.494 Y158.25
Z7
G1 Z3 F550
Z0.9
G19 G2 Y157.85 Z0.5 J-0.4 K0 F1000
G1 Y157.45
G17 G2 X105.094 Y157.05 I-0.4 J0
G1 X8 Z-2.891
G3 X6 Y155.058 Z-3 I0 J-2
G1 Y155.05 F1500
Y84.7
G3 X8 Y82.7 I2 J0
G1 X448
G3 X450 Y84.7 I0 J2
G1 Y155.05
G3 X448 Y157.05 I-2 J0
G1 X8
G3 X6 Y155.058 I0 J-2
G2 X5.598 Y154.66 I-0.4 J0.002
G1 X5.198 Y154.662
X5.12 Z-2.992
X5.045 Z-2.97
X4.976 Z-2.933
X4.916 Y154.663 Z-2.883
X4.866 Z-2.822
X4.829 Z-2.753
X4.806 Z-2.678
X4.798 Z-2.6
G0 Z10
X45.187 Y439.65
Z7
G1 Z5 F550
Z2.9
G19 G2 Y439.25 Z2.5 J-0.4 K0 F1000
G1 Y438.85
G17 G2 X44.787 Y438.45 I-0.4 J0
G1 X14.343 Z1.437
G3 X12.929 Y437.864 Z1.382 I0 J-2
G1 X6.586 Y431.521 Z1.069
G3 X6 Y430.107 Z1.014 I1.414 J-1.414
G1 Y372.45 Z-0.999
Y372.436 Z-1
G3 X8 Y370.45 I2 J0.014 F1500
G1 X448
G3 X450 Y372.45 I0 J2
G1 Y430.107
G3 X449.414 Y431.521 I-2 J0
G1 X443.071 Y437.864
G3 X441.657 Y438.45 I-1.414 J-1.414
G1 X14.343
G3 X12.929 Y437.864 I0 J-2
G1 X6.586 Y431.521
G3 X6 Y430.107 I1.414 J-1.414
G1 Y372.45
Y372.436
G2 X5.603 Y372.033 I-0.4 J-0.003
G1 X5.203 Y372.03
X5.125 Y372.029 Z-0.992
X5.05 Z-0.97
X4.981 Y372.028 Z-0.933
X4.92 Z-0.883
X4.87 Z-0.822
X4.833 Y372.027 Z-0.753
X4.811 Z-0.678
X4.803 Z-0.6
G0 Z10
X98.545 Y503.834
Z7
G1 Z5 F550
Z2.9
Y503.827 Z2.822 F1000
X98.547 Y503.804 Z2.747
X98.551 Y503.767 Z2.678
X98.555 Y503.718 Z2.617
X98.561 Y503.657 Z2.567
X98.567 Y503.588 Z2.53
X98.573 Y503.514 Z2.508
X98.58 Y503.436 Z2.5
X98.616 Y503.037
G2 X98.253 Y502.604 I-0.398 J-0.035
G1 X72.861 Y500.347 Z1.61
G2 X71.445 Y500.347 Z1.56 I-0.708 J7.969
G1 X21.955 Y504.745 Z-0.175
G3 X6.721 Y490.4 Z-1 I-1.239 J-13.945
X10.537 Y481.187 I13.994 J0.4 F1500
G1 X46.61 Y442.994
G3 X51.699 Y440.8 I5.089 J4.806
G1 X92.607
G3 X97.696 Y442.994 I0 J7
G1 X133.769 Y481.187
G3 X122.351 Y504.745 I-10.179 J9.613
G1 X72.861 Y500.347
G2 X71.445 Y500.347 I-0.708 J7.969
G1 X21.955 Y504.745
G3 X6.721 Y490.4 I-1.239 J-13.945
G2 X6.332 Y489.989 I-0.4 J-0.011
G1 X5.933 Y489.978
X5.855 Y489.975 Z-0.992
X5.78 Y489.973 Z-0.97
X5.711 Y489.971 Z-0.933
X5.65 Y489.97 Z-0.883
X5.6 Y489.968 Z-0.822
X5.563 Y489.967 Z-0.753
X5.54 Y489.966 Z-0.678
X5.533 Z-0.6
G0 Z10
X98.297 Y567.973
Z7
G1 Z5 F550
Z2.9
X98.298 Y567.966 Z2.822 F1000
X98.3 Y567.943 Z2.747
X98.303 Y567.906 Z2.678
X98.308 Y567.857 Z2.617
X98.313 Y567.796 Z2.567
X98.319 Y567.727 Z2.53
X98.326 Y567.653 Z2.508
X98.333 Y567.575 Z2.5
X98.368 Y567.176
G2 X98.005 Y566.743 I-0.398 J-0.035
G1 X72.861 Y564.508 Z1.618
G2 X71.445 Y564.508 Z1.569 I-0.708 J7.969
G1 X21.955 Y568.906 Z-0.166
G3 X6.73 Y554.313 Z-1 I-1.239 J-13.945
X10.537 Y545.348 I13.985 J0.648 F1500
G1 X46.61 Y507.155
G3 X51.699 Y504.961 I5.089 J4.806
G1 X92.607
G3 X97.696 Y507.155 I0 J7
G1 X133.768 Y545.348
G3 X122.351 Y568.906 I-10.178 J9.613
G1 X72.861 Y564.508
G2 X71.445 Y564.508 I-0.708 J7.969
G1 X21.955 Y568.906
G3 X6.73 Y554.313 I-1.239 J-13.945
X10.537 Y545.348 Z-1.347 I13.985 J0.648 F1000
G1 X23.369 Y531.762 Z-2
X46.61 Y507.155 F1500
G3 X51.699 Y504.961 I5.089 J4.806
G1 X92.607
G3 X97.696 Y507.155 I0 J7
G1 X133.768 Y545.348
G3 X122.351 Y568.906 I-10.178 J9.613
G1 X72.861 Y564.508
G2 X71.445 Y564.508 I-0.708 J7.969
G1 X21.955 Y568.906
G3 X10.537 Y545.348 I-1.239 J-13.945
G1 X23.369 Y531.762
G2 X23.353 Y531.196 I-0.291 J-0.275
G1 X23.062 Y530.921
X23.006 Y530.868 Z-1.992
X22.951 Y530.816 Z-1.97
X22.901 Y530.769 Z-1.933
X22.857 Y530.727 Z-1.883
X22.821 Y530.693 Z-1.822
X22.794 Y530.668 Z-1.753
X22.777 Y530.652 Z-1.678
X22.772 Y530.647 Z-1.6
G0 Z10
X204.985 Y519.772
Z7
G1 Z5 F550
Z2.9
X204.981 Y519.779 Z2.822 F1000
X204.97 Y519.799 Z2.747
X204.952 Y519.831 Z2.678
X204.927 Y519.874 Z2.617
X204.897 Y519.927 Z2.567
X204.863 Y519.987 Z2.53
X204.825 Y520.052 Z2.508
X204.786 Y520.12 Z2.5
X204.588 Y520.467
G2 X204.736 Y521.013 I0.347 J0.199
X206.392 Y521.727 Z2.437 I3.977 J-6.942
G1 X216.1 Y524.668 Z2.083
G3 X231.149 Y566.026 Z0.301 I-7.974 J26.319
G1 X216.498 Y588.455 Z-0.635
G3 X207.582 Y592.971 Z-1 I-8.372 J-5.469
X199.754 Y588.455 I0.544 J-9.985 F1500
G1 X189.177 Y572.263
G2 X188.746 Y571.664 I-6.703 J4.367
X183.098 Y572.264 I-2.033 J7.737
G3 X171.496 Y564.688 I-3.614 J-7.137
G2 X167.882 Y557.551 I-7.988 J-0.439
G1 X159.986 Y552.395
G2 X151.997 Y551.955 I-4.374 J6.698
G3 X140.476 Y543.598 I-3.614 J-7.137
G2 X138.845 Y537.416 I-7.906 J-1.22
G3 X159.257 Y507.446 I14.902 J-11.786
G1 X179.87 Y513.691
G2 X187.66 Y511.872 I2.32 J-7.656
G3 X200.922 Y515.889 I5.471 J5.837
G2 X206.392 Y521.727 I7.791 J-1.818
G1 X216.1 Y524.668
G3 X231.149 Y566.026 I-7.974 J26.319
G1 X216.498 Y588.455
G3 X207.582 Y592.971 I-8.372 J-5.469
G2 X207.161 Y593.349 I-0.022 J0.399
G1 X207.139 Y593.748
X207.135 Y593.826 Z-0.992
X207.131 Y593.901 Z-0.97
X207.127 Y593.97 Z-0.933
X207.124 Y594.031 Z-0.883
X207.121 Y594.081 Z-0.822
X207.119 Y594.117 Z-0.753
X207.118 Y594.14 Z-0.678
X207.117 Y594.148 Z-0.6
G0 Z10
X306.725 Y546.506
Z7
G1 Z5 F550
Z2.9
X306.717 Z2.822 F1000
X306.694 Y546.503 Z2.747
X306.658 Y546.5 Z2.678
X306.608 Y546.495 Z2.617
X306.548 Y546.488 Z2.567
X306.479 Y546.481 Z2.53
X306.404 Y546.474 Z2.508
X306.327 Y546.466 Z2.5
X305.929 Y546.425
G2 X305.49 Y546.782 I-0.041 J0.398
X318.321 Y587.769 Z0.958 I54.172 J5.543
G3 X312.436 Y599.302 Z0.381 I-5.314 J4.556
G2 X273.58 Y599.302 Z-0.977 I-19.428 J236.788
G3 X272.93 Y599.325 Z-1 I-0.573 J-6.976
X266.085 Y591.282 I0.077 J-6.999 F1500
G2 X266.085 Y513.37 I-258.245 J-38.956
G3 X273.58 Y505.35 I6.922 J-1.044
G2 X312.435 Y505.35 I19.428 J-236.788
G3 X318.321 Y516.882 I0.572 J6.976
G2 X318.321 Y587.769 I41.341 J35.444
G3 X312.436 Y599.302 I-5.314 J4.556
G2 X273.58 Y599.302 I-19.428 J236.788
G3 X272.93 Y599.325 I-0.573 J-6.976
G2 X272.525 Y599.721 I-0.004 J0.4
G1 X272.521 Y600.121
X272.52 Y600.199 Z-0.992
X272.519 Y600.274 Z-0.97
Y600.343 Z-0.933
X272.518 Y600.404 Z-0.883
X272.517 Y600.453 Z-0.822
Y600.49 Z-0.753
Y600.513 Z-0.678
Y600.521 Z-0.6
G0 Z10
X364.35 Y549.171
Z7
G1 Z5 F550
Z2.9
X364.342 Y549.17 Z2.822 F1000
X364.319 Y549.168 Z2.747
X364.283 Y549.164 Z2.678
X364.233 Y549.159 Z2.617
X364.173 Y549.153 Z2.567
X364.104 Y549.146 Z2.53
X364.029 Y549.139 Z2.508
X363.952 Y549.131 Z2.5
X363.554 Y549.092
G2 X363.116 Y549.45 I-0.039 J0.398
X375.964 Y590.269 Z0.964 I54.188 J5.375
G3 X370.079 Y601.802 Z0.387 I-5.314 J4.556
G2 X331.223 Y601.802 Z-0.971 I-19.428 J236.787
G3 X330.404 Y601.821 Z-1 I-0.573 J-6.976
X323.728 Y593.782 I0.246 J-6.996 F1500
G2 X323.728 Y515.87 I-258.245 J-38.956
G3 X331.223 Y507.85 I6.922 J-1.044
G2 X370.078 Y507.85 I19.428 J-236.788
G3 X375.964 Y519.382 I0.572 J6.976
G2 X375.964 Y590.269 I41.34 J35.444
G3 X370.079 Y601.802 I-5.314 J4.556
G2 X331.223 Y601.802 I-19.428 J236.787
G3 X330.404 Y601.821 I-0.573 J-6.976
G2 X329.99 Y602.207 I-0.014 J0.4
G1 X329.976 Y602.607
X329.973 Y602.685 Z-0.992
X329.971 Y602.76 Z-0.97
X329.968 Y602.829 Z-0.933
X329.966 Y602.89 Z-0.883
X329.964 Y602.939 Z-0.822
X329.963 Y602.976 Z-0.753
X329.962 Y602.999 Z-0.678
Y603.007 Z-0.6
G0 Z10
X436.069 Y517.045
Z7
G1 Z5 F550
Z2.9
X436.062 Y517.044 Z2.822 F1000
X436.04 Y517.039 Z2.747
X436.003 Y517.032 Z2.678
X435.955 Y517.022 Z2.617
X435.895 Y517.009 Z2.567
X435.828 Y516.995 Z2.53
X435.754 Y516.98 Z2.508
X435.678 Y516.965 Z2.5
X435.286 Y516.884
G2 X434.813 Y517.195 I-0.081 J0.392
G3 X432.634 Y521.24 Z2.337 I-7.836 J-1.612
G1 X425.317 Y528.556 Z1.976
G2 X422.975 Y534.342 Z1.752 I5.657 J5.657
G3 X422.975 Y534.824 Z1.735 I-14.998 J0.241
G2 X425.317 Y540.61 Z1.511 I7.999 J0.128
G1 X432.634 Y547.926 Z1.15
G3 X432.634 Y559.24 Z0.711 I-5.657 J5.657
X421.32 Y559.24 Z0.272 I-5.657 J-5.657
G1 X414.004 Y551.923 Z-0.089
G2 X408.218 Y549.581 Z-0.313 I-5.657 J5.657
G3 X407.736 Y549.581 Z-0.33 I-0.241 J-14.998
G2 X401.95 Y551.923 Z-0.554 I-0.128 J7.999
G1 X394.634 Y559.24 Z-0.915
G3 X392.683 Y560.674 Z-1 I-5.657 J-5.657
X383.32 Y547.926 I-3.706 J-7.091 F1500
G1 X390.637 Y540.61
G2 X392.979 Y534.824 I-5.657 J-5.657
G3 X392.979 Y534.342 I14.998 J-0.241
G2 X390.637 Y528.556 I-7.999 J-0.128
G1 X383.32 Y521.24
G3 X383.32 Y509.926 I5.657 J-5.657
X394.634 Y509.926 I5.657 J5.657
G1 X401.95 Y517.243
G2 X407.736 Y519.585 I5.657 J-5.657
G3 X408.218 Y519.585 I0.241 J14.998
G2 X414.004 Y517.243 I0.128 J-7.999
G1 X421.32 Y509.926
G3 X432.634 Y509.926 I5.657 J5.657
X432.634 Y521.24 I-5.657 J5.657
G1 X425.317 Y528.556
G2 X422.975 Y534.342 I5.657 J5.657
G3 X422.975 Y534.824 I-14.998 J0.241
G2 X425.317 Y540.61 I7.999 J0.128
G1 X432.634 Y547.926
G3 X432.634 Y559.24 I-5.657 J5.657
X421.32 Y559.24 I-5.657 J-5.657
G1 X414.004 Y551.923
G2 X408.218 Y549.581 I-5.657 J5.657
G3 X407.736 Y549.581 I-0.241 J-14.998
G2 X401.95 Y551.923 I-0.128 J7.999
G1 X394.634 Y559.24
G3 X392.683 Y560.674 I-5.657 J-5.657
G2 X392.513 Y561.213 I0.185 J0.354
G1 X392.699 Y561.568
X392.735 Y561.637 Z-0.992
X392.77 Y561.704 Z-0.97
X392.802 Y561.765 Z-0.933
X392.83 Y561.819 Z-0.883
X392.853 Y561.863 Z-0.822
X392.87 Y561.895 Z-0.753
X392.88 Y561.916 Z-0.678
X392.884 Y561.922 Z-0.6
G0 Z10
X484.049 Y535.379
Z7
G1 Z5 F550
Z2.9
X484.043 Y535.374 Z2.822 F1000
X484.026 Y535.359 Z2.747
X483.997 Y535.335 Z2.678
X483.959 Y535.303 Z2.617
X483.913 Y535.264 Z2.567
X483.86 Y535.219 Z2.53
X483.803 Y535.171 Z2.508
X483.743 Y535.121 Z2.5
X483.437 Y534.863
G2 X482.874 Y534.91 I-0.258 J0.306
G3 X482.417 Y535.407 Z2.476 I-6.114 J-5.159
G1 X475.1 Y542.724 Z2.115
G2 X472.759 Y548.51 Z1.891 I5.657 J5.656
G3 X472.759 Y548.992 Z1.874 I-14.999 J0.241
G2 X475.1 Y554.777 Z1.65 I7.999 J0.129
G1 X482.417 Y562.094 Z1.289
G3 X471.104 Y573.407 Z0.412 I-5.657 J5.656
G1 X463.787 Y566.091 Z0.05
G2 X458.001 Y563.749 Z-0.174 I-5.657 J5.656
G3 X457.519 Y563.749 Z-0.191 I-0.241 J-14.998
G2 X451.734 Y566.091 Z-0.414 I-0.128 J7.999
G1 X444.417 Y573.407 Z-0.776
G3 X438.623 Y575.75 Z-1 I-5.657 J-5.656
X433.104 Y562.094 I0.137 J-7.999 F1500
G1 X440.42 Y554.777
G2 X442.762 Y548.992 I-5.656 J-5.657
G3 X442.762 Y548.51 I14.998 J-0.241
G2 X440.42 Y542.724 I-7.999 J-0.128
G1 X433.104 Y535.407
G3 X433.103 Y524.093 I5.656 J-5.657
X444.417 Y524.094 I5.657 J5.657
G1 X451.734 Y531.411
G2 X457.519 Y533.752 I5.656 J-5.657
G3 X458.001 Y533.752 I0.241 J14.999
G2 X463.787 Y531.411 I0.13 J-7.999
G1 X471.104 Y524.094
G3 X482.417 Y535.407 I5.656 J5.657
G1 X475.1 Y542.724
G2 X472.759 Y548.51 I5.657 J5.656
G3 X472.759 Y548.992 I-14.999 J0.241
G2 X475.1 Y554.777 I7.999 J0.129
G1 X482.417 Y562.094
G3 X471.104 Y573.407 I-5.657 J5.656
G1 X463.787 Y566.091
G2 X458.001 Y563.749 I-5.657 J5.656
G3 X457.519 Y563.749 I-0.241 J-14.998
G2 X451.734 Y566.091 I-0.128 J7.999
G1 X444.417 Y573.407
G3 X438.623 Y575.75 I-5.657 J-5.656
G2 X438.216 Y576.143 I-0.007 J0.4
G1 X438.209 Y576.543
X438.208 Y576.621 Z-0.992
X438.206 Y576.696 Z-0.97
X438.205 Y576.765 Z-0.933
X438.204 Y576.825 Z-0.883
X438.203 Y576.875 Z-0.822
Y576.912 Z-0.753
X438.202 Y576.935 Z-0.678
Y576.943 Z-0.6
G0 Z10
X534.14 Y549.767
Z7
G1 Z5 F550
Z2.9
X534.134 Y549.762 Z2.822 F1000
X534.116 Y549.748 Z2.747
X534.087 Y549.725 Z2.678
X534.048 Y549.694 Z2.617
X534.001 Y549.656 Z2.567
X533.947 Y549.613 Z2.53
X533.888 Y549.566 Z2.508
X533.827 Y549.517 Z2.5
X533.514 Y549.268
G2 X532.952 Y549.331 I-0.25 J0.313
G3 X532.357 Y549.996 Z2.469 I-6.251 J-4.992
G1 X525.041 Y557.313 Z2.107
G2 X522.699 Y563.098 Z1.884 I5.656 J5.657
G3 X522.699 Y563.58 Z1.867 I-14.998 J0.241
G2 X525.041 Y569.366 Z1.643 I7.999 J0.128
G1 X532.357 Y576.683 Z1.282
G3 X532.358 Y587.997 Z0.843 I-5.656 J5.657
X521.044 Y587.996 Z0.404 I-5.657 J-5.657
G1 X513.727 Y580.679 Z0.042
G2 X507.942 Y578.338 Z-0.181 I-5.656 J5.657
G3 X507.46 Y578.338 Z-0.198 I-0.235 J-14.999
G2 X501.674 Y580.679 Z-0.422 I-0.13 J7.999
G1 X494.357 Y587.996 Z-0.783
G3 X488.783 Y590.338 Z-1 I-5.656 J-5.657
X483.044 Y576.683 I-0.082 J-7.999 F1500
G1 X490.361 Y569.366
G2 X492.702 Y563.58 I-5.657 J-5.656
G3 X492.702 Y563.098 I14.999 J-0.241
G2 X490.361 Y557.313 I-7.999 J-0.129
G1 X483.044 Y549.996
G3 X483.043 Y538.682 I5.656 J-5.657
X494.357 Y538.683 I5.657 J5.657
G1 X501.674 Y545.999
G2 X507.46 Y548.341 I5.657 J-5.657
G3 X507.942 Y548.341 I0.241 J14.998
G2 X513.727 Y545.999 I0.128 J-7.999
G1 X521.044 Y538.683
G3 X532.358 Y538.682 I5.657 J5.656
X532.357 Y549.996 I-5.657 J5.657
G1 X525.041 Y557.313
G2 X522.699 Y563.098 I5.656 J5.657
G3 X522.699 Y563.58 I-14.998 J0.241
G2 X525.041 Y569.366 I7.999 J0.128
G1 X532.357 Y576.683
G3 X532.358 Y587.997 I-5.656 J5.657
X521.044 Y587.996 I-5.657 J-5.657
G1 X513.727 Y580.679
G2 X507.942 Y578.338 I-5.656 J5.657
G3 X507.46 Y578.338 I-0.235 J-14.999
G2 X501.674 Y580.679 I-0.13 J7.999
G1 X494.357 Y587.996
G3 X488.783 Y590.338 I-5.656 J-5.657
G2 X488.387 Y590.742 I0.004 J0.4
G1 X488.391 Y591.142
X488.392 Y591.22 Z-0.992
X488.393 Y591.296 Z-0.97
X488.394 Y591.365 Z-0.933
Y591.425 Z-0.883
X488.395 Y591.475 Z-0.822
Y591.512 Z-0.753
Y591.535 Z-0.678
X488.396 Y591.542 Z-0.6
G0 Z10
X499.063 Y459.134
Z7
G1 Z5 F550
Z2.9
X499.057 Y459.139 Z2.822 F1000
X499.038 Y459.151 Z2.747
X499.007 Y459.171 Z2.678
X498.965 Y459.198 Z2.617
X498.914 Y459.232 Z2.567
X498.856 Y459.269 Z2.53
X498.794 Y459.31 Z2.508
X498.728 Y459.353 Z2.5
X498.393 Y459.572
G2 X498.277 Y460.126 I0.219 J0.335
G1 X504.736 Y470.013 Z2.088
X504.737 Y470.014
G2 X505.167 Y470.613 Z2.062 I6.705 J-4.365
X510.815 Y470.012 Z1.859 I2.033 J-7.737
G3 X522.417 Y477.588 Z1.274 I3.614 J7.137
G2 X526.031 Y484.725 Z0.981 I7.988 J0.44
G1 X533.927 Y489.881 Z0.652
G2 X541.915 Y490.321 Z0.359 I4.375 J-6.698
G3 X553.436 Y498.678 Z-0.253 I3.615 J7.136
G2 X555.068 Y504.86 Z-0.483 I7.906 J1.219
G3 X559.05 Y518.739 Z-1 I-14.902 J11.786
X534.656 Y534.83 I-18.884 J-2.092 F1500
G1 X514.043 Y528.585
G2 X506.253 Y530.404 I-2.32 J7.656
G3 X492.991 Y526.387 I-5.471 J-5.837
G2 X487.52 Y520.549 I-7.791 J1.819
G1 X477.813 Y517.608
G3 X462.764 Y476.25 I7.974 J-26.319
G1 X477.415 Y453.82
G3 X494.158 Y453.82 I8.372 J5.469
G1 X504.736 Y470.013
X504.737 Y470.014
G2 X505.167 Y470.613 I6.705 J-4.365
X510.815 Y470.012 I2.033 J-7.737
G3 X522.417 Y477.588 I3.614 J7.137
G2 X526.031 Y484.725 I7.988 J0.44
G1 X533.927 Y489.881
G2 X541.915 Y490.321 I4.375 J-6.698
G3 X553.436 Y498.678 I3.615 J7.136
G2 X555.068 Y504.86 I7.906 J1.219
G3 X559.05 Y518.739 I-14.902 J11.786
G2 X559.403 Y519.18 I0.398 J0.044
G1 X559.801 Y519.224
X559.878 Y519.233 Z-0.992
X559.953 Y519.241 Z-0.97
X560.022 Y519.249 Z-0.933
X560.082 Y519.256 Z-0.883
X560.131 Y519.261 Z-0.822
X560.168 Y519.265 Z-0.753
X560.191 Y519.268 Z-0.678
X560.198 Z-0.6
G0 Z10
X534.14 Y549.767
Z7
G1 Z4 F550
Z1.9
X534.134 Y549.762 Z1.822 F1000
X534.116 Y549.748 Z1.747
X534.087 Y549.725 Z1.678
X534.048 Y549.694 Z1.617
X534.001 Y549.656 Z1.567
X533.947 Y549.613 Z1.53
X533.888 Y549.566 Z1.508
X533.827 Y549.517 Z1.5
X533.514 Y549.268
G2 X532.952 Y549.331 I-0.25 J0.313
G3 X532.357 Y549.996 Z1.469 I-6.251 J-4.992
G1 X525.041 Y557.313 Z1.107
G2 X522.699 Y563.098 Z0.884 I5.656 J5.657
G3 X522.699 Y563.58 Z0.867 I-14.998 J0.241
G2 X525.041 Y569.366 Z0.643 I7.999 J0.128
G1 X532.357 Y576.683 Z0.282
G3 X532.358 Y587.997 Z-0.157 I-5.656 J5.657
X521.044 Y587.996 Z-0.596 I-5.657 J-5.657
G1 X513.727 Y580.679 Z-0.958
G2 X507.942 Y578.338 Z-1.181 I-5.656 J5.657
G3 X507.46 Y578.338 Z-1.198 I-0.235 J-14.999
G2 X501.674 Y580.679 Z-1.422 I-0.13 J7.999
G1 X494.357 Y587.996 Z-1.783
G3 X488.783 Y590.338 Z-2 I-5.656 J-5.657
X483.044 Y576.683 I-0.082 J-7.999 F1500
G1 X490.361 Y569.366
G2 X492.702 Y563.58 I-5.657 J-5.656
G3 X492.702 Y563.098 I14.999 J-0.241
G2 X490.361 Y557.313 I-7.999 J-0.129
G1 X483.044 Y549.996
G3 X483.043 Y538.682 I5.656 J-5.657
X494.357 Y538.683 I5.657 J5.657
G1 X501.674 Y545.999
G2 X507.46 Y548.341 I5.657 J-5.657
G3 X507.942 Y548.341 I0.241 J14.998
G2 X513.727 Y545.999 I0.128 J-7.999
G1 X521.044 Y538.683
G3 X532.358 Y538.682 I5.657 J5.656
X532.357 Y549.996 I-5.657 J5.657
G1 X525.041 Y557.313
G2 X522.699 Y563.098 I5.656 J5.657
G3 X522.699 Y563.58 I-14.998 J0.241
G2 X525.041 Y569.366 I7.999 J0.128
G1 X532.357 Y576.683
G3 X532.358 Y587.997 I-5.656 J5.657
X521.044 Y587.996 I-5.657 J-5.657
G1 X513.727 Y580.679
G2 X507.942 Y578.338 I-5.656 J5.657
G3 X507.46 Y578.338 I-0.235 J-14.999
G2 X501.674 Y580.679 I-0.13 J7.999
G1 X494.357 Y587.996
G3 X488.783 Y590.338 I-5.656 J-5.657
G2 X488.387 Y590.742 I0.004 J0.4
G1 X488.391 Y591.142
X488.392 Y591.22 Z-1.992
X488.393 Y591.296 Z-1.97
X488.394 Y591.365 Z-1.933
Y591.425 Z-1.883
X488.395 Y591.475 Z-1.822
Y591.512 Z-1.753
Y591.535 Z-1.678
X488.396 Y591.542 Z-1.6
G0 Z10
X484.049 Y535.379
Z7
G1 Z4 F550
Z1.9
X484.043 Y535.374 Z1.822 F1000
X484.026 Y535.359 Z1.747
X483.997 Y535.335 Z1.678
X483.959 Y535.303 Z1.617
X483.913 Y535.264 Z1.567
X483.86 Y535.219 Z1.53
X483.803 Y535.171 Z1.508
X483.743 Y535.121 Z1.5
X483.437 Y534.863
G2 X482.874 Y534.91 I-0.258 J0.306
G3 X482.417 Y535.407 Z1.476 I-6.114 J-5.159
G1 X475.1 Y542.724 Z1.115
G2 X472.759 Y548.51 Z0.891 I5.657 J5.656
G3 X472.759 Y548.992 Z0.874 I-14.999 J0.241
G2 X475.1 Y554.777 Z0.65 I7.999 J0.129
G1 X482.417 Y562.094 Z0.289
G3 X471.104 Y573.407 Z-0.588 I-5.657 J5.656
G1 X463.787 Y566.091 Z-0.95
G2 X458.001 Y563.749 Z-1.174 I-5.657 J5.656
G3 X457.519 Y563.749 Z-1.191 I-0.241 J-14.998
G2 X451.734 Y566.091 Z-1.414 I-0.128 J7.999
G1 X444.417 Y573.407 Z-1.776
G3 X438.623 Y575.75 Z-2 I-5.657 J-5.656
X433.104 Y562.094 I0.137 J-7.999 F1500
G1 X440.42 Y554.777
G2 X442.762 Y548.992 I-5.656 J-5.657
G3 X442.762 Y548.51 I14.998 J-0.241
G2 X440.42 Y542.724 I-7.999 J-0.128
G1 X433.104 Y535.407
G3 X433.103 Y524.093 I5.656 J-5.657
X444.417 Y524.094 I5.657 J5.657
G1 X451.734 Y531.411
G2 X457.519 Y533.752 I5.656 J-5.657
G3 X458.001 Y533.752 I0.241 J14.999
G2 X463.787 Y531.411 I0.13 J-7.999
G1 X471.104 Y524.094
G3 X482.417 Y535.407 I5.656 J5.657
G1 X475.1 Y542.724
G2 X472.759 Y548.51 I5.657 J5.656
G3 X472.759 Y548.992 I-14.999 J0.241
G2 X475.1 Y554.777 I7.999 J0.129
G1 X482.417 Y562.094
G3 X471.104 Y573.407 I-5.657 J5.656
G1 X463.787 Y566.091
G2 X458.001 Y563.749 I-5.657 J5.656
G3 X457.519 Y563.749 I-0.241 J-14.998
G2 X451.734 Y566.091 I-0.128 J7.999
G1 X444.417 Y573.407
G3 X438.623 Y575.75 I-5.657 J-5.656
G2 X438.216 Y576.143 I-0.007 J0.4
G1 X438.209 Y576.543
X438.208 Y576.621 Z-1.992
X438.206 Y576.696 Z-1.97
X438.205 Y576.765 Z-1.933
X438.204 Y576.825 Z-1.883
X438.203 Y576.875 Z-1.822
Y576.912 Z-1.753
X438.202 Y576.935 Z-1.678
Y576.943 Z-1.6
G0 Z10
X431.848 Y442.155
Z7
G1 Z5 F550
Z2.9
X431.849 Y442.162 Z2.822 F1000
X431.851 Y442.185 Z2.747
X431.854 Y442.222 Z2.678
X431.859 Y442.271 Z2.617
X431.864 Y442.332 Z2.567
X431.87 Y442.401 Z2.53
X431.877 Y442.475 Z2.508
X431.884 Y442.553 Z2.5
X431.919 Y442.952
G2 X432.353 Y443.315 I0.398 J-0.035
G1 X455.159 Y441.288 Z1.7
G3 X466.576 Y464.846 Z0.519 I1.239 J13.945
G1 X436.705 Y496.472 Z-1
X430.503 Y503.039 F1500
G3 X425.414 Y505.233 I-5.089 J-4.806
G1 X384.507
G3 X379.418 Y503.039 I0 J-7
G1 X343.345 Y464.846
G3 X354.762 Y441.288 I10.178 J-9.613
G1 X404.252 Y445.686
G2 X405.669 Y445.686 I0.708 J-7.969
G1 X455.159 Y441.288
G3 X466.576 Y464.846 I1.239 J13.945
G1 X436.705 Y496.472
G2 X436.721 Y497.038 I0.291 J0.275
G1 X437.012 Y497.313
X437.069 Y497.366 Z-0.992
X437.124 Y497.418 Z-0.97
X437.174 Y497.465 Z-0.933
X437.218 Y497.507 Z-0.883
X437.254 Y497.541 Z-0.822
X437.281 Y497.566 Z-0.753
X437.297 Y497.582 Z-0.678
X437.303 Y497.587 Z-0.6
G0 Z10
X436.069 Y517.045
Z7
G1 Z4 F550
Z1.9
X436.062 Y517.044 Z1.822 F1000
X436.04 Y517.039 Z1.747
X436.003 Y517.032 Z1.678
X435.955 Y517.022 Z1.617
X435.895 Y517.009 Z1.567
X435.828 Y516.995 Z1.53
X435.754 Y516.98 Z1.508
X435.678 Y516.965 Z1.5
X435.286 Y516.884
G2 X434.813 Y517.195 I-0.081 J0.392
G3 X432.634 Y521.24 Z1.337 I-7.836 J-1.612
G1 X425.317 Y528.556 Z0.976
G2 X422.975 Y534.342 Z0.752 I5.657 J5.657
G3 X422.975 Y534.824 Z0.735 I-14.998 J0.241
G2 X425.317 Y540.61 Z0.511 I7.999 J0.128
G1 X432.634 Y547.926 Z0.15
G3 X432.634 Y559.24 Z-0.289 I-5.657 J5.657
X421.32 Y559.24 Z-0.728 I-5.657 J-5.657
G1 X414.004 Y551.923 Z-1.089
G2 X408.218 Y549.581 Z-1.313 I-5.657 J5.657
G3 X407.736 Y549.581 Z-1.33 I-0.241 J-14.998
G2 X401.95 Y551.923 Z-1.554 I-0.128 J7.999
G1 X394.634 Y559.24 Z-1.915
G3 X392.683 Y560.674 Z-2 I-5.657 J-5.657
X383.32 Y547.926 I-3.706 J-7.091 F1500
G1 X390.637 Y540.61
G2 X392.979 Y534.824 I-5.657 J-5.657
G3 X392.979 Y534.342 I14.998 J-0.241
G2 X390.637 Y528.556 I-7.999 J-0.128
G1 X383.32 Y521.24
G3 X383.32 Y509.926 I5.657 J-5.657
X394.634 Y509.926 I5.657 J5.657
G1 X401.95 Y517.243
G2 X407.736 Y519.585 I5.657 J-5.657
G3 X408.218 Y519.585 I0.241 J14.998
G2 X414.004 Y517.243 I0.128 J-7.999
G1 X421.32 Y509.926
G3 X432.634 Y509.926 I5.657 J5.657
X432.634 Y521.24 I-5.657 J5.657
G1 X425.317 Y528.556
G2 X422.975 Y534.342 I5.657 J5.657
G3 X422.975 Y534.824 I-14.998 J0.241
G2 X425.317 Y540.61 I7.999 J0.128
G1 X432.634 Y547.926
G3 X432.634 Y559.24 I-5.657 J5.657
X421.32 Y559.24 I-5.657 J-5.657
G1 X414.004 Y551.923
G2 X408.218 Y549.581 I-5.657 J5.657
G3 X407.736 Y549.581 I-0.241 J-14.998
G2 X401.95 Y551.923 I-0.128 J7.999
G1 X394.634 Y559.24
G3 X392.683 Y560.674 I-5.657 J-5.657
G2 X392.513 Y561.213 I0.185 J0.354
G1 X392.699 Y561.568
X392.735 Y561.637 Z-1.992
X392.77 Y561.704 Z-1.97
X392.802 Y561.765 Z-1.933
X392.83 Y561.819 Z-1.883
X392.853 Y561.863 Z-1.822
X392.87 Y561.895 Z-1.753
X392.88 Y561.916 Z-1.678
X392.884 Y561.922 Z-1.6
G0 Z10
X345.976 Y506.145
Z7
G1 Z5 F550
Z2.9
Y506.137 Z2.822 F1000
Y506.115 Z2.747
X345.975 Y506.078 Z2.678
Y506.028 Z2.617
Y505.967 Z2.567
Y505.898 Z2.53
X345.974 Y505.823 Z2.508
Y505.745 Z2.5
X345.972 Y505.345
G2 X345.57 Y504.947 I-0.4 J0.002
G3 X344.268 Y504.892 Z2.454 I-0.063 J-14
G1 X294.778 Y500.494 Z0.719
G2 X293.362 Y500.494 Z0.67 I-0.708 J7.969
G1 X245.73 Y504.727 Z-1
X243.872 Y504.892 F1500
G3 X232.454 Y481.335 I-1.24 J-13.945
G1 X268.527 Y443.141
G3 X273.616 Y440.947 I5.089 J4.806
G1 X314.524
G3 X319.613 Y443.141 I0 J7
G1 X355.685 Y481.335
G3 X344.268 Y504.892 I-10.178 J9.613
G1 X294.778 Y500.494
G2 X293.362 Y500.494 I-0.708 J7.969
G1 X245.73 Y504.727
G2 X245.367 Y505.161 I0.035 J0.398
G1 X245.402 Y505.559
X245.409 Y505.637 Z-0.992
X245.416 Y505.712 Z-0.97
X245.422 Y505.781 Z-0.933
X245.427 Y505.841 Z-0.883
X245.431 Y505.891 Z-0.822
X245.435 Y505.927 Z-0.753
X245.437 Y505.95 Z-0.678
Y505.958 Z-0.6
G0 Z10
X306.725 Y546.506
Z7
G1 Z4 F550
Z1.9
X306.717 Z1.822 F1000
X306.694 Y546.503 Z1.747
X306.658 Y546.5 Z1.678
X306.608 Y546.495 Z1.617
X306.548 Y546.488 Z1.567
X306.479 Y546.481 Z1.53
X306.404 Y546.474 Z1.508
X306.327 Y546.466 Z1.5
X305.929 Y546.425
G2 X305.49 Y546.782 I-0.041 J0.398
X318.321 Y587.769 Z-0.042 I54.172 J5.543
G3 X312.436 Y599.302 Z-0.619 I-5.314 J4.556
G2 X273.58 Y599.302 Z-1.977 I-19.428 J236.788
G3 X272.93 Y599.325 Z-2 I-0.573 J-6.976
X266.085 Y591.282 I0.077 J-6.999 F1500
G2 X266.085 Y513.37 I-258.245 J-38.956
G3 X273.58 Y505.35 I6.922 J-1.044
G2 X312.435 Y505.35 I19.428 J-236.788
G3 X318.321 Y516.882 I0.572 J6.976
G2 X318.321 Y587.769 I41.341 J35.444
G3 X312.436 Y599.302 I-5.314 J4.556
G2 X273.58 Y599.302 I-19.428 J236.788
G3 X272.93 Y599.325 I-0.573 J-6.976
G2 X272.525 Y599.721 I-0.004 J0.4
G1 X272.521 Y600.121
X272.52 Y600.199 Z-1.992
X272.519 Y600.274 Z-1.97
Y600.343 Z-1.933
X272.518 Y600.404 Z-1.883
X272.517 Y600.453 Z-1.822
Y600.49 Z-1.753
Y600.513 Z-1.678
Y600.521 Z-1.6
G0 Z10
X364.35 Y549.171
Z7
G1 Z4 F550
Z1.9
X364.342 Y549.17 Z1.822 F1000
X364.319 Y549.168 Z1.747
X364.283 Y549.164 Z1.678
X364.233 Y549.159 Z1.617
X364.173 Y549.153 Z1.567
X364.104 Y549.146 Z1.53
X364.029 Y549.139 Z1.508
X363.952 Y549.131 Z1.5
X363.554 Y549.092
G2 X363.116 Y549.45 I-0.039 J0.398
X375.964 Y590.269 Z-0.036 I54.188 J5.375
G3 X370.079 Y601.802 Z-0.613 I-5.314 J4.556
G2 X331.223 Y601.802 Z-1.971 I-19.428 J236.787
G3 X330.404 Y601.821 Z-2 I-0.573 J-6.976
X323.728 Y593.782 I0.246 J-6.996 F1500
G2 X323.728 Y515.87 I-258.245 J-38.956
G3 X331.223 Y507.85 I6.922 J-1.044
G2 X370.078 Y507.85 I19.428 J-236.788
G3 X375.964 Y519.382 I0.572 J6.976
G2 X375.964 Y590.269 I41.34 J35.444
G3 X370.079 Y601.802 I-5.314 J4.556
G2 X331.223 Y601.802 I-19.428 J236.787
G3 X330.404 Y601.821 I-0.573 J-6.976
G2 X329.99 Y602.207 I-0.014 J0.4
G1 X329.976 Y602.607
X329.973 Y602.685 Z-1.992
X329.971 Y602.76 Z-1.97
X329.968 Y602.829 Z-1.933
X329.966 Y602.89 Z-1.883
X329.964 Y602.939 Z-1.822
X329.963 Y602.976 Z-1.753
X329.962 Y602.999 Z-1.678
Y603.007 Z-1.6
G0 Z10
X431.848 Y442.155
Z7
G1 Z4 F550
Z1.9
X431.849 Y442.162 Z1.822 F1000
X431.851 Y442.185 Z1.747
X431.854 Y442.222 Z1.678
X431.859 Y442.271 Z1.617
X431.864 Y442.332 Z1.567
X431.87 Y442.401 Z1.53
X431.877 Y442.475 Z1.508
X431.884 Y442.553 Z1.5
X431.919 Y442.952
G2 X432.353 Y443.315 I0.398 J-0.035
G1 X455.159 Y441.288 Z0.7
G3 X466.576 Y464.846 Z-0.481 I1.239 J13.945
G1 X436.705 Y496.472 Z-2
X430.503 Y503.039 F1500
G3 X425.414 Y505.233 I-5.089 J-4.806
G1 X384.507
G3 X379.418 Y503.039 I0 J-7
G1 X343.345 Y464.846
G3 X354.762 Y441.288 I10.178 J-9.613
G1 X404.252 Y445.686
G2 X405.669 Y445.686 I0.708 J-7.969
G1 X455.159 Y441.288
G3 X466.576 Y464.846 I1.239 J13.945
G1 X436.705 Y496.472
G2 X436.721 Y497.038 I0.291 J0.275
G1 X437.012 Y497.313
X437.069 Y497.366 Z-1.992
X437.124 Y497.418 Z-1.97
X437.174 Y497.465 Z-1.933
X437.218 Y497.507 Z-1.883
X437.254 Y497.541 Z-1.822
X437.281 Y497.566 Z-1.753
X437.297 Y497.582 Z-1.678
X437.303 Y497.587 Z-1.6
G0 Z10
X436.069 Y517.045
Z7
G1 Z3 F550
Z0.9
X436.062 Y517.044 Z0.822 F1000
X436.04 Y517.039 Z0.747
X436.003 Y517.032 Z0.678
X435.955 Y517.022 Z0.617
X435.895 Y517.009 Z0.567
X435.828 Y516.995 Z0.53
X435.754 Y516.98 Z0.508
X435.678 Y516.965 Z0.5
X435.286 Y516.884
G2 X434.813 Y517.195 I-0.081 J0.392
G3 X432.634 Y521.24 Z0.337 I-7.836 J-1.612
G1 X425.317 Y528.556 Z-0.024
G2 X422.975 Y534.342 Z-0.248 I5.657 J5.657
G3 X422.975 Y534.824 Z-0.265 I-14.998 J0.241
G2 X425.317 Y540.61 Z-0.489 I7.999 J0.128
G1 X432.634 Y547.926 Z-0.85
G3 X432.634 Y559.24 Z-1.289 I-5.657 J5.657
X421.32 Y559.24 Z-1.728 I-5.657 J-5.657
G1 X414.004 Y551.923 Z-2.089
G2 X408.218 Y549.581 Z-2.313 I-5.657 J5.657
G3 X407.736 Y549.581 Z-2.33 I-0.241 J-14.998
G2 X401.95 Y551.923 Z-2.554 I-0.128 J7.999
G1 X394.634 Y559.24 Z-2.915
G3 X392.683 Y560.674 Z-3 I-5.657 J-5.657
X383.32 Y547.926 I-3.706 J-7.091 F1500
G1 X390.637 Y540.61
G2 X392.979 Y534.824 I-5.657 J-5.657
G3 X392.979 Y534.342 I14.998 J-0.241
G2 X390.637 Y528.556 I-7.999 J-0.128
G1 X383.32 Y521.24
G3 X383.32 Y509.926 I5.657 J-5.657
X394.634 Y509.926 I5.657 J5.657
G1 X401.95 Y517.243
G2 X407.736 Y519.585 I5.657 J-5.657
G3 X408.218 Y519.585 I0.241 J14.998
G2 X414.004 Y517.243 I0.128 J-7.999
G1 X421.32 Y509.926
G3 X432.634 Y509.926 I5.657 J5.657
X432.634 Y521.24 I-5.657 J5.657
G1 X425.317 Y528.556
G2 X422.975 Y534.342 I5.657 J5.657
G3 X422.975 Y534.824 I-14.998 J0.241
G2 X425.317 Y540.61 I7.999 J0.128
G1 X432.634 Y547.926
G3 X432.634 Y559.24 I-5.657 J5.657
X421.32 Y559.24 I-5.657 J-5.657
G1 X414.004 Y551.923
G2 X408.218 Y549.581 I-5.657 J5.657
G3 X407.736 Y549.581 I-0.241 J-14.998
G2 X401.95 Y551.923 I-0.128 J7.999
G1 X394.634 Y559.24
G3 X392.683 Y560.674 I-5.657 J-5.657
G2 X392.513 Y561.213 I0.185 J0.354
G1 X392.699 Y561.568
X392.735 Y561.637 Z-2.992
X392.77 Y561.704 Z-2.97
X392.802 Y561.765 Z-2.933
X392.83 Y561.819 Z-2.883
X392.853 Y561.863 Z-2.822
X392.87 Y561.895 Z-2.753
X392.88 Y561.916 Z-2.678
X392.884 Y561.922 Z-2.6
G0 Z10
X491.135 Y386.254
Z7
G1 Z5 F550
Z2.9
X491.134 Y386.262 Z2.822 F1000
X491.132 Y386.284 Z2.747
X491.129 Y386.321 Z2.678
X491.124 Y386.371 Z2.617
X491.119 Y386.431 Z2.567
X491.113 Y386.5 Z2.53
X491.106 Y386.575 Z2.508
X491.099 Y386.653 Z2.5
X491.064 Y387.051
G2 X491.427 Y387.485 I0.398 J0.035
G1 X517.736 Y389.823 Z1.578
G2 X519.152 Y389.823 Z1.528 I0.708 J-7.969
G1 X568.642 Y385.425 Z-0.207
G3 X583.871 Y398.85 Z-1 I1.239 J13.945
X580.059 Y408.982 I-13.99 J0.52 F1500
G1 X543.987 Y447.176
G3 X538.898 Y449.37 I-5.089 J-4.806
G1 X533.143
G3 X503.744 Y449.37 I-14.699 J-27.86
G1 X497.99
G3 X492.901 Y447.176 I0 J-7
G1 X456.828 Y408.982
G3 X468.246 Y385.425 I10.178 J-9.613
G1 X517.736 Y389.823
G2 X519.152 Y389.823 I0.708 J-7.969
G1 X568.642 Y385.425
G3 X583.871 Y398.85 I1.239 J13.945
G2 X584.286 Y399.235 I0.4 J-0.015
G1 X584.685 Y399.22
X584.763 Y399.217 Z-0.992
X584.838 Y399.214 Z-0.97
X584.907 Y399.212 Z-0.933
X584.968 Y399.209 Z-0.883
X585.018 Y399.207 Z-0.822
X585.055 Y399.206 Z-0.753
X585.077 Y399.205 Z-0.678
X585.085 Z-0.6
G0 Z10
X491.24 Y319.97
Z7
G1 Z5 F550
Z2.9
X491.239 Y319.977 Z2.822 F1000
X491.237 Y320 Z2.747
X491.234 Y320.037 Z2.678
X491.23 Y320.086 Z2.617
X491.224 Y320.147 Z2.567
X491.218 Y320.215 Z2.53
X491.211 Y320.29 Z2.508
X491.205 Y320.368 Z2.5
X491.169 Y320.766
G2 X491.532 Y321.2 I0.398 J0.035
G1 X517.736 Y323.529 Z1.581
G2 X519.152 Y323.529 Z1.532 I0.708 J-7.968
G1 X568.642 Y319.131 Z-0.203
G3 X583.875 Y332.661 Z-1 I1.239 J13.945
X580.059 Y342.689 I-13.994 J0.415 F1500
G1 X543.987 Y380.882
G3 X538.898 Y383.076 I-5.089 J-4.806
G1 X533.143
G3 X503.744 Y383.076 I-14.699 J-27.86
G1 X497.99
G3 X492.901 Y380.882 I0 J-7
G1 X456.828 Y342.689
G3 X468.246 Y319.131 I10.178 J-9.613
G1 X517.736 Y323.529
G2 X519.152 Y323.529 I0.708 J-7.968
G1 X568.642 Y319.131
G3 X583.875 Y332.661 I1.239 J13.945
G2 X584.287 Y333.049 I0.4 J-0.012
G1 X584.687 Y333.037
X584.765 Y333.035 Z-0.992
X584.84 Y333.033 Z-0.97
X584.909 Y333.03 Z-0.933
X584.969 Y333.029 Z-0.883
X585.019 Y333.027 Z-0.822
X585.056 Y333.026 Z-0.753
X585.079 Y333.025 Z-0.678
X585.086 Z-0.6
G0 Z10
X491.24 Y319.97
Z7
G1 Z4 F550
Z1.9
X491.239 Y319.977 Z1.822 F1000
X491.237 Y320 Z1.747
X491.234 Y320.037 Z1.678
X491.23 Y320.086 Z1.617
X491.224 Y320.147 Z1.567
X491.218 Y320.215 Z1.53
X491.211 Y320.29 Z1.508
X491.205 Y320.368 Z1.5
X491.169 Y320.766
G2 X491.532 Y321.2 I0.398 J0.035
G1 X517.736 Y323.529 Z0.581
G2 X519.152 Y323.529 Z0.532 I0.708 J-7.968
G1 X568.642 Y319.131 Z-1.203
G3 X583.875 Y332.661 Z-2 I1.239 J13.945
X580.059 Y342.689 I-13.994 J0.415 F1500
G1 X543.987 Y380.882
G3 X538.898 Y383.076 I-5.089 J-4.806
G1 X533.143
G3 X503.744 Y383.076 I-14.699 J-27.86
G1 X497.99
G3 X492.901 Y380.882 I0 J-7
G1 X456.828 Y342.689
G3 X468.246 Y319.131 I10.178 J-9.613
G1 X517.736 Y323.529
G2 X519.152 Y323.529 I0.708 J-7.968
G1 X568.642 Y319.131
G3 X583.875 Y332.661 I1.239 J13.945
G2 X584.287 Y333.049 I0.4 J-0.012
G1 X584.687 Y333.037
X584.765 Y333.035 Z-1.992
X584.84 Y333.033 Z-1.97
X584.909 Y333.03 Z-1.933
X584.969 Y333.029 Z-1.883
X585.019 Y333.027 Z-1.822
X585.056 Y333.026 Z-1.753
X585.079 Y333.025 Z-1.678
X585.086 Z-1.6
G0 Z10
X492.126 Y253.755
Z7
G1 Z4 F550
Z1.9
Y253.763 Z1.822 F1000
X492.124 Y253.786 Z1.747
X492.12 Y253.822 Z1.678
X492.116 Y253.872 Z1.617
X492.111 Y253.932 Z1.567
X492.105 Y254.001 Z1.53
X492.098 Y254.076 Z1.508
X492.091 Y254.154 Z1.5
X492.056 Y254.552
G2 X492.419 Y254.986 I0.398 J0.035
G1 X517.736 Y257.236 Z0.612
G2 X519.152 Y257.236 Z0.563 I0.708 J-7.969
G1 X568.642 Y252.838 Z-1.172
G3 X583.873 Y267.258 Z-2 I1.239 J13.945
X580.059 Y276.396 I-13.992 J-0.475 F1500
G1 X543.987 Y314.589
G3 X538.898 Y316.783 I-5.089 J-4.806
G1 X533.143
G3 X503.744 Y316.783 I-14.699 J-27.86
G1 X497.99
G3 X492.901 Y314.589 I0 J-7
G1 X456.828 Y276.396
G3 X468.246 Y252.838 I10.178 J-9.613
G1 X517.736 Y257.236
G2 X519.152 Y257.236 I0.708 J-7.969
G1 X568.642 Y252.838
G3 X583.873 Y267.258 I1.239 J13.945
X580.059 Y276.396 Z-2.353 I-13.992 J-0.475 F1000
G1 X567.346 Y289.857 Z-3
X543.987 Y314.589 F1500
G3 X538.898 Y316.783 I-5.089 J-4.806
G1 X533.143
G3 X503.744 Y316.783 I-14.699 J-27.86
G1 X497.99
G3 X492.901 Y314.589 I0 J-7
G1 X456.828 Y276.396
G3 X468.246 Y252.838 I10.178 J-9.613
G1 X517.736 Y257.236
G2 X519.152 Y257.236 I0.708 J-7.969
G1 X568.642 Y252.838
G3 X580.059 Y276.396 I1.239 J13.945
G1 X567.346 Y289.857
G2 X567.362 Y290.422 I0.291 J0.275
G1 X567.653 Y290.697
X567.71 Y290.75 Z-2.992
X567.764 Y290.802 Z-2.97
X567.815 Y290.849 Z-2.933
X567.859 Y290.891 Z-2.883
X567.895 Y290.925 Z-2.822
X567.922 Y290.95 Z-2.753
X567.938 Y290.966 Z-2.678
X567.944 Y290.971 Z-2.6
G0 Z10
X492.177 Y187.467
Z7
G1 Z3 F550
Z0.9
Y187.474 Z0.822 F1000
X492.175 Y187.497 Z0.747
X492.171 Y187.534 Z0.678
X492.167 Y187.584 Z0.617
X492.162 Y187.644 Z0.567
X492.155 Y187.713 Z0.53
X492.149 Y187.788 Z0.508
X492.142 Y187.865 Z0.5
X492.107 Y188.264
G2 X492.47 Y188.698 I0.398 J0.035
G1 X517.736 Y190.943 Z-0.386
G2 X519.152 Y190.943 Z-0.435 I0.708 J-7.969
G1 X568.642 Y186.545 Z-2.17
G3 X583.871 Y201.016 Z-3 I1.239 J13.945
X580.059 Y210.102 I-13.99 J-0.526 F1500
G1 X543.987 Y248.296
G3 X538.898 Y250.49 I-5.089 J-4.806
G1 X533.143
G3 X503.744 Y250.49 I-14.699 J-27.86
G1 X497.99
G3 X492.901 Y248.296 I0 J-7
G1 X456.828 Y210.102
G3 X468.246 Y186.545 I10.178 J-9.613
G1 X517.736 Y190.943
G2 X519.152 Y190.943 I0.708 J-7.969
G1 X568.642 Y186.545
G3 X583.871 Y201.016 I1.239 J13.945
G2 X584.255 Y201.431 I0.4 J0.015
G1 X584.655 Y201.446
X584.733 Y201.449 Z-2.992
X584.808 Y201.452 Z-2.97
X584.877 Y201.454 Z-2.933
X584.938 Y201.457 Z-2.883
X584.988 Y201.459 Z-2.822
X585.025 Y201.46 Z-2.753
X585.047 Y201.461 Z-2.678
X585.055 Z-2.6
G0 Z10
X47.014 Y369.3
Z7
G1 Z4 F550
Z1.9
G19 G2 Y368.9 Z1.5 J-0.4 K0 F1000
G1 Y368.5
G17 G2 X46.614 Y368.1 I-0.4 J0
G1 X14.343 Z0.373
G3 X12.929 Y367.514 Z0.318 I0 J-2
G1 X6.586 Y361.171 Z0.005
G3 X6 Y359.757 Z-0.05 I1.414 J-1.414
G1 Y303.913 Z-2
Y302.1 F1500
G3 X8 Y300.1 I2 J0
G1 X448
G3 X450 Y302.1 I0 J2
G1 Y359.757
G3 X449.414 Y361.171 I-2 J0
G1 X443.071 Y367.514
G3 X441.657 Y368.1 I-1.414 J-1.414
G1 X14.343
G3 X12.929 Y367.514 I0 J-2
G1 X6.586 Y361.171
G3 X6 Y359.757 I1.414 J-1.414
G1 Y303.913
G2 X5.6 Y303.513 I-0.4 J0
G1 X5.2
G18 G3 X4.8 Z-1.6 I0 K0.4
G0 Z10
X102.871 Y298.95
Z7
G1 Z3 F550
Z0.9
G19 G2 Y298.55 Z0.5 J-0.4 K0 F1000
G1 Y298.15
G17 G2 X102.471 Y297.75 I-0.4 J0
G1 X14.343 Z-2.577
G3 X12.929 Y297.164 Z-2.632 I0 J-2
G1 X6.586 Y290.821 Z-2.946
G3 X6 Y289.42 Z-3 I1.414 J-1.414
G1 Y289.407 F1500
Y231.75
G3 X8 Y229.75 I2 J0
G1 X448
G3 X450 Y231.75 I0 J2
G1 Y289.407
G3 X449.414 Y290.821 I-2 J0
G1 X443.071 Y297.164
G3 X441.657 Y297.75 I-1.414 J-1.414
G1 X14.343
G3 X12.929 Y297.164 I0 J-2
G1 X6.586 Y290.821
G3 X6 Y289.42 I1.414 J-1.414
G2 X5.597 Y289.023 I-0.4 J0.003
G1 X5.197 Y289.025
X5.119 Y289.026 Z-2.992
X5.044 Z-2.97
X4.975 Y289.027 Z-2.933
X4.915 Z-2.883
X4.865 Y289.028 Z-2.822
X4.828 Z-2.753
X4.805 Z-2.678
X4.797 Z-2.6
G0 Z10
X215.83 Y441.641
Z7
G1 Z5 F550
Z2.9
X215.831 Y441.648 Z2.822 F1000
X215.833 Y441.671 Z2.747
X215.836 Y441.708 Z2.678
X215.841 Y441.757 Z2.617
X215.846 Y441.818 Z2.567
X215.852 Y441.887 Z2.53
X215.859 Y441.961 Z2.508
X215.866 Y442.039 Z2.5
X215.901 Y442.437
G2 X216.335 Y442.8 I0.398 J-0.035
G1 X233.379 Y441.286 Z1.902
G3 X244.797 Y464.844 Z0.721 I1.24 J13.945
G1 X210.955 Y500.675 Z-1
X208.724 Y503.037 F1500
G3 X203.635 Y505.231 I-5.089 J-4.806
G1 X162.727
G3 X157.638 Y503.037 I0 J-7
G1 X121.565 Y464.844
G3 X132.983 Y441.286 I10.178 J-9.613
G1 X182.473 Y445.684
G2 X183.889 Y445.684 I0.708 J-7.969
G1 X233.379 Y441.286
G3 X244.797 Y464.844 I1.24 J13.945
G1 X210.955 Y500.675
G2 X210.971 Y501.241 I0.291 J0.275
G1 X211.262 Y501.515
X211.319 Y501.569 Z-0.992
X211.373 Y501.62 Z-0.97
X211.423 Y501.668 Z-0.933
X211.467 Y501.71 Z-0.883
X211.504 Y501.744 Z-0.822
X211.53 Y501.769 Z-0.753
X211.547 Y501.785 Z-0.678
X211.553 Y501.79 Z-0.6
G0 Z10
X215.83 Y441.641
Z7
G1 Z4 F550
Z1.9
X215.831 Y441.648 Z1.822 F1000
X215.833 Y441.671 Z1.747
X215.836 Y441.708 Z1.678
X215.841 Y441.757 Z1.617
X215.846 Y441.818 Z1.567
X215.852 Y441.887 Z1.53
X215.859 Y441.961 Z1.508
X215.866 Y442.039 Z1.5
X215.901 Y442.437
G2 X216.335 Y442.8 I0.398 J-0.035
G1 X233.379 Y441.286 Z0.902
G3 X244.797 Y464.844 Z-0.279 I1.24 J13.945
G1 X210.955 Y500.675 Z-2
X208.724 Y503.037 F1500
G3 X203.635 Y505.231 I-5.089 J-4.806
G1 X162.727
G3 X157.638 Y503.037 I0 J-7
G1 X121.565 Y464.844
G3 X132.983 Y441.286 I10.178 J-9.613
G1 X182.473 Y445.684
G2 X183.889 Y445.684 I0.708 J-7.969
G1 X233.379 Y441.286
G3 X244.797 Y464.844 I1.24 J13.945
G1 X210.955 Y500.675
G2 X210.971 Y501.241 I0.291 J0.275
G1 X211.262 Y501.515
X211.319 Y501.569 Z-1.992
X211.373 Y501.62 Z-1.97
X211.423 Y501.668 Z-1.933
X211.467 Y501.71 Z-1.883
X211.504 Y501.744 Z-1.822
X211.53 Y501.769 Z-1.753
X211.547 Y501.785 Z-1.678
X211.553 Y501.79 Z-1.6
G0 Z10
X204.985 Y519.772
Z7
G1 Z4 F550
Z1.9
X204.981 Y519.779 Z1.822 F1000
X204.97 Y519.799 Z1.747
X204.952 Y519.831 Z1.678
X204.927 Y519.874 Z1.617
X204.897 Y519.927 Z1.567
X204.863 Y519.987 Z1.53
X204.825 Y520.052 Z1.508
X204.786 Y520.12 Z1.5
X204.588 Y520.467
G2 X204.736 Y521.013 I0.347 J0.199
X206.392 Y521.727 Z1.437 I3.977 J-6.942
G1 X216.1 Y524.668 Z1.083
G3 X231.149 Y566.026 Z-0.699 I-7.974 J26.319
G1 X216.498 Y588.455 Z-1.635
G3 X207.582 Y592.971 Z-2 I-8.372 J-5.469
X199.754 Y588.455 I0.544 J-9.985 F1500
G1 X189.177 Y572.263
G2 X188.746 Y571.664 I-6.703 J4.367
X183.098 Y572.264 I-2.033 J7.737
G3 X171.496 Y564.688 I-3.614 J-7.137
G2 X167.882 Y557.551 I-7.988 J-0.439
G1 X159.986 Y552.395
G2 X151.997 Y551.955 I-4.374 J6.698
G3 X140.476 Y543.598 I-3.614 J-7.137
G2 X138.845 Y537.416 I-7.906 J-1.22
G3 X159.257 Y507.446 I14.902 J-11.786
G1 X179.87 Y513.691
G2 X187.66 Y511.872 I2.32 J-7.656
G3 X200.922 Y515.889 I5.471 J5.837
G2 X206.392 Y521.727 I7.791 J-1.818
G1 X216.1 Y524.668
G3 X231.149 Y566.026 I-7.974 J26.319
G1 X216.498 Y588.455
G3 X207.582 Y592.971 I-8.372 J-5.469
X199.754 Y588.455 Z-2.327 I0.544 J-9.985 F1000
G1 X189.221 Y572.332 Z-3
X189.177 Y572.263 F1500
G2 X188.746 Y571.664 I-6.703 J4.367
X183.098 Y572.264 I-2.033 J7.737
G3 X171.496 Y564.688 I-3.614 J-7.137
G2 X167.882 Y557.551 I-7.988 J-0.439
G1 X159.986 Y552.395
G2 X151.997 Y551.955 I-4.374 J6.698
G3 X140.476 Y543.598 I-3.614 J-7.137
G2 X138.845 Y537.416 I-7.906 J-1.22
G3 X159.257 Y507.446 I14.902 J-11.786
G1 X179.87 Y513.691
G2 X187.66 Y511.872 I2.32 J-7.656
G3 X200.922 Y515.889 I5.471 J5.837
G2 X206.392 Y521.727 I7.791 J-1.818
G1 X216.1 Y524.668
G3 X231.149 Y566.026 I-7.974 J26.319
G1 X216.498 Y588.455
G3 X199.754 Y588.455 I-8.372 J-5.469
G1 X189.221 Y572.332
G2 X188.668 Y572.215 I-0.335 J0.219
G1 X188.333 Y572.434
X188.268 Y572.477 Z-2.992
X188.205 Y572.518 Z-2.97
X188.147 Y572.556 Z-2.933
X188.096 Y572.589 Z-2.883
X188.055 Y572.616 Z-2.822
X188.024 Y572.636 Z-2.753
X188.005 Y572.649 Z-2.678
X187.998 Y572.653 Z-2.6
G0 Z10
X345.976 Y506.145
Z7
G1 Z4 F550
Z1.9
Y506.137 Z1.822 F1000
Y506.115 Z1.747
X345.975 Y506.078 Z1.678
Y506.028 Z1.617
Y505.967 Z1.567
Y505.898 Z1.53
X345.974 Y505.823 Z1.508
Y505.745 Z1.5
X345.972 Y505.345
G2 X345.57 Y504.947 I-0.4 J0.002
G3 X344.268 Y504.892 Z1.454 I-0.063 J-14
G1 X294.778 Y500.494 Z-0.281
G2 X293.362 Y500.494 Z-0.33 I-0.708 J7.969
G1 X245.73 Y504.727 Z-2
X243.872 Y504.892 F1500
G3 X232.454 Y481.335 I-1.24 J-13.945
G1 X268.527 Y443.141
G3 X273.616 Y440.947 I5.089 J4.806
G1 X314.524
G3 X319.613 Y443.141 I0 J7
G1 X355.685 Y481.335
G3 X344.268 Y504.892 I-10.178 J9.613
G1 X294.778 Y500.494
G2 X293.362 Y500.494 I-0.708 J7.969
G1 X245.73 Y504.727
G2 X245.367 Y505.161 I0.035 J0.398
G1 X245.402 Y505.559
X245.409 Y505.637 Z-1.992
X245.416 Y505.712 Z-1.97
X245.422 Y505.781 Z-1.933
X245.427 Y505.841 Z-1.883
X245.431 Y505.891 Z-1.822
X245.435 Y505.927 Z-1.753
X245.437 Y505.95 Z-1.678
Y505.958 Z-1.6
G0 Z10
X306.725 Y546.506
Z7
G1 Z3 F550
Z0.9
X306.717 Z0.822 F1000
X306.694 Y546.503 Z0.747
X306.658 Y546.5 Z0.678
X306.608 Y546.495 Z0.617
X306.548 Y546.488 Z0.567
X306.479 Y546.481 Z0.53
X306.404 Y546.474 Z0.508
X306.327 Y546.466 Z0.5
X305.929 Y546.425
G2 X305.49 Y546.782 I-0.041 J0.398
X318.321 Y587.769 Z-1.042 I54.172 J5.543
G3 X312.436 Y599.302 Z-1.619 I-5.314 J4.556
G2 X273.58 Y599.302 Z-2.977 I-19.428 J236.788
G3 X272.93 Y599.325 Z-3 I-0.573 J-6.976
X266.085 Y591.282 I0.077 J-6.999 F1500
G2 X266.085 Y513.37 I-258.245 J-38.956
G3 X273.58 Y505.35 I6.922 J-1.044
G2 X312.435 Y505.35 I19.428 J-236.788
G3 X318.321 Y516.882 I0.572 J6.976
G2 X318.321 Y587.769 I41.341 J35.444
G3 X312.436 Y599.302 I-5.314 J4.556
G2 X273.58 Y599.302 I-19.428 J236.788
G3 X272.93 Y599.325 I-0.573 J-6.976
G2 X272.525 Y599.721 I-0.004 J0.4
G1 X272.521 Y600.121
X272.52 Y600.199 Z-2.992
X272.519 Y600.274 Z-2.97
Y600.343 Z-2.933
X272.518 Y600.404 Z-2.883
X272.517 Y600.453 Z-2.822
Y600.49 Z-2.753
Y600.513 Z-2.678
Y600.521 Z-2.6
G0 Z10
X364.35 Y549.171
Z7
G1 Z3 F550
Z0.9
X364.342 Y549.17 Z0.822 F1000
X364.319 Y549.168 Z0.747
X364.283 Y549.164 Z0.678
X364.233 Y549.159 Z0.617
X364.173 Y549.153 Z0.567
X364.104 Y549.146 Z0.53
X364.029 Y549.139 Z0.508
X363.952 Y549.131 Z0.5
X363.554 Y549.092
G2 X363.116 Y549.45 I-0.039 J0.398
X375.964 Y590.269 Z-1.036 I54.188 J5.375
G3 X370.079 Y601.802 Z-1.613 I-5.314 J4.556
G2 X331.223 Y601.802 Z-2.971 I-19.428 J236.787
G3 X330.404 Y601.821 Z-3 I-0.573 J-6.976
X323.728 Y593.782 I0.246 J-6.996 F1500
G2 X323.728 Y515.87 I-258.245 J-38.956
G3 X331.223 Y507.85 I6.922 J-1.044
G2 X370.078 Y507.85 I19.428 J-236.788
G3 X375.964 Y519.382 I0.572 J6.976
G2 X375.964 Y590.269 I41.34 J35.444
G3 X370.079 Y601.802 I-5.314 J4.556
G2 X331.223 Y601.802 I-19.428 J236.787
G3 X330.404 Y601.821 I-0.573 J-6.976
G2 X329.99 Y602.207 I-0.014 J0.4
G1 X329.976 Y602.607
X329.973 Y602.685 Z-2.992
X329.971 Y602.76 Z-2.97
X329.968 Y602.829 Z-2.933
X329.966 Y602.89 Z-2.883
X329.964 Y602.939 Z-2.822
X329.963 Y602.976 Z-2.753
X329.962 Y602.999 Z-2.678
Y603.007 Z-2.6
G0 Z10
X499.063 Y459.134
Z7
G1 Z4 F550
Z1.9
X499.057 Y459.139 Z1.822 F1000
X499.038 Y459.151 Z1.747
X499.007 Y459.171 Z1.678
X498.965 Y459.198 Z1.617
X498.914 Y459.232 Z1.567
X498.856 Y459.269 Z1.53
X498.794 Y459.31 Z1.508
X498.728 Y459.353 Z1.5
X498.393 Y459.572
G2 X498.277 Y460.126 I0.219 J0.335
G1 X504.736 Y470.013 Z1.088
X504.737 Y470.014
G2 X505.167 Y470.613 Z1.062 I6.705 J-4.365
X510.815 Y470.012 Z0.859 I2.033 J-7.737
G3 X522.417 Y477.588 Z0.274 I3.614 J7.137
G2 X526.031 Y484.725 Z-0.019 I7.988 J0.44
G1 X533.927 Y489.881 Z-0.348
G2 X541.915 Y490.321 Z-0.641 I4.375 J-6.698
G3 X553.436 Y498.678 Z-1.253 I3.615 J7.136
G2 X555.068 Y504.86 Z-1.483 I7.906 J1.219
G3 X559.05 Y518.739 Z-2 I-14.902 J11.786
X534.656 Y534.83 I-18.884 J-2.092 F1500
G1 X514.043 Y528.585
G2 X506.253 Y530.404 I-2.32 J7.656
G3 X492.991 Y526.387 I-5.471 J-5.837
G2 X487.52 Y520.549 I-7.791 J1.819
G1 X477.813 Y517.608
G3 X462.764 Y476.25 I7.974 J-26.319
G1 X477.415 Y453.82
G3 X494.158 Y453.82 I8.372 J5.469
G1 X504.736 Y470.013
X504.737 Y470.014
G2 X505.167 Y470.613 I6.705 J-4.365
X510.815 Y470.012 I2.033 J-7.737
G3 X522.417 Y477.588 I3.614 J7.137
G2 X526.031 Y484.725 I7.988 J0.44
G1 X533.927 Y489.881
G2 X541.915 Y490.321 I4.375 J-6.698
G3 X553.436 Y498.678 I3.615 J7.136
G2 X555.068 Y504.86 I7.906 J1.219
G3 X559.05 Y518.739 I-14.902 J11.786
G2 X559.403 Y519.18 I0.398 J0.044
G1 X559.801 Y519.224
X559.878 Y519.233 Z-1.992
X559.953 Y519.241 Z-1.97
X560.022 Y519.249 Z-1.933
X560.082 Y519.256 Z-1.883
X560.131 Y519.261 Z-1.822
X560.168 Y519.265 Z-1.753
X560.191 Y519.268 Z-1.678
X560.198 Z-1.6
G0 Z10
X534.14 Y549.767
Z7
G1 Z3 F550
Z0.9
X534.134 Y549.762 Z0.822 F1000
X534.116 Y549.748 Z0.747
X534.087 Y549.725 Z0.678
X534.048 Y549.694 Z0.617
X534.001 Y549.656 Z0.567
X533.947 Y549.613 Z0.53
X533.888 Y549.566 Z0.508
X533.827 Y549.517 Z0.5
X533.514 Y549.268
G2 X532.952 Y549.331 I-0.25 J0.313
G3 X532.357 Y549.996 Z0.469 I-6.251 J-4.992
G1 X525.041 Y557.313 Z0.107
G2 X522.699 Y563.098 Z-0.116 I5.656 J5.657
G3 X522.699 Y563.58 Z-0.133 I-14.998 J0.241
G2 X525.041 Y569.366 Z-0.357 I7.999 J0.128
G1 X532.357 Y576.683 Z-0.718
G3 X532.358 Y587.997 Z-1.157 I-5.656 J5.657
X521.044 Y587.996 Z-1.596 I-5.657 J-5.657
G1 X513.727 Y580.679 Z-1.958
G2 X507.942 Y578.338 Z-2.181 I-5.656 J5.657
G3 X507.46 Y578.338 Z-2.198 I-0.235 J-14.999
G2 X501.674 Y580.679 Z-2.422 I-0.13 J7.999
G1 X494.357 Y587.996 Z-2.783
G3 X488.783 Y590.338 Z-3 I-5.656 J-5.657
X483.044 Y576.683 I-0.082 J-7.999 F1500
G1 X490.361 Y569.366
G2 X492.702 Y563.58 I-5.657 J-5.656
G3 X492.702 Y563.098 I14.999 J-0.241
G2 X490.361 Y557.313 I-7.999 J-0.129
G1 X483.044 Y549.996
G3 X483.043 Y538.682 I5.656 J-5.657
X494.357 Y538.683 I5.657 J5.657
G1 X501.674 Y545.999
G2 X507.46 Y548.341 I5.657 J-5.657
G3 X507.942 Y548.341 I0.241 J14.998
G2 X513.727 Y545.999 I0.128 J-7.999
G1 X521.044 Y538.683
G3 X532.358 Y538.682 I5.657 J5.656
X532.357 Y549.996 I-5.657 J5.657
G1 X525.041 Y557.313
G2 X522.699 Y563.098 I5.656 J5.657
G3 X522.699 Y563.58 I-14.998 J0.241
G2 X525.041 Y569.366 I7.999 J0.128
G1 X532.357 Y576.683
G3 X532.358 Y587.997 I-5.656 J5.657
X521.044 Y587.996 I-5.657 J-5.657
G1 X513.727 Y580.679
G2 X507.942 Y578.338 I-5.656 J5.657
G3 X507.46 Y578.338 I-0.235 J-14.999
G2 X501.674 Y580.679 I-0.13 J7.999
G1 X494.357 Y587.996
G3 X488.783 Y590.338 I-5.656 J-5.657
G2 X488.387 Y590.742 I0.004 J0.4
G1 X488.391 Y591.142
X488.392 Y591.22 Z-2.992
X488.393 Y591.296 Z-2.97
X488.394 Y591.365 Z-2.933
Y591.425 Z-2.883
X488.395 Y591.475 Z-2.822
Y591.512 Z-2.753
Y591.535 Z-2.678
X488.396 Y591.542 Z-2.6
G0 Z10
X484.049 Y535.379
Z7
G1 Z3 F550
Z0.9
X484.043 Y535.374 Z0.822 F1000
X484.026 Y535.359 Z0.747
X483.997 Y535.335 Z0.678
X483.959 Y535.303 Z0.617
X483.913 Y535.264 Z0.567
X483.86 Y535.219 Z0.53
X483.803 Y535.171 Z0.508
X483.743 Y535.121 Z0.5
X483.437 Y534.863
G2 X482.874 Y534.91 I-0.258 J0.306
G3 X482.417 Y535.407 Z0.476 I-6.114 J-5.159
G1 X475.1 Y542.724 Z0.115
G2 X472.759 Y548.51 Z-0.109 I5.657 J5.656
G3 X472.759 Y548.992 Z-0.126 I-14.999 J0.241
G2 X475.1 Y554.777 Z-0.35 I7.999 J0.129
G1 X482.417 Y562.094 Z-0.711
G3 X471.104 Y573.407 Z-1.588 I-5.657 J5.656
G1 X463.787 Y566.091 Z-1.95
G2 X458.001 Y563.749 Z-2.174 I-5.657 J5.656
G3 X457.519 Y563.749 Z-2.191 I-0.241 J-14.998
G2 X451.734 Y566.091 Z-2.414 I-0.128 J7.999
G1 X444.417 Y573.407 Z-2.776
G3 X438.623 Y575.75 Z-3 I-5.657 J-5.656
X433.104 Y562.094 I0.137 J-7.999 F1500
G1 X440.42 Y554.777
G2 X442.762 Y548.992 I-5.656 J-5.657
G3 X442.762 Y548.51 I14.998 J-0.241
G2 X440.42 Y542.724 I-7.999 J-0.128
G1 X433.104 Y535.407
G3 X433.103 Y524.093 I5.656 J-5.657
X444.417 Y524.094 I5.657 J5.657
G1 X451.734 Y531.411
G2 X457.519 Y533.752 I5.656 J-5.657
G3 X458.001 Y533.752 I0.241 J14.999
G2 X463.787 Y531.411 I0.13 J-7.999
G1 X471.104 Y524.094
G3 X482.417 Y535.407 I5.656 J5.657
G1 X475.1 Y542.724
G2 X472.759 Y548.51 I5.657 J5.656
G3 X472.759 Y548.992 I-14.999 J0.241
G2 X475.1 Y554.777 I7.999 J0.129
G1 X482.417 Y562.094
G3 X471.104 Y573.407 I-5.657 J5.656
G1 X463.787 Y566.091
G2 X458.001 Y563.749 I-5.657 J5.656
G3 X457.519 Y563.749 I-0.241 J-14.998
G2 X451.734 Y566.091 I-0.128 J7.999
G1 X444.417 Y573.407
G3 X438.623 Y575.75 I-5.657 J-5.656
G2 X438.216 Y576.143 I-0.007 J0.4
G1 X438.209 Y576.543
X438.208 Y576.621 Z-2.992
X438.206 Y576.696 Z-2.97
X438.205 Y576.765 Z-2.933
X438.204 Y576.825 Z-2.883
X438.203 Y576.875 Z-2.822
Y576.912 Z-2.753
X438.202 Y576.935 Z-2.678
Y576.943 Z-2.6
G0 Z10
X45.187 Y439.65
Z7
G1 Z4 F550
Z1.9
G19 G2 Y439.25 Z1.5 J-0.4 K0 F1000
G1 Y438.85
G17 G2 X44.787 Y438.45 I-0.4 J0
G1 X14.343 Z0.437
G3 X12.929 Y437.864 Z0.382 I0 J-2
G1 X6.586 Y431.521 Z0.069
G3 X6 Y430.107 Z0.014 I1.414 J-1.414
G1 Y372.45 Z-1.999
Y372.436 Z-2
G3 X8 Y370.45 I2 J0.014 F1500
G1 X448
G3 X450 Y372.45 I0 J2
G1 Y430.107
G3 X449.414 Y431.521 I-2 J0
G1 X443.071 Y437.864
G3 X441.657 Y438.45 I-1.414 J-1.414
G1 X14.343
G3 X12.929 Y437.864 I0 J-2
G1 X6.586 Y431.521
G3 X6 Y430.107 I1.414 J-1.414
G1 Y372.45
Y372.436
G2 X5.603 Y372.033 I-0.4 J-0.003
G1 X5.203 Y372.03
X5.125 Y372.029 Z-1.992
X5.05 Z-1.97
X4.981 Y372.028 Z-1.933
X4.92 Z-1.883
X4.87 Z-1.822
X4.833 Y372.027 Z-1.753
X4.811 Z-1.678
X4.803 Z-1.6
G0 Z10
X47.014 Y369.3
Z7
G1 Z3 F550
Z0.9
G19 G2 Y368.9 Z0.5 J-0.4 K0 F1000
G1 Y368.5
G17 G2 X46.614 Y368.1 I-0.4 J0
G1 X14.343 Z-0.627
G3 X12.929 Y367.514 Z-0.682 I0 J-2
G1 X6.586 Y361.171 Z-0.995
G3 X6 Y359.757 Z-1.05 I1.414 J-1.414
G1 Y303.913 Z-3
Y302.1 F1500
G3 X8 Y300.1 I2 J0
G1 X448
G3 X450 Y302.1 I0 J2
G1 Y359.757
G3 X449.414 Y361.171 I-2 J0
G1 X443.071 Y367.514
G3 X441.657 Y368.1 I-1.414 J-1.414
G1 X14.343
G3 X12.929 Y367.514 I0 J-2
G1 X6.586 Y361.171
G3 X6 Y359.757 I1.414 J-1.414
G1 Y303.913
G2 X5.6 Y303.513 I-0.4 J0
G1 X5.2
G18 G3 X4.8 Z-2.6 I0 K0.4
G0 Z10
X98.545 Y503.834
Z7
G1 Z4 F550
Z1.9
Y503.827 Z1.822 F1000
X98.547 Y503.804 Z1.747
X98.551 Y503.767 Z1.678
X98.555 Y503.718 Z1.617
X98.561 Y503.657 Z1.567
X98.567 Y503.588 Z1.53
X98.573 Y503.514 Z1.508
X98.58 Y503.436 Z1.5
X98.616 Y503.037
G17 G2 X98.253 Y502.604 I-0.398 J-0.035
G1 X72.861 Y500.347 Z0.61
G2 X71.445 Y500.347 Z0.56 I-0.708 J7.969
G1 X21.955 Y504.745 Z-1.175
G3 X6.721 Y490.4 Z-2 I-1.239 J-13.945
X10.537 Y481.187 I13.994 J0.4 F1500
G1 X46.61 Y442.994
G3 X51.699 Y440.8 I5.089 J4.806
G1 X92.607
G3 X97.696 Y442.994 I0 J7
G1 X133.769 Y481.187
G3 X122.351 Y504.745 I-10.179 J9.613
G1 X72.861 Y500.347
G2 X71.445 Y500.347 I-0.708 J7.969
G1 X21.955 Y504.745
G3 X6.721 Y490.4 I-1.239 J-13.945
G2 X6.332 Y489.989 I-0.4 J-0.011
G1 X5.933 Y489.978
X5.855 Y489.975 Z-1.992
X5.78 Y489.973 Z-1.97
X5.711 Y489.971 Z-1.933
X5.65 Y489.97 Z-1.883
X5.6 Y489.968 Z-1.822
X5.563 Y489.967 Z-1.753
X5.54 Y489.966 Z-1.678
X5.533 Z-1.6
G0 Z10
X98.545 Y503.834
Z7
G1 Z3 F550
Z0.9
Y503.827 Z0.822 F1000
X98.547 Y503.804 Z0.747
X98.551 Y503.767 Z0.678
X98.555 Y503.718 Z0.617
X98.561 Y503.657 Z0.567
X98.567 Y503.588 Z0.53
X98.573 Y503.514 Z0.508
X98.58 Y503.436 Z0.5
X98.616 Y503.037
G2 X98.253 Y502.604 I-0.398 J-0.035
G1 X72.861 Y500.347 Z-0.39
G2 X71.445 Y500.347 Z-0.44 I-0.708 J7.969
G1 X21.955 Y504.745 Z-2.175
G3 X6.721 Y490.4 Z-3 I-1.239 J-13.945
X10.537 Y481.187 I13.994 J0.4 F1500
G1 X46.61 Y442.994
G3 X51.699 Y440.8 I5.089 J4.806
G1 X92.607
G3 X97.696 Y442.994 I0 J7
G1 X133.769 Y481.187
G3 X122.351 Y504.745 I-10.179 J9.613
G1 X72.861 Y500.347
G2 X71.445 Y500.347 I-0.708 J7.969
G1 X21.955 Y504.745
G3 X6.721 Y490.4 I-1.239 J-13.945
G2 X6.332 Y489.989 I-0.4 J-0.011
G1 X5.933 Y489.978
X5.855 Y489.975 Z-2.992
X5.78 Y489.973 Z-2.97
X5.711 Y489.971 Z-2.933
X5.65 Y489.97 Z-2.883
X5.6 Y489.968 Z-2.822
X5.563 Y489.967 Z-2.753
X5.54 Y489.966 Z-2.678
X5.533 Z-2.6
G0 Z10
X98.297 Y567.973
Z7
G1 Z3 F550
Z0.9
X98.298 Y567.966 Z0.822 F1000
X98.3 Y567.943 Z0.747
X98.303 Y567.906 Z0.678
X98.308 Y567.857 Z0.617
X98.313 Y567.796 Z0.567
X98.319 Y567.727 Z0.53
X98.326 Y567.653 Z0.508
X98.333 Y567.575 Z0.5
X98.368 Y567.176
G2 X98.005 Y566.743 I-0.398 J-0.035
G1 X72.861 Y564.508 Z-0.382
G2 X71.445 Y564.508 Z-0.431 I-0.708 J7.969
G1 X21.955 Y568.906 Z-2.166
G3 X6.73 Y554.313 Z-3 I-1.239 J-13.945
X10.537 Y545.348 I13.985 J0.648 F1500
G1 X46.61 Y507.155
G3 X51.699 Y504.961 I5.089 J4.806
G1 X92.607
G3 X97.696 Y507.155 I0 J7
G1 X133.768 Y545.348
G3 X122.351 Y568.906 I-10.178 J9.613
G1 X72.861 Y564.508
G2 X71.445 Y564.508 I-0.708 J7.969
G1 X21.955 Y568.906
G3 X6.73 Y554.313 I-1.239 J-13.945
G2 X6.349 Y553.895 I-0.4 J-0.018
G1 X5.95 Y553.876
X5.872 Y553.873 Z-2.992
X5.797 Y553.869 Z-2.97
X5.728 Y553.866 Z-2.933
X5.667 Y553.863 Z-2.883
X5.617 Y553.861 Z-2.822
X5.58 Y553.859 Z-2.753
X5.558 Y553.858 Z-2.678
X5.55 Z-2.6
G0 Z10
X215.83 Y441.641
Z7
G1 Z3 F550
Z0.9
X215.831 Y441.648 Z0.822 F1000
X215.833 Y441.671 Z0.747
X215.836 Y441.708 Z0.678
X215.841 Y441.757 Z0.617
X215.846 Y441.818 Z0.567
X215.852 Y441.887 Z0.53
X215.859 Y441.961 Z0.508
X215.866 Y442.039 Z0.5
X215.901 Y442.437
G2 X216.335 Y442.8 I0.398 J-0.035
G1 X233.379 Y441.286 Z-0.098
G3 X244.797 Y464.844 Z-1.279 I1.24 J13.945
G1 X210.955 Y500.675 Z-3
X208.724 Y503.037 F1500
G3 X203.635 Y505.231 I-5.089 J-4.806
G1 X162.727
G3 X157.638 Y503.037 I0 J-7
G1 X121.565 Y464.844
G3 X132.983 Y441.286 I10.178 J-9.613
G1 X182.473 Y445.684
G2 X183.889 Y445.684 I0.708 J-7.969
G1 X233.379 Y441.286
G3 X244.797 Y464.844 I1.24 J13.945
G1 X210.955 Y500.675
G2 X210.971 Y501.241 I0.291 J0.275
G1 X211.262 Y501.515
X211.319 Y501.569 Z-2.992
X211.373 Y501.62 Z-2.97
X211.423 Y501.668 Z-2.933
X211.467 Y501.71 Z-2.883
X211.504 Y501.744 Z-2.822
X211.53 Y501.769 Z-2.753
X211.547 Y501.785 Z-2.678
X211.553 Y501.79 Z-2.6
G0 Z10
X345.976 Y506.145
Z7
G1 Z3 F550
Z0.9
Y506.137 Z0.822 F1000
Y506.115 Z0.747
X345.975 Y506.078 Z0.678
Y506.028 Z0.617
Y505.967 Z0.567
Y505.898 Z0.53
X345.974 Y505.823 Z0.508
Y505.745 Z0.5
X345.972 Y505.345
G2 X345.57 Y504.947 I-0.4 J0.002
G3 X344.268 Y504.892 Z0.454 I-0.063 J-14
G1 X294.778 Y500.494 Z-1.281
G2 X293.362 Y500.494 Z-1.33 I-0.708 J7.969
G1 X245.73 Y504.727 Z-3
X243.872 Y504.892 F1500
G3 X232.454 Y481.335 I-1.24 J-13.945
G1 X268.527 Y443.141
G3 X273.616 Y440.947 I5.089 J4.806
G1 X314.524
G3 X319.613 Y443.141 I0 J7
G1 X355.685 Y481.335
G3 X344.268 Y504.892 I-10.178 J9.613
G1 X294.778 Y500.494
G2 X293.362 Y500.494 I-0.708 J7.969
G1 X245.73 Y504.727
G2 X245.367 Y505.161 I0.035 J0.398
G1 X245.402 Y505.559
X245.409 Y505.637 Z-2.992
X245.416 Y505.712 Z-2.97
X245.422 Y505.781 Z-2.933
X245.427 Y505.841 Z-2.883
X245.431 Y505.891 Z-2.822
X245.435 Y505.927 Z-2.753
X245.437 Y505.95 Z-2.678
Y505.958 Z-2.6
G0 Z10
X431.848 Y442.155
Z7
G1 Z3 F550
Z0.9
X431.849 Y442.162 Z0.822 F1000
X431.851 Y442.185 Z0.747
X431.854 Y442.222 Z0.678
X431.859 Y442.271 Z0.617
X431.864 Y442.332 Z0.567
X431.87 Y442.401 Z0.53
X431.877 Y442.475 Z0.508
X431.884 Y442.553 Z0.5
X431.919 Y442.952
G2 X432.353 Y443.315 I0.398 J-0.035
G1 X455.159 Y441.288 Z-0.3
G3 X466.576 Y464.846 Z-1.481 I1.239 J13.945
G1 X436.705 Y496.472 Z-3
X430.503 Y503.039 F1500
G3 X425.414 Y505.233 I-5.089 J-4.806
G1 X384.507
G3 X379.418 Y503.039 I0 J-7
G1 X343.345 Y464.846
G3 X354.762 Y441.288 I10.178 J-9.613
G1 X404.252 Y445.686
G2 X405.669 Y445.686 I0.708 J-7.969
G1 X455.159 Y441.288
G3 X466.576 Y464.846 I1.239 J13.945
G1 X436.705 Y496.472
G2 X436.721 Y497.038 I0.291 J0.275
G1 X437.012 Y497.313
X437.069 Y497.366 Z-2.992
X437.124 Y497.418 Z-2.97
X437.174 Y497.465 Z-2.933
X437.218 Y497.507 Z-2.883
X437.254 Y497.541 Z-2.822
X437.281 Y497.566 Z-2.753
X437.297 Y497.582 Z-2.678
X437.303 Y497.587 Z-2.6
G0 Z10
X491.135 Y386.254
Z7
G1 Z4 F550
Z1.9
X491.134 Y386.262 Z1.822 F1000
X491.132 Y386.284 Z1.747
X491.129 Y386.321 Z1.678
X491.124 Y386.371 Z1.617
X491.119 Y386.431 Z1.567
X491.113 Y386.5 Z1.53
X491.106 Y386.575 Z1.508
X491.099 Y386.653 Z1.5
X491.064 Y387.051
G2 X491.427 Y387.485 I0.398 J0.035
G1 X517.736 Y389.823 Z0.578
G2 X519.152 Y389.823 Z0.528 I0.708 J-7.969
G1 X568.642 Y385.425 Z-1.207
G3 X583.871 Y398.85 Z-2 I1.239 J13.945
X580.059 Y408.982 I-13.99 J0.52 F1500
G1 X543.987 Y447.176
G3 X538.898 Y449.37 I-5.089 J-4.806
G1 X533.143
G3 X503.744 Y449.37 I-14.699 J-27.86
G1 X497.99
G3 X492.901 Y447.176 I0 J-7
G1 X456.828 Y408.982
G3 X468.246 Y385.425 I10.178 J-9.613
G1 X517.736 Y389.823
G2 X519.152 Y389.823 I0.708 J-7.969
G1 X568.642 Y385.425
G3 X583.871 Y398.85 I1.239 J13.945
G2 X584.286 Y399.235 I0.4 J-0.015
G1 X584.685 Y399.22
X584.763 Y399.217 Z-1.992
X584.838 Y399.214 Z-1.97
X584.907 Y399.212 Z-1.933
X584.968 Y399.209 Z-1.883
X585.018 Y399.207 Z-1.822
X585.055 Y399.206 Z-1.753
X585.077 Y399.205 Z-1.678
X585.085 Z-1.6
G0 Z10
X491.135 Y386.254
Z7
G1 Z3 F550
Z0.9
X491.134 Y386.262 Z0.822 F1000
X491.132 Y386.284 Z0.747
X491.129 Y386.321 Z0.678
X491.124 Y386.371 Z0.617
X491.119 Y386.431 Z0.567
X491.113 Y386.5 Z0.53
X491.106 Y386.575 Z0.508
X491.099 Y386.653 Z0.5
X491.064 Y387.051
G2 X491.427 Y387.485 I0.398 J0.035
G1 X517.736 Y389.823 Z-0.422
G2 X519.152 Y389.823 Z-0.472 I0.708 J-7.969
G1 X568.642 Y385.425 Z-2.207
G3 X583.871 Y398.85 Z-3 I1.239 J13.945
X580.059 Y408.982 I-13.99 J0.52 F1500
G1 X543.987 Y447.176
G3 X538.898 Y449.37 I-5.089 J-4.806
G1 X533.143
G3 X503.744 Y449.37 I-14.699 J-27.86
G1 X497.99
G3 X492.901 Y447.176 I0 J-7
G1 X456.828 Y408.982
G3 X468.246 Y385.425 I10.178 J-9.613
G1 X517.736 Y389.823
G2 X519.152 Y389.823 I0.708 J-7.969
G1 X568.642 Y385.425
G3 X583.871 Y398.85 I1.239 J13.945
G2 X584.286 Y399.235 I0.4 J-0.015
G1 X584.685 Y399.22
X584.763 Y399.217 Z-2.992
X584.838 Y399.214 Z-2.97
X584.907 Y399.212 Z-2.933
X584.968 Y399.209 Z-2.883
X585.018 Y399.207 Z-2.822
X585.055 Y399.206 Z-2.753
X585.077 Y399.205 Z-2.678
X585.085 Z-2.6
G0 Z10
X491.24 Y319.97
Z7
G1 Z3 F550
Z0.9
X491.239 Y319.977 Z0.822 F1000
X491.237 Y320 Z0.747
X491.234 Y320.037 Z0.678
X491.23 Y320.086 Z0.617
X491.224 Y320.147 Z0.567
X491.218 Y320.215 Z0.53
X491.211 Y320.29 Z0.508
X491.205 Y320.368 Z0.5
X491.169 Y320.766
G2 X491.532 Y321.2 I0.398 J0.035
G1 X517.736 Y323.529 Z-0.419
G2 X519.152 Y323.529 Z-0.468 I0.708 J-7.968
G1 X568.642 Y319.131 Z-2.203
G3 X583.875 Y332.661 Z-3 I1.239 J13.945
X580.059 Y342.689 I-13.994 J0.415 F1500
G1 X543.987 Y380.882
G3 X538.898 Y383.076 I-5.089 J-4.806
G1 X533.143
G3 X503.744 Y383.076 I-14.699 J-27.86
G1 X497.99
G3 X492.901 Y380.882 I0 J-7
G1 X456.828 Y342.689
G3 X468.246 Y319.131 I10.178 J-9.613
G1 X517.736 Y323.529
G2 X519.152 Y323.529 I0.708 J-7.968
G1 X568.642 Y319.131
G3 X583.875 Y332.661 I1.239 J13.945
G2 X584.287 Y333.049 I0.4 J-0.012
G1 X584.687 Y333.037
X584.765 Y333.035 Z-2.992
X584.84 Y333.033 Z-2.97
X584.909 Y333.03 Z-2.933
X584.969 Y333.029 Z-2.883
X585.019 Y333.027 Z-2.822
X585.056 Y333.026 Z-2.753
X585.079 Y333.025 Z-2.678
X585.086 Z-2.6
G0 Z10
X45.187 Y439.65
Z7
G1 Z3 F550
Z0.9
G19 G2 Y439.25 Z0.5 J-0.4 K0 F1000
G1 Y438.85
G17 G2 X44.787 Y438.45 I-0.4 J0
G1 X14.343 Z-0.563
G3 X12.929 Y437.864 Z-0.618 I0 J-2
G1 X6.586 Y431.521 Z-0.931
G3 X6 Y430.107 Z-0.986 I1.414 J-1.414
G1 Y372.45 Z-2.999
Y372.436 Z-3
G3 X8 Y370.45 I2 J0.014 F1500
G1 X448
G3 X450 Y372.45 I0 J2
G1 Y430.107
G3 X449.414 Y431.521 I-2 J0
G1 X443.071 Y437.864
G3 X441.657 Y438.45 I-1.414 J-1.414
G1 X14.343
G3 X12.929 Y437.864 I0 J-2
G1 X6.586 Y431.521
G3 X6 Y430.107 I1.414 J-1.414
G1 Y372.45
Y372.436
G2 X5.603 Y372.033 I-0.4 J-0.003
G1 X5.203 Y372.03
X5.125 Y372.029 Z-2.992
X5.05 Z-2.97
X4.981 Y372.028 Z-2.933
X4.92 Z-2.883
X4.87 Z-2.822
X4.833 Y372.027 Z-2.753
X4.811 Z-2.678
X4.803 Z-2.6
G0 Z10
X499.063 Y459.134
Z7
G1 Z3 F550
Z0.9
X499.057 Y459.139 Z0.822 F1000
X499.038 Y459.151 Z0.747
X499.007 Y459.171 Z0.678
X498.965 Y459.198 Z0.617
X498.914 Y459.232 Z0.567
X498.856 Y459.269 Z0.53
X498.794 Y459.31 Z0.508
X498.728 Y459.353 Z0.5
X498.393 Y459.572
G2 X498.277 Y460.126 I0.219 J0.335
G1 X504.736 Y470.013 Z0.088
X504.737 Y470.014
G2 X505.167 Y470.613 Z0.062 I6.705 J-4.365
X510.815 Y470.012 Z-0.141 I2.033 J-7.737
G3 X522.417 Y477.588 Z-0.726 I3.614 J7.137
G2 X526.031 Y484.725 Z-1.019 I7.988 J0.44
G1 X533.927 Y489.881 Z-1.348
G2 X541.915 Y490.321 Z-1.641 I4.375 J-6.698
G3 X553.436 Y498.678 Z-2.253 I3.615 J7.136
G2 X555.068 Y504.86 Z-2.483 I7.906 J1.219
G3 X559.05 Y518.739 Z-3 I-14.902 J11.786
X534.656 Y534.83 I-18.884 J-2.092 F1500
G1 X514.043 Y528.585
G2 X506.253 Y530.404 I-2.32 J7.656
G3 X492.991 Y526.387 I-5.471 J-5.837
G2 X487.52 Y520.549 I-7.791 J1.819
G1 X477.813 Y517.608
G3 X462.764 Y476.25 I7.974 J-26.319
G1 X477.415 Y453.82
G3 X494.158 Y453.82 I8.372 J5.469
G1 X504.736 Y470.013
X504.737 Y470.014
G2 X505.167 Y470.613 I6.705 J-4.365
X510.815 Y470.012 I2.033 J-7.737
G3 X522.417 Y477.588 I3.614 J7.137
G2 X526.031 Y484.725 I7.988 J0.44
G1 X533.927 Y489.881
G2 X541.915 Y490.321 I4.375 J-6.698
G3 X553.436 Y498.678 I3.615 J7.136
G2 X555.068 Y504.86 I7.906 J1.219
G3 X559.05 Y518.739 I-14.902 J11.786
G2 X559.403 Y519.18 I0.398 J0.044
G1 X559.801 Y519.224
X559.878 Y519.233 Z-2.992
X559.953 Y519.241 Z-2.97
X560.022 Y519.249 Z-2.933
X560.082 Y519.256 Z-2.883
X560.131 Y519.261 Z-2.822
X560.168 Y519.265 Z-2.753
X560.191 Y519.268 Z-2.678
X560.198 Z-2.6
G0 Z15
G28 G91 Z0
G90
G28 G91 X0 Y0
G90
M5
M30
