(Boring op)
(T2  D=4 CR=0 - ZMIN=-3 - flat end mill)
G90 G94
G17
G21
G28 G91 Z0
G90

(Bore1 2)
T2
S10000 M3
G54
G0 X501.944 Y222.23
Z25
Z5
G1 Z0.4 F1000
G18 G3 X501.544 Z0 I-0.4 K0
G1 X501.344
G17 G2 X500.944 Y222.63 I0 J0.4
X535.944 Y222.63 Z-0.5 I17.5 J0 F1143
X500.944 Y222.63 Z-1 I-17.5 J0
X535.944 Y222.63 Z-1.5 I17.5 J0
X500.944 Y222.63 Z-2 I-17.5 J0
X535.944 Y222.63 Z-2.5 I17.5 J0
X500.944 Y222.63 Z-3 I-17.5 J0
X535.944 Y222.63 I17.5 J0
X500.944 Y222.63 I-17.5 J0
X501.344 Y223.03 I0.4 J0
G1 X501.544
G18 G2 X501.944 Z-2.6 I0 K0.4
G0 Z10
X504.751 Y155.696
Z5
G1 Z0.4 F1000
G3 X504.351 Z0 I-0.4 K0
G1 X504.151
G17 G2 X503.751 Y156.096 I0 J0.4
X538.751 Y156.096 Z-0.5 I17.5 J0 F1143
X503.751 Y156.096 Z-1 I-17.5 J0
X538.751 Y156.096 Z-1.5 I17.5 J0
X503.751 Y156.096 Z-2 I-17.5 J0
X538.751 Y156.096 Z-2.5 I17.5 J0
X503.751 Y156.096 Z-3 I-17.5 J0
X538.751 Y156.096 I17.5 J0
X503.751 Y156.096 I-17.5 J0
X504.151 Y156.496 I0.4 J0
G1 X504.351
G18 G2 X504.751 Z-2.6 I0 K0.4
G0 Z10
X562.344 Y99.185
Z5
G1 Z0.4 F1000
G2 X562.744 Z0 I0.4 K0
G1 X562.944
G17 G2 X563.344 Y98.785 I0 J-0.4
X553.344 Y98.785 Z-0.5 I-5 J0 F1143
X563.344 Y98.785 Z-1 I5 J0
X553.344 Y98.785 Z-1.5 I-5 J0
X563.344 Y98.785 Z-2 I5 J0
X553.344 Y98.785 Z-2.5 I-5 J0
X563.344 Y98.785 Z-3 I5 J0
X553.344 Y98.785 I-5 J0
X563.344 Y98.785 I5 J0
X562.944 Y98.385 I-0.4 J0
G1 X562.744
G18 G3 X562.344 Z-2.6 I0 K0.4
G0 Z10
X513.839 Y83.873
Z5
G1 Z0.4 F1000
G2 X514.239 Z0 I0.4 K0
G1 X514.439
G17 G2 X514.839 Y83.473 I0 J-0.4
X504.839 Y83.473 Z-0.5 I-5 J0 F1143
X514.839 Y83.473 Z-1 I5 J0
X504.839 Y83.473 Z-1.5 I-5 J0
X514.839 Y83.473 Z-2 I5 J0
X504.839 Y83.473 Z-2.5 I-5 J0
X514.839 Y83.473 Z-3 I5 J0
X504.839 Y83.473 I-5 J0
X514.839 Y83.473 I5 J0
X514.439 Y83.073 I-0.4 J0
G1 X514.239
G18 G3 X513.839 Z-2.6 I0 K0.4
G0 Z10
X487.834 Y99.185
Z5
G1 Z0.4 F1000
G2 X488.234 Z0 I0.4 K0
G1 X488.434
G17 G2 X488.834 Y98.785 I0 J-0.4
X478.834 Y98.785 Z-0.5 I-5 J0 F1143
X488.834 Y98.785 Z-1 I5 J0
X478.834 Y98.785 Z-1.5 I-5 J0
X488.834 Y98.785 Z-2 I5 J0
X478.834 Y98.785 Z-2.5 I-5 J0
X488.834 Y98.785 Z-3 I5 J0
X478.834 Y98.785 I-5 J0
X488.834 Y98.785 I5 J0
X488.434 Y98.385 I-0.4 J0
G1 X488.234
G18 G3 X487.834 Z-2.6 I0 K0.4
G0 Z10
Y41.779
Z5
G1 Z0.4 F1000
G2 X488.234 Z0 I0.4 K0
G1 X488.434
G17 G2 X488.834 Y41.379 I0 J-0.4
X478.834 Y41.379 Z-0.5 I-5 J0 F1143
X488.834 Y41.379 Z-1 I5 J0
X478.834 Y41.379 Z-1.5 I-5 J0
X488.834 Y41.379 Z-2 I5 J0
X478.834 Y41.379 Z-2.5 I-5 J0
X488.834 Y41.379 Z-3 I5 J0
X478.834 Y41.379 I-5 J0
X488.834 Y41.379 I5 J0
X488.434 Y40.979 I-0.4 J0
G1 X488.234
G18 G3 X487.834 Z-2.6 I0 K0.4
G0 Z10
X513.839 Y26.468
Z5
G1 Z0.4 F1000
G2 X514.239 Z0 I0.4 K0
G1 X514.439
G17 G2 X514.839 Y26.068 I0 J-0.4
X504.839 Y26.068 Z-0.5 I-5 J0 F1143
X514.839 Y26.068 Z-1 I5 J0
X504.839 Y26.068 Z-1.5 I-5 J0
X514.839 Y26.068 Z-2 I5 J0
X504.839 Y26.068 Z-2.5 I-5 J0
X514.839 Y26.068 Z-3 I5 J0
X504.839 Y26.068 I-5 J0
X514.839 Y26.068 I5 J0
X514.439 Y25.668 I-0.4 J0
G1 X514.239
G18 G3 X513.839 Z-2.6 I0 K0.4
G0 Z10
X562.344 Y41.779
Z5
G1 Z0.4 F1000
G2 X562.744 Z0 I0.4 K0
G1 X562.944
G17 G2 X563.344 Y41.379 I0 J-0.4
X553.344 Y41.379 Z-0.5 I-5 J0 F1143
X563.344 Y41.379 Z-1 I5 J0
X553.344 Y41.379 Z-1.5 I-5 J0
X563.344 Y41.379 Z-2 I5 J0
X553.344 Y41.379 Z-2.5 I-5 J0
X563.344 Y41.379 Z-3 I5 J0
X553.344 Y41.379 I-5 J0
X563.344 Y41.379 I5 J0
X562.944 Y40.979 I-0.4 J0
G1 X562.744
G18 G3 X562.344 Z-2.6 I0 K0.4
G0 Z25
G17
G28 G91 Z0
G90
G28 G91 X0 Y0
G90
M5
M30
