(single pass 1500)
(T2  D=4 CR=0 - ZMIN=-3 - flat end mill)
G90 G94
G17
G21
G28 G91 Z0
G90

(single pass 1500)
T2
S10000 M3
G54
G0 X104.286 Y369.3
Z15
Z7
G1 Z5 F550
Z2.9
G19 G2 Y368.9 Z2.5 J-0.4 K0 F1000
G1 Y368.5
G17 G2 X103.886 Y368.1 I-0.4 J0
G1 X14.343 Z-0.627
G3 X12.929 Y367.514 Z-0.682 I0 J-2
G1 X6.586 Y361.171 Z-0.995
G3 X6 Y359.757 Z-1.05 I1.414 J-1.414
G1 Y303.913 Z-3
Y302.1 F1500
G3 X8 Y300.1 I2 J0
G1 X448
G3 X450 Y302.1 I0 J2
G1 Y359.757
G3 X449.414 Y361.171 I-2 J0
G1 X443.071 Y367.514
G3 X441.657 Y368.1 I-1.414 J-1.414
G1 X14.343
G3 X12.929 Y367.514 I0 J-2
G1 X6.586 Y361.171
G3 X6 Y359.757 I1.414 J-1.414
G1 Y303.913
G2 X5.6 Y303.513 I-0.4 J0
G1 X5.2
G18 G3 X4.8 Z-2.6 I0 K0.4
G0 Z10
X160.144 Y298.95
Z7
G1 Z5 F550
Z2.9
G19 G2 Y298.55 Z2.5 J-0.4 K0 F1000
G1 Y298.15
G17 G2 X159.744 Y297.75 I-0.4 J0
G1 X14.343 Z-2.577
G3 X12.929 Y297.164 Z-2.632 I0 J-2
G1 X6.586 Y290.821 Z-2.946
G3 X6 Y289.42 Z-3 I1.414 J-1.414
G1 Y289.407 F1500
Y231.75
G3 X8 Y229.75 I2 J0
G1 X448
G3 X450 Y231.75 I0 J2
G1 Y289.407
G3 X449.414 Y290.821 I-2 J0
G1 X443.071 Y297.164
G3 X441.657 Y297.75 I-1.414 J-1.414
G1 X14.343
G3 X12.929 Y297.164 I0 J-2
G1 X6.586 Y290.821
G3 X6 Y289.42 I1.414 J-1.414
G2 X5.597 Y289.023 I-0.4 J0.003
G1 X5.197 Y289.025
X5.119 Y289.026 Z-2.992
X5.044 Z-2.97
X4.975 Y289.027 Z-2.933
X4.915 Z-2.883
X4.865 Y289.028 Z-2.822
X4.828 Z-2.753
X4.805 Z-2.678
X4.797 Z-2.6
G0 Z10
X160.145 Y228.6
Z7
G1 Z5 F550
Z2.9
G19 G2 Y228.2 Z2.5 J-0.4 K0 F1000
G1 Y227.8
G17 G2 X159.745 Y227.4 I-0.4 J0
G1 X14.343 Z-2.578
G3 X12.929 Y226.814 Z-2.632 I0 J-2
G1 X6.586 Y220.471 Z-2.946
G3 X6 Y219.072 Z-3 I1.414 J-1.414
G1 Y219.057 F1500
Y161.4
G3 X8 Y159.4 I2 J0
G1 X448
G3 X450 Y161.4 I0 J2
G1 Y219.057
G3 X449.414 Y220.471 I-2 J0
G1 X443.071 Y226.814
G3 X441.657 Y227.4 I-1.414 J-1.414
G1 X14.343
G3 X12.929 Y226.814 I0 J-2
G1 X6.586 Y220.471
G3 X6 Y219.072 I1.414 J-1.414
G2 X5.597 Y218.675 I-0.4 J0.003
G1 X5.197 Y218.678
X5.119 Z-2.992
X5.044 Y218.679 Z-2.97
X4.975 Z-2.933
X4.914 Y218.68 Z-2.883
X4.865 Z-2.822
X4.828 Z-2.753
X4.805 Y218.681 Z-2.678
X4.797 Z-2.6
G0 Z10
X162.766 Y158.25
Z7
G1 Z5 F550
Z2.9
G19 G2 Y157.85 Z2.5 J-0.4 K0 F1000
G1 Y157.45
G17 G2 X162.366 Y157.05 I-0.4 J0
G1 X8 Z-2.891
G3 X6 Y155.058 Z-3 I0 J-2
G1 Y155.05 F1500
Y84.7
G3 X8 Y82.7 I2 J0
G1 X448
G3 X450 Y84.7 I0 J2
G1 Y155.05
G3 X448 Y157.05 I-2 J0
G1 X8
G3 X6 Y155.058 I0 J-2
G2 X5.598 Y154.66 I-0.4 J0.002
G1 X5.198 Y154.662
X5.12 Z-2.992
X5.045 Z-2.97
X4.976 Z-2.933
X4.916 Y154.663 Z-2.883
X4.866 Z-2.822
X4.829 Z-2.753
X4.806 Z-2.678
X4.798 Z-2.6
G0 Z10
X139.62 Y4.8
Z7
G1 Z5 F550
Z2.9
G19 G3 Y5.2 Z2.5 J0.4 K0 F1000
G1 Y5.6
G17 G2 X140.02 Y6 I0.4 J0
G1 X297.519 Z-3
X448 F1500
G3 X450 Y8 I0 J2
G1 Y45.128
Y78.35
G3 X448 Y80.35 I-2 J0
G1 X8
G3 X6 Y78.35 I0 J-2
G1 Y8
G3 X8 Y6 I2 J0
G1 X297.519
G2 X297.919 Y5.6 I0 J-0.4
G1 Y5.2
G19 G2 Y4.8 Z-2.6 J0 K0.4
G0 Z10
X528.56 Y62.279
Z7
G1 Z5 F550
Z2.9
G2 Y61.879 Z2.5 J-0.4 K0 F1000
G1 Y61.479
G17 G2 X528.16 Y61.079 I-0.4 J0
G1 X483.834 Z0.952
G3 X476.703 Y59.743 Z0.697 I0 J-19.7
G1 X458.244 Y52.575 Z0.006
G3 X453.172 Y44.395 Z-0.355 I2.896 J-7.458
G1 X454.215 Y32.895 Z-0.758
G3 X457.316 Y27.268 Z-0.989 I7.968 J0.723
G1 X477.104 Y12.105 Z-1.86
G3 X480.772 Y10.545 Z-2 I4.866 J6.35
G1 X506.889 Y6.59 Z-2.923
G3 X509.094 Y6.382 Z-3 I2.95 J19.478
X513.524 Y6.716 I0.744 J19.686 F1500
G1 X534.207 Y10.655
G3 X535.145 Y10.893 I-1.494 J7.859
G1 X582.429 Y25.997
G3 X587.962 Y32.895 I-2.434 J7.621
G1 X589.005 Y44.395
G3 X583.934 Y52.575 I-7.967 J0.723
G1 X565.475 Y59.743
G3 X558.344 Y61.079 I-7.131 J-18.364
G1 X483.834
G3 X476.703 Y59.743 I0 J-19.7
G1 X458.244 Y52.575
G3 X453.172 Y44.395 I2.896 J-7.458
G1 X454.215 Y32.895
G3 X457.316 Y27.268 I7.968 J0.723
G1 X477.104 Y12.105
G3 X480.772 Y10.545 I4.866 J6.35
G1 X506.889 Y6.59
G3 X509.094 Y6.382 I2.95 J19.478
G2 X509.479 Y5.967 I-0.015 J-0.4
G1 X509.464 Y5.567
X509.461 Y5.489 Z-2.992
X509.458 Y5.414 Z-2.97
X509.456 Y5.345 Z-2.933
X509.453 Y5.285 Z-2.883
X509.451 Y5.235 Z-2.822
X509.45 Y5.198 Z-2.753
X509.449 Y5.175 Z-2.678
Y5.168 Z-2.6
G0 Z10
X455.126 Y85.107
Z7
G1 Z5 F550
Z2.9
X455.131 Y85.113 Z2.822 F1000
X455.148 Y85.128 Z2.747
X455.175 Y85.153 Z2.678
X455.212 Y85.187 Z2.617
X455.257 Y85.227 Z2.567
X455.308 Y85.274 Z2.53
X455.363 Y85.325 Z2.508
X455.421 Y85.377 Z2.5
X455.716 Y85.647
G2 X456.281 Y85.622 I0.27 J-0.295
G3 X457.316 Y84.673 Z2.451 I5.902 J5.401
G1 X477.104 Y69.51 Z1.58
G3 X480.772 Y67.95 Z1.44 I4.866 J6.35
G1 X506.889 Y63.995 Z0.517
G3 X513.524 Y64.121 Z0.284 I2.95 J19.478
G1 X534.207 Y68.06 Z-0.451
G3 X535.145 Y68.299 Z-0.485 I-1.495 J7.859
G1 X582.429 Y83.403 Z-2.218
G3 X587.962 Y90.301 Z-2.545 I-2.434 J7.62
G1 X589.005 Y101.8 Z-2.948
G3 X589.002 Y103.274 Z-3 I-7.967 J0.723
X583.934 Y109.98 I-7.964 J-0.751 F1500
G1 X565.475 Y117.148
G3 X558.344 Y118.485 I-7.133 J-18.363
G1 X483.834
G3 X476.703 Y117.148 I0.002 J-19.7
G1 X458.244 Y109.98
G3 X453.172 Y101.8 I2.896 J-7.458
G1 X454.215 Y90.301
G3 X457.316 Y84.673 I7.968 J0.723
G1 X477.104 Y69.51
G3 X480.772 Y67.95 I4.866 J6.35
G1 X506.889 Y63.995
G3 X513.524 Y64.121 I2.95 J19.478
G1 X534.207 Y68.06
G3 X535.145 Y68.299 I-1.495 J7.859
G1 X582.429 Y83.403
G3 X587.962 Y90.301 I-2.434 J7.62
G1 X589.005 Y101.8
G3 X589.002 Y103.274 I-7.967 J0.723
G2 X589.363 Y103.71 I0.398 J0.038
G1 X589.761 Y103.747
X589.839 Y103.755 Z-2.992
X589.914 Y103.762 Z-2.97
X589.982 Y103.768 Z-2.933
X590.043 Y103.774 Z-2.883
X590.092 Y103.779 Z-2.822
X590.129 Y103.782 Z-2.753
X590.152 Y103.784 Z-2.678
X590.159 Y103.785 Z-2.6
G0 Z10
X457.955 Y143.473
Z7
G1 Z5 F550
Z2.9
X457.961 Y143.469 Z2.822 F1000
X457.979 Y143.455 Z2.747
X458.009 Y143.433 Z2.678
X458.048 Y143.402 Z2.617
X458.097 Y143.366 Z2.567
X458.152 Y143.324 Z2.53
X458.211 Y143.278 Z2.508
X458.274 Y143.231 Z2.5
X458.592 Y142.989
G2 X458.668 Y142.429 I-0.242 J-0.318
G3 X471.053 Y120.011 Z1.371 I11.145 J-8.473
G1 X520.543 Y124.409 Z-0.364
G2 X521.959 Y124.409 Z-0.414 I0.708 J-7.969
G1 X571.449 Y120.011 Z-2.149
G3 X586.642 Y135.101 Z-3 I1.24 J13.945
X582.867 Y143.568 I-13.953 J-1.145 F1500
G1 X546.794 Y181.762
G3 X541.705 Y183.956 I-5.089 J-4.806
G1 X535.95
G3 X506.552 Y183.956 I-14.699 J-27.86
G1 X500.797
G3 X495.708 Y181.762 I0 J-7
G1 X459.635 Y143.568
G3 X471.053 Y120.011 I10.178 J-9.613
G1 X520.543 Y124.409
G2 X521.959 Y124.409 I0.708 J-7.969
G1 X571.449 Y120.011
G3 X586.642 Y135.101 I1.24 J13.945
G2 X587.008 Y135.532 I0.399 J0.033
G1 X587.406 Y135.565
X587.484 Y135.571 Z-2.992
X587.559 Y135.577 Z-2.97
X587.628 Y135.583 Z-2.933
X587.688 Y135.588 Z-2.883
X587.738 Y135.592 Z-2.822
X587.775 Y135.595 Z-2.753
X587.797 Y135.597 Z-2.678
X587.805 Z-2.6
G0 Z10
X455.582 Y210.524
Z7
G1 Z5 F550
Z2.9
X455.588 Y210.519 Z2.822 F1000
X455.605 Y210.504 Z2.747
X455.633 Y210.48 Z2.678
X455.672 Y210.449 Z2.617
X455.718 Y210.41 Z2.567
X455.771 Y210.366 Z2.53
X455.829 Y210.317 Z2.508
X455.889 Y210.268 Z2.5
X456.196 Y210.012
G2 X456.248 Y209.448 I-0.256 J-0.307
G3 X468.246 Y186.545 Z1.349 I10.758 J-8.959
G1 X517.736 Y190.943 Z-0.386
G2 X519.152 Y190.943 Z-0.435 I0.708 J-7.969
G1 X568.642 Y186.545 Z-2.17
G3 X583.871 Y201.016 Z-3 I1.239 J13.945
X580.059 Y210.102 I-13.99 J-0.526 F1500
G1 X543.987 Y248.296
G3 X538.898 Y250.49 I-5.089 J-4.806
G1 X533.143
G3 X503.744 Y250.49 I-14.699 J-27.86
G1 X497.99
G3 X492.901 Y248.296 I0 J-7
G1 X456.828 Y210.102
G3 X468.246 Y186.545 I10.178 J-9.613
G1 X517.736 Y190.943
G2 X519.152 Y190.943 I0.708 J-7.969
G1 X568.642 Y186.545
G3 X583.871 Y201.016 I1.239 J13.945
G2 X584.255 Y201.431 I0.4 J0.015
G1 X584.655 Y201.446
X584.733 Y201.449 Z-2.992
X584.808 Y201.452 Z-2.97
X584.877 Y201.454 Z-2.933
X584.938 Y201.457 Z-2.883
X584.988 Y201.459 Z-2.822
X585.025 Y201.46 Z-2.753
X585.047 Y201.461 Z-2.678
X585.055 Z-2.6
G0 Z10
X455.617 Y276.858
Z7
G1 Z5 F550
Z2.9
X455.623 Y276.853 Z2.822 F1000
X455.641 Y276.838 Z2.747
X455.669 Y276.815 Z2.678
X455.707 Y276.783 Z2.617
X455.753 Y276.744 Z2.567
X455.806 Y276.699 Z2.53
X455.864 Y276.651 Z2.508
X455.924 Y276.601 Z2.5
X456.23 Y276.344
G2 X456.28 Y275.78 I-0.257 J-0.306
G3 X468.246 Y252.838 Z1.347 I10.726 J-8.997
G1 X517.736 Y257.236 Z-0.388
G2 X519.152 Y257.236 Z-0.437 I0.708 J-7.969
G1 X568.642 Y252.838 Z-2.172
G3 X583.873 Y267.258 Z-3 I1.239 J13.945
X580.059 Y276.396 I-13.992 J-0.475 F1500
G1 X543.987 Y314.589
G3 X538.898 Y316.783 I-5.089 J-4.806
G1 X533.143
G3 X503.744 Y316.783 I-14.699 J-27.86
G1 X497.99
G3 X492.901 Y314.589 I0 J-7
G1 X456.828 Y276.396
G3 X468.246 Y252.838 I10.178 J-9.613
G1 X517.736 Y257.236
G2 X519.152 Y257.236 I0.708 J-7.969
G1 X568.642 Y252.838
G3 X583.873 Y267.258 I1.239 J13.945
G2 X584.259 Y267.671 I0.4 J0.014
G1 X584.659 Y267.685
X584.737 Y267.687 Z-2.992
X584.812 Y267.69 Z-2.97
X584.881 Y267.692 Z-2.933
X584.942 Y267.694 Z-2.883
X584.992 Y267.696 Z-2.822
X585.028 Y267.697 Z-2.753
X585.051 Y267.698 Z-2.678
X585.059 Z-2.6
G0 Z10
X456.275 Y343.851
Z7
G1 Z5 F550
Z2.9
X456.281 Y343.846 Z2.822 F1000
X456.297 Y343.83 Z2.747
X456.324 Y343.805 Z2.678
X456.36 Y343.771 Z2.617
X456.404 Y343.729 Z2.567
X456.454 Y343.682 Z2.53
X456.509 Y343.63 Z2.508
X456.566 Y343.577 Z2.5
X456.857 Y343.302
G2 X456.873 Y342.737 I-0.275 J-0.291
G1 X456.828 Y342.689 Z2.498
G3 X468.246 Y319.131 Z1.316 I10.178 J-9.613
G1 X517.736 Y323.529 Z-0.419
G2 X519.152 Y323.529 Z-0.468 I0.708 J-7.968
G1 X568.642 Y319.131 Z-2.203
G3 X583.875 Y332.661 Z-3 I1.239 J13.945
X580.059 Y342.689 I-13.994 J0.415 F1500
G1 X543.987 Y380.882
G3 X538.898 Y383.076 I-5.089 J-4.806
G1 X533.143
G3 X503.744 Y383.076 I-14.699 J-27.86
G1 X497.99
G3 X492.901 Y380.882 I0 J-7
G1 X456.828 Y342.689
G3 X468.246 Y319.131 I10.178 J-9.613
G1 X517.736 Y323.529
G2 X519.152 Y323.529 I0.708 J-7.968
G1 X568.642 Y319.131
G3 X583.875 Y332.661 I1.239 J13.945
G2 X584.287 Y333.049 I0.4 J-0.012
G1 X584.687 Y333.037
X584.765 Y333.035 Z-2.992
X584.84 Y333.033 Z-2.97
X584.909 Y333.03 Z-2.933
X584.969 Y333.029 Z-2.883
X585.019 Y333.027 Z-2.822
X585.056 Y333.026 Z-2.753
X585.079 Y333.025 Z-2.678
X585.086 Z-2.6
G0 Z10
X456.349 Y410.222
Z7
G1 Z5 F550
Z2.9
X456.354 Y410.217 Z2.822 F1000
X456.371 Y410.201 Z2.747
X456.398 Y410.176 Z2.678
X456.434 Y410.142 Z2.617
X456.478 Y410.1 Z2.567
X456.528 Y410.053 Z2.53
X456.583 Y410.001 Z2.508
X456.639 Y409.948 Z2.5
X456.93 Y409.673
G2 X456.946 Y409.107 I-0.275 J-0.291
G1 X456.828 Y408.982 Z2.494
G3 X468.246 Y385.425 Z1.313 I10.178 J-9.613
G1 X517.736 Y389.823 Z-0.422
G2 X519.152 Y389.823 Z-0.472 I0.708 J-7.969
G1 X568.642 Y385.425 Z-2.207
G3 X583.871 Y398.85 Z-3 I1.239 J13.945
X580.059 Y408.982 I-13.99 J0.52 F1500
G1 X543.987 Y447.176
G3 X538.898 Y449.37 I-5.089 J-4.806
G1 X533.143
G3 X503.744 Y449.37 I-14.699 J-27.86
G1 X497.99
G3 X492.901 Y447.176 I0 J-7
G1 X456.828 Y408.982
G3 X468.246 Y385.425 I10.178 J-9.613
G1 X517.736 Y389.823
G2 X519.152 Y389.823 I0.708 J-7.969
G1 X568.642 Y385.425
G3 X583.871 Y398.85 I1.239 J13.945
G2 X584.286 Y399.235 I0.4 J-0.015
G1 X584.685 Y399.22
X584.763 Y399.217 Z-2.992
X584.838 Y399.214 Z-2.97
X584.907 Y399.212 Z-2.933
X584.968 Y399.209 Z-2.883
X585.018 Y399.207 Z-2.822
X585.055 Y399.206 Z-2.753
X585.077 Y399.205 Z-2.678
X585.085 Z-2.6
G0 Z10
X459.963 Y478.761
Z7
G1 Z5 F550
Z2.9
X459.97 Y478.764 Z2.822 F1000
X459.99 Y478.774 Z2.747
X460.023 Y478.791 Z2.678
X460.068 Y478.813 Z2.617
X460.122 Y478.841 Z2.567
X460.183 Y478.872 Z2.53
X460.251 Y478.905 Z2.508
X460.32 Y478.94 Z2.5
X460.678 Y479.12
G2 X461.215 Y478.942 I0.18 J-0.357
G3 X462.764 Y476.25 Z2.391 I24.572 J12.347
G1 X477.415 Y453.82 Z1.456
G3 X494.158 Y453.82 Z0.763 I8.372 J5.469
G1 X504.736 Y470.013 Z0.088
X504.737 Y470.014
G2 X505.167 Y470.613 Z0.062 I6.705 J-4.365
X510.815 Y470.012 Z-0.141 I2.033 J-7.737
G3 X522.417 Y477.588 Z-0.726 I3.614 J7.137
G2 X526.031 Y484.725 Z-1.019 I7.988 J0.44
G1 X533.927 Y489.881 Z-1.348
G2 X541.915 Y490.321 Z-1.641 I4.375 J-6.698
G3 X553.436 Y498.678 Z-2.253 I3.615 J7.136
G2 X555.068 Y504.86 Z-2.483 I7.906 J1.219
G3 X559.05 Y518.739 Z-3 I-14.902 J11.786
X534.656 Y534.83 I-18.884 J-2.092 F1500
G1 X514.043 Y528.585
G2 X506.253 Y530.404 I-2.32 J7.656
G3 X492.991 Y526.387 I-5.471 J-5.837
G2 X487.52 Y520.549 I-7.791 J1.819
G1 X477.813 Y517.608
G3 X462.764 Y476.25 I7.974 J-26.319
G1 X477.415 Y453.82
G3 X494.158 Y453.82 I8.372 J5.469
G1 X504.736 Y470.013
X504.737 Y470.014
G2 X505.167 Y470.613 I6.705 J-4.365
X510.815 Y470.012 I2.033 J-7.737
G3 X522.417 Y477.588 I3.614 J7.137
G2 X526.031 Y484.725 I7.988 J0.44
G1 X533.927 Y489.881
G2 X541.915 Y490.321 I4.375 J-6.698
G3 X553.436 Y498.678 I3.615 J7.136
G2 X555.068 Y504.86 I7.906 J1.219
G3 X559.05 Y518.739 I-14.902 J11.786
G2 X559.403 Y519.18 I0.398 J0.044
G1 X559.801 Y519.224
X559.878 Y519.233 Z-2.992
X559.953 Y519.241 Z-2.97
X560.022 Y519.249 Z-2.933
X560.082 Y519.256 Z-2.883
X560.131 Y519.261 Z-2.822
X560.168 Y519.265 Z-2.753
X560.191 Y519.268 Z-2.678
X560.198 Z-2.6
G0 Z10
X495.607 Y538.235
Z7
G1 Z5 F550
Z2.9
X495.602 Y538.241 Z2.822 F1000
X495.586 Y538.257 Z2.747
X495.559 Y538.283 Z2.678
X495.524 Y538.318 Z2.617
X495.481 Y538.361 Z2.567
X495.432 Y538.41 Z2.53
X495.379 Y538.463 Z2.508
X495.324 Y538.518 Z2.5
X495.041 Y538.801
G2 X495.041 Y539.367 I0.283 J0.283
G1 X501.674 Y545.999 Z2.172
G2 X507.46 Y548.341 Z1.949 I5.657 J-5.657
G3 X507.942 Y548.341 Z1.932 I0.241 J14.998
G2 X513.727 Y545.999 Z1.708 I0.128 J-7.999
G1 X521.044 Y538.683 Z1.346
G3 X532.358 Y538.682 Z0.908 I5.657 J5.656
X532.357 Y549.996 Z0.469 I-5.657 J5.657
G1 X525.041 Y557.313 Z0.107
G2 X522.699 Y563.098 Z-0.116 I5.656 J5.657
G3 X522.699 Y563.58 Z-0.133 I-14.998 J0.241
G2 X525.041 Y569.366 Z-0.357 I7.999 J0.128
G1 X532.357 Y576.683 Z-0.718
G3 X532.358 Y587.997 Z-1.157 I-5.656 J5.657
X521.044 Y587.996 Z-1.596 I-5.657 J-5.657
G1 X513.727 Y580.679 Z-1.958
G2 X507.942 Y578.338 Z-2.181 I-5.656 J5.657
G3 X507.46 Y578.338 Z-2.198 I-0.235 J-14.999
G2 X501.674 Y580.679 Z-2.422 I-0.13 J7.999
G1 X494.357 Y587.996 Z-2.783
G3 X488.783 Y590.338 Z-3 I-5.656 J-5.657
X483.044 Y576.683 I-0.082 J-7.999 F1500
G1 X490.361 Y569.366
G2 X492.702 Y563.58 I-5.657 J-5.656
G3 X492.702 Y563.098 I14.999 J-0.241
G2 X490.361 Y557.313 I-7.999 J-0.129
G1 X483.044 Y549.996
G3 X483.043 Y538.682 I5.656 J-5.657
X494.357 Y538.683 I5.657 J5.657
G1 X501.674 Y545.999
G2 X507.46 Y548.341 I5.657 J-5.657
G3 X507.942 Y548.341 I0.241 J14.998
G2 X513.727 Y545.999 I0.128 J-7.999
G1 X521.044 Y538.683
G3 X532.358 Y538.682 I5.657 J5.656
X532.357 Y549.996 I-5.657 J5.657
G1 X525.041 Y557.313
G2 X522.699 Y563.098 I5.656 J5.657
G3 X522.699 Y563.58 I-14.998 J0.241
G2 X525.041 Y569.366 I7.999 J0.128
G1 X532.357 Y576.683
G3 X532.358 Y587.997 I-5.656 J5.657
X521.044 Y587.996 I-5.657 J-5.657
G1 X513.727 Y580.679
G2 X507.942 Y578.338 I-5.656 J5.657
G3 X507.46 Y578.338 I-0.235 J-14.999
G2 X501.674 Y580.679 I-0.13 J7.999
G1 X494.357 Y587.996
G3 X488.783 Y590.338 I-5.656 J-5.657
G2 X488.387 Y590.742 I0.004 J0.4
G1 X488.391 Y591.142
X488.392 Y591.22 Z-2.992
X488.393 Y591.296 Z-2.97
X488.394 Y591.365 Z-2.933
Y591.425 Z-2.883
X488.395 Y591.475 Z-2.822
Y591.512 Z-2.753
Y591.535 Z-2.678
X488.396 Y591.542 Z-2.6
G0 Z10
X445.82 Y523.799
Z7
G1 Z5 F550
Z2.9
X445.814 Y523.805 Z2.822 F1000
X445.798 Y523.821 Z2.747
X445.772 Y523.847 Z2.678
X445.737 Y523.882 Z2.617
X445.694 Y523.925 Z2.567
X445.645 Y523.974 Z2.53
X445.592 Y524.027 Z2.508
X445.537 Y524.082 Z2.5
X445.254 Y524.365
G2 X445.254 Y524.931 I0.283 J0.283
G1 X451.734 Y531.411 Z2.18
G2 X457.519 Y533.752 Z1.956 I5.656 J-5.657
G3 X458.001 Y533.752 Z1.939 I0.241 J14.999
G2 X463.787 Y531.411 Z1.715 I0.13 J-7.999
G1 X471.104 Y524.094 Z1.354
G3 X482.417 Y535.407 Z0.476 I5.656 J5.657
G1 X475.1 Y542.724 Z0.115
G2 X472.759 Y548.51 Z-0.109 I5.657 J5.656
G3 X472.759 Y548.992 Z-0.126 I-14.999 J0.241
G2 X475.1 Y554.777 Z-0.35 I7.999 J0.129
G1 X482.417 Y562.094 Z-0.711
G3 X471.104 Y573.407 Z-1.588 I-5.657 J5.656
G1 X463.787 Y566.091 Z-1.95
G2 X458.001 Y563.749 Z-2.174 I-5.657 J5.656
G3 X457.519 Y563.749 Z-2.191 I-0.241 J-14.998
G2 X451.734 Y566.091 Z-2.414 I-0.128 J7.999
G1 X444.417 Y573.407 Z-2.776
G3 X438.623 Y575.75 Z-3 I-5.657 J-5.656
X433.104 Y562.094 I0.137 J-7.999 F1500
G1 X440.42 Y554.777
G2 X442.762 Y548.992 I-5.656 J-5.657
G3 X442.762 Y548.51 I14.998 J-0.241
G2 X440.42 Y542.724 I-7.999 J-0.128
G1 X433.104 Y535.407
G3 X433.103 Y524.093 I5.656 J-5.657
X444.417 Y524.094 I5.657 J5.657
G1 X451.734 Y531.411
G2 X457.519 Y533.752 I5.656 J-5.657
G3 X458.001 Y533.752 I0.241 J14.999
G2 X463.787 Y531.411 I0.13 J-7.999
G1 X471.104 Y524.094
G3 X482.417 Y535.407 I5.656 J5.657
G1 X475.1 Y542.724
G2 X472.759 Y548.51 I5.657 J5.656
G3 X472.759 Y548.992 I-14.999 J0.241
G2 X475.1 Y554.777 I7.999 J0.129
G1 X482.417 Y562.094
G3 X471.104 Y573.407 I-5.657 J5.656
G1 X463.787 Y566.091
G2 X458.001 Y563.749 I-5.657 J5.656
G3 X457.519 Y563.749 I-0.241 J-14.998
G2 X451.734 Y566.091 I-0.128 J7.999
G1 X444.417 Y573.407
G3 X438.623 Y575.75 I-5.657 J-5.656
G2 X438.216 Y576.143 I-0.007 J0.4
G1 X438.209 Y576.543
X438.208 Y576.621 Z-2.992
X438.206 Y576.696 Z-2.97
X438.205 Y576.765 Z-2.933
X438.204 Y576.825 Z-2.883
X438.203 Y576.875 Z-2.822
Y576.912 Z-2.753
X438.202 Y576.935 Z-2.678
Y576.943 Z-2.6
G0 Z10
X392.497 Y507.073
Z7
G1 Z5 F550
Z2.9
X392.494 Y507.08 Z2.822 F1000
X392.485 Y507.101 Z2.747
X392.469 Y507.134 Z2.678
X392.448 Y507.179 Z2.617
X392.422 Y507.234 Z2.567
X392.393 Y507.297 Z2.53
X392.361 Y507.365 Z2.508
X392.329 Y507.436 Z2.5
X392.16 Y507.798
G2 X392.354 Y508.33 I0.363 J0.169
G3 X394.634 Y509.926 Z2.402 I-3.377 J7.253
G1 X401.95 Y517.243 Z2.041
G2 X407.736 Y519.585 Z1.817 I5.657 J-5.657
G3 X408.218 Y519.585 Z1.8 I0.241 J14.998
G2 X414.004 Y517.243 Z1.576 I0.128 J-7.999
G1 X421.32 Y509.926 Z1.215
G3 X432.634 Y509.926 Z0.776 I5.657 J5.657
X432.634 Y521.24 Z0.337 I-5.657 J5.657
G1 X425.317 Y528.556 Z-0.024
G2 X422.975 Y534.342 Z-0.248 I5.657 J5.657
G3 X422.975 Y534.824 Z-0.265 I-14.998 J0.241
G2 X425.317 Y540.61 Z-0.489 I7.999 J0.128
G1 X432.634 Y547.926 Z-0.85
G3 X432.634 Y559.24 Z-1.289 I-5.657 J5.657
X421.32 Y559.24 Z-1.728 I-5.657 J-5.657
G1 X414.004 Y551.923 Z-2.089
G2 X408.218 Y549.581 Z-2.313 I-5.657 J5.657
G3 X407.736 Y549.581 Z-2.33 I-0.241 J-14.998
G2 X401.95 Y551.923 Z-2.554 I-0.128 J7.999
G1 X394.634 Y559.24 Z-2.915
G3 X392.683 Y560.674 Z-3 I-5.657 J-5.657
X383.32 Y547.926 I-3.706 J-7.091 F1500
G1 X390.637 Y540.61
G2 X392.979 Y534.824 I-5.657 J-5.657
G3 X392.979 Y534.342 I14.998 J-0.241
G2 X390.637 Y528.556 I-7.999 J-0.128
G1 X383.32 Y521.24
G3 X383.32 Y509.926 I5.657 J-5.657
X394.634 Y509.926 I5.657 J5.657
G1 X401.95 Y517.243
G2 X407.736 Y519.585 I5.657 J-5.657
G3 X408.218 Y519.585 I0.241 J14.998
G2 X414.004 Y517.243 I0.128 J-7.999
G1 X421.32 Y509.926
G3 X432.634 Y509.926 I5.657 J5.657
X432.634 Y521.24 I-5.657 J5.657
G1 X425.317 Y528.556
G2 X422.975 Y534.342 I5.657 J5.657
G3 X422.975 Y534.824 I-14.998 J0.241
G2 X425.317 Y540.61 I7.999 J0.128
G1 X432.634 Y547.926
G3 X432.634 Y559.24 I-5.657 J5.657
X421.32 Y559.24 I-5.657 J-5.657
G1 X414.004 Y551.923
G2 X408.218 Y549.581 I-5.657 J5.657
G3 X407.736 Y549.581 I-0.241 J-14.998
G2 X401.95 Y551.923 I-0.128 J7.999
G1 X394.634 Y559.24
G3 X392.683 Y560.674 I-5.657 J-5.657
G2 X392.513 Y561.213 I0.185 J0.354
G1 X392.699 Y561.568
X392.735 Y561.637 Z-2.992
X392.77 Y561.704 Z-2.97
X392.802 Y561.765 Z-2.933
X392.83 Y561.819 Z-2.883
X392.853 Y561.863 Z-2.822
X392.87 Y561.895 Z-2.753
X392.88 Y561.916 Z-2.678
X392.884 Y561.922 Z-2.6
G0 Z10
X362.102 Y507.168
Z7
G1 Z5 F550
Z2.9
Y507.176 Z2.822 F1000
X362.104 Y507.199 Z2.747
X362.105 Y507.235 Z2.678
X362.108 Y507.285 Z2.617
X362.111 Y507.346 Z2.567
X362.114 Y507.415 Z2.53
X362.118 Y507.49 Z2.508
X362.122 Y507.568 Z2.5
X362.142 Y507.967
G2 X362.562 Y508.347 I0.4 J-0.02
X370.078 Y507.85 Z2.237 I-11.911 J-237.285
G3 X375.964 Y519.382 Z1.66 I0.572 J6.976
G2 X375.964 Y590.269 Z-1.036 I41.34 J35.444
G3 X370.079 Y601.802 Z-1.613 I-5.314 J4.556
G2 X331.223 Y601.802 Z-2.971 I-19.428 J236.787
G3 X330.404 Y601.821 Z-3 I-0.573 J-6.976
X323.728 Y593.782 I0.246 J-6.996 F1500
G2 X323.728 Y515.87 I-258.245 J-38.956
G3 X331.223 Y507.85 I6.922 J-1.044
G2 X370.078 Y507.85 I19.428 J-236.788
G3 X375.964 Y519.382 I0.572 J6.976
G2 X375.964 Y590.269 I41.34 J35.444
G3 X370.079 Y601.802 I-5.314 J4.556
G2 X331.223 Y601.802 I-19.428 J236.787
G3 X330.404 Y601.821 I-0.573 J-6.976
G2 X329.99 Y602.207 I-0.014 J0.4
G1 X329.976 Y602.607
X329.973 Y602.685 Z-2.992
X329.971 Y602.76 Z-2.97
X329.968 Y602.829 Z-2.933
X329.966 Y602.89 Z-2.883
X329.964 Y602.939 Z-2.822
X329.963 Y602.976 Z-2.753
X329.962 Y602.999 Z-2.678
Y603.007 Z-2.6
G0 Z10
X304.291 Y504.676
Z7
G1 Z5 F550
Z2.9
Y504.684 Z2.822 F1000
X304.292 Y504.707 Z2.747
X304.294 Y504.744 Z2.678
X304.297 Y504.793 Z2.617
X304.3 Y504.854 Z2.567
X304.303 Y504.923 Z2.53
X304.307 Y504.998 Z2.508
X304.311 Y505.076 Z2.5
X304.331 Y505.475
G2 X304.75 Y505.855 I0.4 J-0.02
X312.435 Y505.35 Z2.231 I-11.742 J-237.293
G3 X318.321 Y516.882 Z1.654 I0.572 J6.976
G2 X318.321 Y587.769 Z-1.042 I41.341 J35.444
G3 X312.436 Y599.302 Z-1.619 I-5.314 J4.556
G2 X273.58 Y599.302 Z-2.977 I-19.428 J236.788
G3 X272.93 Y599.325 Z-3 I-0.573 J-6.976
X266.085 Y591.282 I0.077 J-6.999 F1500
G2 X266.085 Y513.37 I-258.245 J-38.956
G3 X273.58 Y505.35 I6.922 J-1.044
G2 X312.435 Y505.35 I19.428 J-236.788
G3 X318.321 Y516.882 I0.572 J6.976
G2 X318.321 Y587.769 I41.341 J35.444
G3 X312.436 Y599.302 I-5.314 J4.556
G2 X273.58 Y599.302 I-19.428 J236.788
G3 X272.93 Y599.325 I-0.573 J-6.976
G2 X272.525 Y599.721 I-0.004 J0.4
G1 X272.521 Y600.121
X272.52 Y600.199 Z-2.992
X272.519 Y600.274 Z-2.97
Y600.343 Z-2.933
X272.518 Y600.404 Z-2.883
X272.517 Y600.453 Z-2.822
Y600.49 Z-2.753
Y600.513 Z-2.678
Y600.521 Z-2.6
G0 Z10
X155.004 Y505.465
Z7
G1 Z5 F550
Z2.9
X155.003 Y505.472 Z2.822 F1000
X155.001 Y505.495 Z2.747
X154.998 Y505.532 Z2.678
X154.994 Y505.582 Z2.617
X154.989 Y505.642 Z2.567
X154.984 Y505.711 Z2.53
X154.977 Y505.786 Z2.508
X154.971 Y505.863 Z2.5
X154.938 Y506.262
G2 X155.304 Y506.694 I0.399 J0.033
G3 X159.257 Y507.446 Z2.359 I-1.556 J18.936
G1 X179.87 Y513.691 Z1.607
G2 X187.66 Y511.872 Z1.315 I2.32 J-7.656
G3 X200.922 Y515.889 Z0.729 I5.471 J5.837
G2 X206.392 Y521.727 Z0.437 I7.791 J-1.818
G1 X216.1 Y524.668 Z0.083
G3 X231.149 Y566.026 Z-1.699 I-7.974 J26.319
G1 X216.498 Y588.455 Z-2.635
G3 X207.582 Y592.971 Z-3 I-8.372 J-5.469
X199.754 Y588.455 I0.544 J-9.985 F1500
G1 X189.177 Y572.263
G2 X188.746 Y571.664 I-6.703 J4.367
X183.098 Y572.264 I-2.033 J7.737
G3 X171.496 Y564.688 I-3.614 J-7.137
G2 X167.882 Y557.551 I-7.988 J-0.439
G1 X159.986 Y552.395
G2 X151.997 Y551.955 I-4.374 J6.698
G3 X140.476 Y543.598 I-3.614 J-7.137
G2 X138.845 Y537.416 I-7.906 J-1.22
G3 X159.257 Y507.446 I14.902 J-11.786
G1 X179.87 Y513.691
G2 X187.66 Y511.872 I2.32 J-7.656
G3 X200.922 Y515.889 I5.471 J5.837
G2 X206.392 Y521.727 I7.791 J-1.818
G1 X216.1 Y524.668
G3 X231.149 Y566.026 I-7.974 J26.319
G1 X216.498 Y588.455
G3 X207.582 Y592.971 I-8.372 J-5.469
G2 X207.161 Y593.349 I-0.022 J0.399
G1 X207.139 Y593.748
X207.135 Y593.826 Z-2.992
X207.131 Y593.901 Z-2.97
X207.127 Y593.97 Z-2.933
X207.124 Y594.031 Z-2.883
X207.121 Y594.081 Z-2.822
X207.119 Y594.117 Z-2.753
X207.118 Y594.14 Z-2.678
X207.117 Y594.148 Z-2.6
G0 Z10
X135.102 Y545.028
Z7
G1 Z5 F550
Z2.9
X135.096 Y545.032 Z2.822 F1000
X135.079 Y545.047 Z2.747
X135.05 Y545.07 Z2.678
X135.012 Y545.102 Z2.617
X134.965 Y545.14 Z2.567
X134.911 Y545.184 Z2.53
X134.853 Y545.231 Z2.508
X134.793 Y545.281 Z2.5
X134.483 Y545.534
G2 X134.427 Y546.097 I0.253 J0.31
G3 X122.351 Y568.906 Z1.354 I-10.837 J8.864
G1 X72.861 Y564.508 Z-0.382
G2 X71.445 Y564.508 Z-0.431 I-0.708 J7.969
G1 X21.955 Y568.906 Z-2.166
G3 X6.73 Y554.313 Z-3 I-1.239 J-13.945
X10.537 Y545.348 I13.985 J0.648 F1500
G1 X46.61 Y507.155
G3 X51.699 Y504.961 I5.089 J4.806
G1 X92.607
G3 X97.696 Y507.155 I0 J7
G1 X133.768 Y545.348
G3 X122.351 Y568.906 I-10.178 J9.613
G1 X72.861 Y564.508
G2 X71.445 Y564.508 I-0.708 J7.969
G1 X21.955 Y568.906
G3 X6.73 Y554.313 I-1.239 J-13.945
G2 X6.349 Y553.895 I-0.4 J-0.018
G1 X5.95 Y553.876
X5.872 Y553.873 Z-2.992
X5.797 Y553.869 Z-2.97
X5.728 Y553.866 Z-2.933
X5.667 Y553.863 Z-2.883
X5.617 Y553.861 Z-2.822
X5.58 Y553.859 Z-2.753
X5.558 Y553.858 Z-2.678
X5.55 Z-2.6
G0 Z10
X134.925 Y480.664
Z7
G1 Z5 F550
Z2.9
X134.919 Y480.669 Z2.822 F1000
X134.902 Y480.684 Z2.747
X134.874 Y480.708 Z2.678
X134.836 Y480.74 Z2.617
X134.79 Y480.779 Z2.567
X134.737 Y480.824 Z2.53
X134.68 Y480.872 Z2.508
X134.62 Y480.923 Z2.5
X134.315 Y481.181
G2 X134.269 Y481.745 I0.259 J0.305
G3 X122.351 Y504.745 Z1.345 I-10.679 J9.054
G1 X72.861 Y500.347 Z-0.39
G2 X71.445 Y500.347 Z-0.44 I-0.708 J7.969
G1 X21.955 Y504.745 Z-2.175
G3 X6.721 Y490.4 Z-3 I-1.239 J-13.945
X10.537 Y481.187 I13.994 J0.4 F1500
G1 X46.61 Y442.994
G3 X51.699 Y440.8 I5.089 J4.806
G1 X92.607
G3 X97.696 Y442.994 I0 J7
G1 X133.769 Y481.187
G3 X122.351 Y504.745 I-10.179 J9.613
G1 X72.861 Y500.347
G2 X71.445 Y500.347 I-0.708 J7.969
G1 X21.955 Y504.745
G3 X6.721 Y490.4 I-1.239 J-13.945
G2 X6.332 Y489.989 I-0.4 J-0.011
G1 X5.933 Y489.978
X5.855 Y489.975 Z-2.992
X5.78 Y489.973 Z-2.97
X5.711 Y489.971 Z-2.933
X5.65 Y489.97 Z-2.883
X5.6 Y489.968 Z-2.822
X5.563 Y489.967 Z-2.753
X5.54 Y489.966 Z-2.678
X5.533 Z-2.6
G0 Z10
X102.459 Y439.65
Z7
G1 Z5 F550
Z2.9
G19 G2 Y439.25 Z2.5 J-0.4 K0 F1000
G1 Y438.85
G17 G2 X102.059 Y438.45 I-0.4 J0
G1 X14.343 Z-0.563
G3 X12.929 Y437.864 Z-0.618 I0 J-2
G1 X6.586 Y431.521 Z-0.931
G3 X6 Y430.107 Z-0.986 I1.414 J-1.414
G1 Y372.45 Z-2.999
Y372.436 Z-3
G3 X8 Y370.45 I2 J0.014 F1500
G1 X448
G3 X450 Y372.45 I0 J2
G1 Y430.107
G3 X449.414 Y431.521 I-2 J0
G1 X443.071 Y437.864
G3 X441.657 Y438.45 I-1.414 J-1.414
G1 X14.343
G3 X12.929 Y437.864 I0 J-2
G1 X6.586 Y431.521
G3 X6 Y430.107 I1.414 J-1.414
G1 Y372.45
Y372.436
G2 X5.603 Y372.033 I-0.4 J-0.003
G1 X5.203 Y372.03
X5.125 Y372.029 Z-2.992
X5.05 Z-2.97
X4.981 Y372.028 Z-2.933
X4.92 Z-2.883
X4.87 Z-2.822
X4.833 Y372.027 Z-2.753
X4.811 Z-2.678
X4.803 Z-2.6
G0 Z10
X158.992 Y442.392
Z7
G1 Z5 F550
Z2.9
X158.991 Y442.4 Z2.822 F1000
X158.989 Y442.423 Z2.747
X158.986 Y442.46 Z2.678
X158.981 Y442.509 Z2.617
X158.976 Y442.569 Z2.567
X158.97 Y442.638 Z2.53
X158.963 Y442.713 Z2.508
X158.956 Y442.791 Z2.5
X158.921 Y443.189
G2 X159.284 Y443.623 I0.398 J0.035
G1 X182.473 Y445.684 Z1.687
G2 X183.889 Y445.684 Z1.638 I0.708 J-7.969
G1 X233.379 Y441.286 Z-0.098
G3 X244.797 Y464.844 Z-1.279 I1.24 J13.945
G1 X210.955 Y500.675 Z-3
X208.724 Y503.037 F1500
G3 X203.635 Y505.231 I-5.089 J-4.806
G1 X162.727
G3 X157.638 Y503.037 I0 J-7
G1 X121.565 Y464.844
G3 X132.983 Y441.286 I10.178 J-9.613
G1 X182.473 Y445.684
G2 X183.889 Y445.684 I0.708 J-7.969
G1 X233.379 Y441.286
G3 X244.797 Y464.844 I1.24 J13.945
G1 X210.955 Y500.675
G2 X210.971 Y501.241 I0.291 J0.275
G1 X211.262 Y501.515
X211.319 Y501.569 Z-2.992
X211.373 Y501.62 Z-2.97
X211.423 Y501.668 Z-2.933
X211.467 Y501.71 Z-2.883
X211.504 Y501.744 Z-2.822
X211.53 Y501.769 Z-2.753
X211.547 Y501.785 Z-2.678
X211.553 Y501.79 Z-2.6
G0 Z10
X339.289 Y462.227
Z7
G1 Z5 F550
Z2.9
X339.284 Y462.232 Z2.822 F1000
X339.267 Y462.248 Z2.747
X339.24 Y462.273 Z2.678
X339.204 Y462.307 Z2.617
X339.16 Y462.349 Z2.567
X339.11 Y462.396 Z2.53
X339.055 Y462.448 Z2.508
X338.998 Y462.501 Z2.5
X338.708 Y462.776
G2 X338.691 Y463.341 I0.275 J0.291
G1 X355.685 Y481.335 Z1.636
G3 X344.268 Y504.892 Z0.454 I-10.178 J9.613
G1 X294.778 Y500.494 Z-1.281
G2 X293.362 Y500.494 Z-1.33 I-0.708 J7.969
G1 X245.73 Y504.727 Z-3
X243.872 Y504.892 F1500
G3 X232.454 Y481.335 I-1.24 J-13.945
G1 X268.527 Y443.141
G3 X273.616 Y440.947 I5.089 J4.806
G1 X314.524
G3 X319.613 Y443.141 I0 J7
G1 X355.685 Y481.335
G3 X344.268 Y504.892 I-10.178 J9.613
G1 X294.778 Y500.494
G2 X293.362 Y500.494 I-0.708 J7.969
G1 X245.73 Y504.727
G2 X245.367 Y505.161 I0.035 J0.398
G1 X245.402 Y505.559
X245.409 Y505.637 Z-2.992
X245.416 Y505.712 Z-2.97
X245.422 Y505.781 Z-2.933
X245.427 Y505.841 Z-2.883
X245.431 Y505.891 Z-2.822
X245.435 Y505.927 Z-2.753
X245.437 Y505.95 Z-2.678
Y505.958 Z-2.6
G0 Z10
X375.009 Y441.882
Z7
G1 Z5 F550
Z2.9
Y441.89 Z2.822 F1000
X375.007 Y441.913 Z2.747
X375.003 Y441.95 Z2.678
X374.999 Y441.999 Z2.617
X374.994 Y442.059 Z2.567
X374.987 Y442.128 Z2.53
X374.981 Y442.203 Z2.508
X374.974 Y442.281 Z2.5
X374.939 Y442.679
G2 X375.302 Y443.113 I0.398 J0.035
G1 X404.252 Y445.686 Z1.485
G2 X405.669 Y445.686 Z1.435 I0.708 J-7.969
G1 X455.159 Y441.288 Z-0.3
G3 X466.576 Y464.846 Z-1.481 I1.239 J13.945
G1 X436.705 Y496.472 Z-3
X430.503 Y503.039 F1500
G3 X425.414 Y505.233 I-5.089 J-4.806
G1 X384.507
G3 X379.418 Y503.039 I0 J-7
G1 X343.345 Y464.846
G3 X354.762 Y441.288 I10.178 J-9.613
G1 X404.252 Y445.686
G2 X405.669 Y445.686 I0.708 J-7.969
G1 X455.159 Y441.288
G3 X466.576 Y464.846 I1.239 J13.945
G1 X436.705 Y496.472
G2 X436.721 Y497.038 I0.291 J0.275
G1 X437.012 Y497.313
X437.069 Y497.366 Z-2.992
X437.124 Y497.418 Z-2.97
X437.174 Y497.465 Z-2.933
X437.218 Y497.507 Z-2.883
X437.254 Y497.541 Z-2.822
X437.281 Y497.566 Z-2.753
X437.297 Y497.582 Z-2.678
X437.303 Y497.587 Z-2.6
G0 Z15
G28 G91 Z0
G90
G28 G91 X0 Y0
G90
M5
M30
