(0.75mm depth 1500 full cut)
(T1  D=4 CR=0 - ZMIN=-3 - flat end mill)
G90 G94
G17
G21
G28 G91 Z0
G90

(0.75mm depth 1500 full cut)
T1
S10000 M3
G54
G0 X91.255 Y267
Z15
Z7
G1 Z2.9 F450
G19 G2 Y266.6 Z2.5 J-0.4 K0 F1000
G1 Y266.2
G17 G2 X90.855 Y265.8 I-0.4 J0
G1 X20.7 Z0.05
G3 X6.001 Y251.278 Z-0.75 I0 J-14.7
G1 X6 Y251.1 F1500
Y20.7
G3 X20.7 Y6 I14.7 J0
G1 X221.1
G3 X235.8 Y20.7 I0 J14.7
G1 Y251.1
G3 X221.1 Y265.8 I-14.7 J0
G1 X20.7
G3 X6.001 Y251.278 I0 J-14.7
G2 X5.596 Y250.883 I-0.4 J0.005
G1 X5.196 Y250.888
X5.118 Z-0.742
X5.043 Y250.889 Z-0.72
X4.974 Y250.89 Z-0.683
X4.913 Y250.891 Z-0.633
X4.864 Y250.892 Z-0.572
X4.827 Z-0.503
X4.804 Z-0.428
X4.796 Z-0.35
G0 Z10
X150.545 Y266.95
Z7
G1 Z2.9 F450
G19 G3 Y267.35 Z2.5 J0.4 K0 F1000
G1 Y267.75
G17 G2 X150.945 Y268.15 I0.4 J0
G1 X221.1 Z0.05
G3 X235.799 Y282.672 Z-0.75 I0 J14.7
G1 X235.8 Y282.85 F1500
Y513.25
G3 X221.1 Y527.95 I-14.7 J0
G1 X20.7
G3 X6 Y513.25 I0 J-14.7
G1 Y282.85
G3 X20.7 Y268.15 I14.7 J0
G1 X221.1
G3 X235.799 Y282.672 I0 J14.7
G2 X236.204 Y283.067 I0.4 J-0.005
G1 X236.604 Y283.062
X236.682 Z-0.742
X236.757 Y283.061 Z-0.72
X236.826 Y283.06 Z-0.683
X236.887 Y283.059 Z-0.633
X236.936 Y283.058 Z-0.572
X236.973 Z-0.503
X236.996 Z-0.428
X237.004 Z-0.35
G0 Z10
X150.545 Y266.95
Z7
G1 Z2.15 F450
G19 G3 Y267.35 Z1.75 J0.4 K0 F1000
G1 Y267.75
G17 G2 X150.945 Y268.15 I0.4 J0
G1 X221.1 Z-0.7
G3 X235.799 Y282.672 Z-1.5 I0 J14.7
G1 X235.8 Y282.85 F1500
Y513.25
G3 X221.1 Y527.95 I-14.7 J0
G1 X20.7
G3 X6 Y513.25 I0 J-14.7
G1 Y282.85
G3 X20.7 Y268.15 I14.7 J0
G1 X221.1
G3 X235.799 Y282.672 I0 J14.7
G2 X236.204 Y283.067 I0.4 J-0.005
G1 X236.604 Y283.062
X236.682 Z-1.492
X236.757 Y283.061 Z-1.47
X236.826 Y283.06 Z-1.433
X236.887 Y283.059 Z-1.383
X236.936 Y283.058 Z-1.322
X236.973 Z-1.253
X236.996 Z-1.178
X237.004 Z-1.1
G0 Z10
X237 Y157.81
Z7
G1 Z2.15 F450
G18 G3 X236.6 Z1.75 I-0.4 K0 F1000
G1 X236.2
G17 G2 X235.8 Y158.21 I0 J0.4
G1 Y251.1 Z-1.494
X235.799 Y251.278 Z-1.5
G3 X221.1 Y265.8 I-14.699 J-0.178 F1500
G1 X20.7
G3 X6 Y251.1 I0 J-14.7
G1 Y20.7
G3 X20.7 Y6 I14.7 J0
G1 X221.1
G3 X235.8 Y20.7 I0 J14.7
G1 Y251.1
X235.799 Y251.278
G3 X221.1 Y265.8 Z-2.173 I-14.699 J-0.178 F1000
G1 X218.46 Z-2.25
X20.7 F1500
G3 X6 Y251.1 I0 J-14.7
G1 Y20.7
G3 X20.7 Y6 I14.7 J0
G1 X221.1
G3 X235.8 Y20.7 I0 J14.7
G1 Y251.1
G3 X221.1 Y265.8 I-14.7 J0
G1 X218.46
G2 X218.06 Y266.2 I0 J0.4
G1 Y266.6
G19 G3 Y267 Z-1.85 J0 K0.4
G0 Z10
X150.545 Y266.95
Z7
G1 Z1.4 F450
G3 Y267.35 Z1 J0.4 K0 F1000
G1 Y267.75
G17 G2 X150.945 Y268.15 I0.4 J0
G1 X221.1 Z-1.45
G3 X235.799 Y282.672 Z-2.25 I0 J14.7
G1 X235.8 Y282.85 F1500
Y513.25
G3 X221.1 Y527.95 I-14.7 J0
G1 X20.7
G3 X6 Y513.25 I0 J-14.7
G1 Y282.85
G3 X20.7 Y268.15 I14.7 J0
G1 X221.1
G3 X235.799 Y282.672 I0 J14.7
G2 X236.204 Y283.067 I0.4 J-0.005
G1 X236.604 Y283.062
X236.682 Z-2.242
X236.757 Y283.061 Z-2.22
X236.826 Y283.06 Z-2.183
X236.887 Y283.059 Z-2.133
X236.936 Y283.058 Z-2.072
X236.973 Z-2.003
X236.996 Z-1.928
X237.004 Z-1.85
G0 Z10
X150.545 Y266.95
Z7
G1 Z0.65 F450
G19 G3 Y267.35 Z0.25 J0.4 K0 F1000
G1 Y267.75
G17 G2 X150.945 Y268.15 I0.4 J0
G1 X221.1 Z-2.2
G3 X235.799 Y282.672 Z-3 I0 J14.7
G1 X235.8 Y282.85 F1500
Y513.25
G3 X221.1 Y527.95 I-14.7 J0
G1 X20.7
G3 X6 Y513.25 I0 J-14.7
G1 Y282.85
G3 X20.7 Y268.15 I14.7 J0
G1 X221.1
G3 X235.799 Y282.672 I0 J14.7
G2 X236.204 Y283.067 I0.4 J-0.005
G1 X236.604 Y283.062
X236.682 Z-2.992
X236.757 Y283.061 Z-2.97
X236.826 Y283.06 Z-2.933
X236.887 Y283.059 Z-2.883
X236.936 Y283.058 Z-2.822
X236.973 Z-2.753
X236.996 Z-2.678
X237.004 Z-2.6
G0 Z10
X237 Y157.81
Z7
G1 Z0.65 F450
G18 G3 X236.6 Z0.25 I-0.4 K0 F1000
G1 X236.2
G17 G2 X235.8 Y158.21 I0 J0.4
G1 Y251.1 Z-2.994
X235.799 Y251.278 Z-3
G3 X221.1 Y265.8 I-14.699 J-0.178 F1500
G1 X20.7
G3 X6 Y251.1 I0 J-14.7
G1 Y20.7
G3 X20.7 Y6 I14.7 J0
G1 X221.1
G3 X235.8 Y20.7 I0 J14.7
G1 Y251.1
X235.799 Y251.278
G2 X236.194 Y251.683 I0.4 J0.005
G1 X236.594 Y251.687
X236.672 Y251.688 Z-2.992
X236.747 Y251.689 Z-2.97
X236.816 Y251.69 Z-2.933
X236.877 Y251.691 Z-2.883
X236.927 Z-2.822
X236.964 Y251.692 Z-2.753
X236.986 Z-2.678
X236.994 Z-2.6
G0 Z10
X205.2 Y200.695
Z7
G1 Z2.9 F450
G18 G2 X205.6 Z2.5 I0.4 K0 F1000
G1 X206
G17 G2 X206.4 Y200.295 I0 J-0.4
G1 Y107.227 Z-0.75
Y39.75 F1500
G2 X202.05 Y35.4 I-4.35 J0
G1 X39.75
G2 X35.4 Y39.75 I0 J4.35
G1 Y232.05
G2 X39.75 Y236.4 I4.35 J0
G1 X202.05
G2 X206.4 Y232.05 I0 J-4.35
G1 Y107.227
G2 X206 Y106.827 I-0.4 J0
G1 X205.6
G18 G3 X205.2 Z-0.35 I0 K0.4
G0 Z10
X58.322 Y57.61
Z7
G1 Z2.9 F450
X58.329 Y57.613 Z2.822 F1000
X58.351 Y57.621 Z2.747
X58.385 Y57.635 Z2.678
X58.431 Y57.653 Z2.617
X58.488 Y57.675 Z2.567
X58.552 Y57.701 Z2.53
X58.622 Y57.728 Z2.508
X58.694 Y57.757 Z2.5
X59.067 Y57.904
G17 G2 X59.585 Y57.678 I0.147 J-0.372
G3 X100.209 Y44.738 Z0.796 I25.585 J10.084
G1 X122.639 Y59.39 Z-0.139
G3 X124.439 Y74.63 Z-0.75 I-5.469 J8.372
X122.639 Y76.134 I-7.269 J-6.868 F1500
G1 X106.446 Y86.711
G2 X105.848 Y87.142 I4.37 J6.701
X106.447 Y92.79 I7.737 J2.035
G3 X98.872 Y104.392 I-7.137 J3.614
G2 X91.734 Y108.006 I-0.439 J7.988
G1 X86.578 Y115.903
G2 X86.139 Y123.89 I6.698 J4.374
G3 X77.782 Y135.412 I-7.137 J3.615
G2 X71.599 Y137.043 I-1.221 J7.907
G3 X41.629 Y116.631 I-11.786 J-14.903
G1 X47.874 Y96.018
G2 X46.055 Y88.227 I-7.656 J-2.32
G3 X50.073 Y74.966 I5.837 J-5.471
G2 X55.91 Y69.496 I-1.819 J-7.79
G1 X58.851 Y59.788
G3 X100.209 Y44.738 I26.319 J7.974
G1 X122.639 Y59.39
G3 X124.439 Y74.63 I-5.469 J8.372
G2 X124.455 Y75.195 I0.291 J0.275
G1 X124.745 Y75.47
X124.802 Y75.524 Z-0.742
X124.857 Y75.575 Z-0.72
X124.907 Y75.623 Z-0.683
X124.951 Y75.664 Z-0.633
X124.987 Y75.698 Z-0.572
X125.014 Y75.724 Z-0.503
X125.03 Y75.739 Z-0.428
X125.036 Y75.745 Z-0.35
G0 Z10
X59.618 Y177.022
Z7
G1 Z2.9 F450
X59.626 Y177.021 Z2.822 F1000
X59.649 Y177.02 Z2.747
X59.686 Y177.017 Z2.678
X59.735 Y177.014 Z2.617
X59.796 Y177.009 Z2.567
X59.865 Y177.004 Z2.53
X59.94 Y176.999 Z2.508
X60.017 Y176.994 Z2.5
X60.416 Y176.965
G2 X60.787 Y176.538 I-0.028 J-0.399
G3 X69.205 Y167.982 Z2.026 I7.98 J-0.568
G2 X76.342 Y164.368 Z1.733 I0.439 J-7.988
G1 X81.499 Y156.471 Z1.404
G2 X81.938 Y148.484 Z1.112 I-6.698 J-4.374
G3 X90.295 Y136.962 Z0.499 I7.137 J-3.615
G2 X96.478 Y135.331 Z0.269 I1.221 J-7.907
G3 X122.75 Y137.94 Z-0.75 I11.786 J14.903
X126.448 Y155.743 I-14.486 J12.294 F1500
G1 X120.202 Y176.356
G2 X122.022 Y184.146 I7.657 J2.319
G3 X118.004 Y197.408 I-5.837 J5.471
G2 X112.167 Y202.878 I1.819 J7.79
G1 X109.226 Y212.586
G3 X67.868 Y227.635 I-26.319 J-7.974
G1 X45.438 Y212.984
G3 X45.438 Y196.24 I5.469 J-8.372
G1 X61.631 Y185.663
G2 X62.229 Y185.232 I-4.37 J-6.701
X61.629 Y179.583 I-7.737 J-2.034
G3 X69.205 Y167.982 I7.137 J-3.614
G2 X76.342 Y164.368 I0.439 J-7.988
G1 X81.499 Y156.471
G2 X81.938 Y148.484 I-6.698 J-4.374
G3 X90.295 Y136.962 I7.137 J-3.615
G2 X96.478 Y135.331 I1.221 J-7.907
G3 X122.75 Y137.94 I11.786 J14.903
G2 X123.314 Y137.986 I0.305 J-0.259
G1 X123.619 Y137.727
X123.679 Y137.676 Z-0.742
X123.736 Y137.628 Z-0.72
X123.788 Y137.583 Z-0.683
X123.835 Y137.544 Z-0.633
X123.873 Y137.512 Z-0.572
X123.901 Y137.488 Z-0.503
X123.918 Y137.473 Z-0.428
X123.924 Y137.468 Z-0.35
G0 Z10
X59.618 Y177.022
Z7
G1 Z2.15 F450
X59.626 Y177.021 Z2.072 F1000
X59.649 Y177.02 Z1.997
X59.686 Y177.017 Z1.928
X59.735 Y177.014 Z1.867
X59.796 Y177.009 Z1.817
X59.865 Y177.004 Z1.78
X59.94 Y176.999 Z1.758
X60.017 Y176.994 Z1.75
X60.416 Y176.965
G2 X60.787 Y176.538 I-0.028 J-0.399
G3 X69.205 Y167.982 Z1.276 I7.98 J-0.568
G2 X76.342 Y164.368 Z0.983 I0.439 J-7.988
G1 X81.499 Y156.471 Z0.654
G2 X81.938 Y148.484 Z0.362 I-6.698 J-4.374
G3 X90.295 Y136.962 Z-0.251 I7.137 J-3.615
G2 X96.478 Y135.331 Z-0.481 I1.221 J-7.907
G3 X122.75 Y137.94 Z-1.5 I11.786 J14.903
X126.448 Y155.743 I-14.486 J12.294 F1500
G1 X120.202 Y176.356
G2 X122.022 Y184.146 I7.657 J2.319
G3 X118.004 Y197.408 I-5.837 J5.471
G2 X112.167 Y202.878 I1.819 J7.79
G1 X109.226 Y212.586
G3 X67.868 Y227.635 I-26.319 J-7.974
G1 X45.438 Y212.984
G3 X45.438 Y196.24 I5.469 J-8.372
G1 X61.631 Y185.663
G2 X62.229 Y185.232 I-4.37 J-6.701
X61.629 Y179.583 I-7.737 J-2.034
G3 X69.205 Y167.982 I7.137 J-3.614
G2 X76.342 Y164.368 I0.439 J-7.988
G1 X81.499 Y156.471
G2 X81.938 Y148.484 I-6.698 J-4.374
G3 X90.295 Y136.962 I7.137 J-3.615
G2 X96.478 Y135.331 I1.221 J-7.907
G3 X122.75 Y137.94 I11.786 J14.903
G2 X123.314 Y137.986 I0.305 J-0.259
G1 X123.619 Y137.727
X123.679 Y137.676 Z-1.492
X123.736 Y137.628 Z-1.47
X123.788 Y137.583 Z-1.433
X123.835 Y137.544 Z-1.383
X123.873 Y137.512 Z-1.322
X123.901 Y137.488 Z-1.253
X123.918 Y137.473 Z-1.178
X123.924 Y137.468 Z-1.1
G0 Z10
X58.322 Y57.61
Z7
G1 Z2.15 F450
X58.329 Y57.613 Z2.072 F1000
X58.351 Y57.621 Z1.997
X58.385 Y57.635 Z1.928
X58.431 Y57.653 Z1.867
X58.488 Y57.675 Z1.817
X58.552 Y57.701 Z1.78
X58.622 Y57.728 Z1.758
X58.694 Y57.757 Z1.75
X59.067 Y57.904
G2 X59.585 Y57.678 I0.147 J-0.372
G3 X100.209 Y44.738 Z0.046 I25.585 J10.084
G1 X122.639 Y59.39 Z-0.889
G3 X124.439 Y74.63 Z-1.5 I-5.469 J8.372
X122.639 Y76.134 I-7.269 J-6.868 F1500
G1 X106.446 Y86.711
G2 X105.848 Y87.142 I4.37 J6.701
X106.447 Y92.79 I7.737 J2.035
G3 X98.872 Y104.392 I-7.137 J3.614
G2 X91.734 Y108.006 I-0.439 J7.988
G1 X86.578 Y115.903
G2 X86.139 Y123.89 I6.698 J4.374
G3 X77.782 Y135.412 I-7.137 J3.615
G2 X71.599 Y137.043 I-1.221 J7.907
G3 X41.629 Y116.631 I-11.786 J-14.903
G1 X47.874 Y96.018
G2 X46.055 Y88.227 I-7.656 J-2.32
G3 X50.073 Y74.966 I5.837 J-5.471
G2 X55.91 Y69.496 I-1.819 J-7.79
G1 X58.851 Y59.788
G3 X100.209 Y44.738 I26.319 J7.974
G1 X122.639 Y59.39
G3 X124.439 Y74.63 I-5.469 J8.372
X122.639 Y76.134 Z-1.582 I-7.269 J-6.868 F1000
G1 X106.626 Y86.593 Z-2.25
X106.446 Y86.711 F1500
G2 X105.848 Y87.142 I4.37 J6.701
X106.447 Y92.79 I7.737 J2.035
G3 X98.872 Y104.392 I-7.137 J3.614
G2 X91.734 Y108.006 I-0.439 J7.988
G1 X86.578 Y115.903
G2 X86.139 Y123.89 I6.698 J4.374
G3 X77.782 Y135.412 I-7.137 J3.615
G2 X71.599 Y137.043 I-1.221 J7.907
G3 X41.629 Y116.631 I-11.786 J-14.903
G1 X47.874 Y96.018
G2 X46.055 Y88.227 I-7.656 J-2.32
G3 X50.073 Y74.966 I5.837 J-5.471
G2 X55.91 Y69.496 I-1.819 J-7.79
G1 X58.851 Y59.788
G3 X100.209 Y44.738 I26.319 J7.974
G1 X122.639 Y59.39
G3 X122.639 Y76.134 I-5.469 J8.372
G1 X106.626 Y86.593
G2 X106.51 Y87.147 I0.219 J0.335
G1 X106.729 Y87.482
X106.771 Y87.547 Z-2.242
X106.812 Y87.61 Z-2.22
X106.85 Y87.668 Z-2.183
X106.883 Y87.719 Z-2.133
X106.91 Y87.76 Z-2.072
X106.931 Y87.791 Z-2.003
X106.943 Y87.81 Z-1.928
X106.947 Y87.817 Z-1.85
G0 Z10
X205.2 Y200.695
Z7
G1 Z2.15 F450
G18 G2 X205.6 Z1.75 I0.4 K0 F1000
G1 X206
G17 G2 X206.4 Y200.295 I0 J-0.4
G1 Y107.227 Z-1.5
Y39.75 F1500
G2 X202.05 Y35.4 I-4.35 J0
G1 X39.75
G2 X35.4 Y39.75 I0 J4.35
G1 Y232.05
G2 X39.75 Y236.4 I4.35 J0
G1 X202.05
G2 X206.4 Y232.05 I0 J-4.35
G1 Y107.227
Y85.75 Z-2.25 F1000
Y39.75 F1500
G2 X202.05 Y35.4 I-4.35 J0
G1 X39.75
G2 X35.4 Y39.75 I0 J4.35
G1 Y232.05
G2 X39.75 Y236.4 I4.35 J0
G1 X202.05
G2 X206.4 Y232.05 I0 J-4.35
G1 Y107.227
Y85.75
G2 X206 Y85.35 I-0.4 J0
G1 X205.6
G18 G3 X205.2 Z-1.85 I0 K0.4
G0 Z10
X59.618 Y177.022
Z7
G1 Z1.4 F450
X59.626 Y177.021 Z1.322 F1000
X59.649 Y177.02 Z1.247
X59.686 Y177.017 Z1.178
X59.735 Y177.014 Z1.117
X59.796 Y177.009 Z1.067
X59.865 Y177.004 Z1.03
X59.94 Y176.999 Z1.008
X60.017 Y176.994 Z1
X60.416 Y176.965
G17 G2 X60.787 Y176.538 I-0.028 J-0.399
G3 X69.205 Y167.982 Z0.526 I7.98 J-0.568
G2 X76.342 Y164.368 Z0.233 I0.439 J-7.988
G1 X81.499 Y156.471 Z-0.096
G2 X81.938 Y148.484 Z-0.388 I-6.698 J-4.374
G3 X90.295 Y136.962 Z-1.001 I7.137 J-3.615
G2 X96.478 Y135.331 Z-1.231 I1.221 J-7.907
G3 X122.75 Y137.94 Z-2.25 I11.786 J14.903
X126.448 Y155.743 I-14.486 J12.294 F1500
G1 X120.202 Y176.356
G2 X122.022 Y184.146 I7.657 J2.319
G3 X118.004 Y197.408 I-5.837 J5.471
G2 X112.167 Y202.878 I1.819 J7.79
G1 X109.226 Y212.586
G3 X67.868 Y227.635 I-26.319 J-7.974
G1 X45.438 Y212.984
G3 X45.438 Y196.24 I5.469 J-8.372
G1 X61.631 Y185.663
G2 X62.229 Y185.232 I-4.37 J-6.701
X61.629 Y179.583 I-7.737 J-2.034
G3 X69.205 Y167.982 I7.137 J-3.614
G2 X76.342 Y164.368 I0.439 J-7.988
G1 X81.499 Y156.471
G2 X81.938 Y148.484 I-6.698 J-4.374
G3 X90.295 Y136.962 I7.137 J-3.615
G2 X96.478 Y135.331 I1.221 J-7.907
G3 X122.75 Y137.94 I11.786 J14.903
G2 X123.314 Y137.986 I0.305 J-0.259
G1 X123.619 Y137.727
X123.679 Y137.676 Z-2.242
X123.736 Y137.628 Z-2.22
X123.788 Y137.583 Z-2.183
X123.835 Y137.544 Z-2.133
X123.873 Y137.512 Z-2.072
X123.901 Y137.488 Z-2.003
X123.918 Y137.473 Z-1.928
X123.924 Y137.468 Z-1.85
G0 Z10
X59.618 Y177.022
Z7
G1 Z0.65 F450
X59.626 Y177.021 Z0.572 F1000
X59.649 Y177.02 Z0.497
X59.686 Y177.017 Z0.428
X59.735 Y177.014 Z0.367
X59.796 Y177.009 Z0.317
X59.865 Y177.004 Z0.28
X59.94 Y176.999 Z0.258
X60.017 Y176.994 Z0.25
X60.416 Y176.965
G2 X60.787 Y176.538 I-0.028 J-0.399
G3 X69.205 Y167.982 Z-0.224 I7.98 J-0.568
G2 X76.342 Y164.368 Z-0.517 I0.439 J-7.988
G1 X81.499 Y156.471 Z-0.846
G2 X81.938 Y148.484 Z-1.138 I-6.698 J-4.374
G3 X90.295 Y136.962 Z-1.751 I7.137 J-3.615
G2 X96.478 Y135.331 Z-1.981 I1.221 J-7.907
G3 X122.75 Y137.94 Z-3 I11.786 J14.903
X126.448 Y155.743 I-14.486 J12.294 F1500
G1 X120.202 Y176.356
G2 X122.022 Y184.146 I7.657 J2.319
G3 X118.004 Y197.408 I-5.837 J5.471
G2 X112.167 Y202.878 I1.819 J7.79
G1 X109.226 Y212.586
G3 X67.868 Y227.635 I-26.319 J-7.974
G1 X45.438 Y212.984
G3 X45.438 Y196.24 I5.469 J-8.372
G1 X61.631 Y185.663
G2 X62.229 Y185.232 I-4.37 J-6.701
X61.629 Y179.583 I-7.737 J-2.034
G3 X69.205 Y167.982 I7.137 J-3.614
G2 X76.342 Y164.368 I0.439 J-7.988
G1 X81.499 Y156.471
G2 X81.938 Y148.484 I-6.698 J-4.374
G3 X90.295 Y136.962 I7.137 J-3.615
G2 X96.478 Y135.331 I1.221 J-7.907
G3 X122.75 Y137.94 I11.786 J14.903
G2 X123.314 Y137.986 I0.305 J-0.259
G1 X123.619 Y137.727
X123.679 Y137.676 Z-2.992
X123.736 Y137.628 Z-2.97
X123.788 Y137.583 Z-2.933
X123.835 Y137.544 Z-2.883
X123.873 Y137.512 Z-2.822
X123.901 Y137.488 Z-2.753
X123.918 Y137.473 Z-2.678
X123.924 Y137.468 Z-2.6
G0 Z10
X58.322 Y57.61
Z7
G1 Z0.65 F450
X58.329 Y57.613 Z0.572 F1000
X58.351 Y57.621 Z0.497
X58.385 Y57.635 Z0.428
X58.431 Y57.653 Z0.367
X58.488 Y57.675 Z0.317
X58.552 Y57.701 Z0.28
X58.622 Y57.728 Z0.258
X58.694 Y57.757 Z0.25
X59.067 Y57.904
G2 X59.585 Y57.678 I0.147 J-0.372
G3 X100.209 Y44.738 Z-1.454 I25.585 J10.084
G1 X122.639 Y59.39 Z-2.389
G3 X124.439 Y74.63 Z-3 I-5.469 J8.372
X122.639 Y76.134 I-7.269 J-6.868 F1500
G1 X106.446 Y86.711
G2 X105.848 Y87.142 I4.37 J6.701
X106.447 Y92.79 I7.737 J2.035
G3 X98.872 Y104.392 I-7.137 J3.614
G2 X91.734 Y108.006 I-0.439 J7.988
G1 X86.578 Y115.903
G2 X86.139 Y123.89 I6.698 J4.374
G3 X77.782 Y135.412 I-7.137 J3.615
G2 X71.599 Y137.043 I-1.221 J7.907
G3 X41.629 Y116.631 I-11.786 J-14.903
G1 X47.874 Y96.018
G2 X46.055 Y88.227 I-7.656 J-2.32
G3 X50.073 Y74.966 I5.837 J-5.471
G2 X55.91 Y69.496 I-1.819 J-7.79
G1 X58.851 Y59.788
G3 X100.209 Y44.738 I26.319 J7.974
G1 X122.639 Y59.39
G3 X124.439 Y74.63 I-5.469 J8.372
G2 X124.455 Y75.195 I0.291 J0.275
G1 X124.745 Y75.47
X124.802 Y75.524 Z-2.992
X124.857 Y75.575 Z-2.97
X124.907 Y75.623 Z-2.933
X124.951 Y75.664 Z-2.883
X124.987 Y75.698 Z-2.822
X125.014 Y75.724 Z-2.753
X125.03 Y75.739 Z-2.678
X125.036 Y75.745 Z-2.6
G0 Z10
X205.2 Y200.695
Z7
G1 Z0.65 F450
G18 G2 X205.6 Z0.25 I0.4 K0 F1000
G1 X206
G17 G2 X206.4 Y200.295 I0 J-0.4
G1 Y107.227 Z-3
Y39.75 F1500
G2 X202.05 Y35.4 I-4.35 J0
G1 X39.75
G2 X35.4 Y39.75 I0 J4.35
G1 Y232.05
G2 X39.75 Y236.4 I4.35 J0
G1 X202.05
G2 X206.4 Y232.05 I0 J-4.35
G1 Y107.227
G2 X206 Y106.827 I-0.4 J0
G1 X205.6
G18 G3 X205.2 Z-2.6 I0 K0.4
G0 Z10
Y307.385
Z7
G1 Z2.9 F450
G2 X205.6 Z2.5 I0.4 K0 F1000
G1 X206
G17 G2 X206.4 Y306.985 I0 J-0.4
G1 Y301.9 Z2.322
G2 X202.05 Y297.55 Z2.084 I-4.35 J0
G1 X120.9 Z-0.75
X39.75 F1500
G2 X35.4 Y301.9 I0 J4.35
G1 Y494.2
G2 X39.75 Y498.55 I4.35 J0
G1 X202.05
G2 X206.4 Y494.2 I0 J-4.35
G1 Y301.9
G2 X202.05 Y297.55 I-4.35 J0
G1 X120.9
X99.423 Z-1.5 F1000
X39.75 F1500
G2 X35.4 Y301.9 I0 J4.35
G1 Y494.2
G2 X39.75 Y498.55 I4.35 J0
G1 X202.05
G2 X206.4 Y494.2 I0 J-4.35
G1 Y301.9
G2 X202.05 Y297.55 I-4.35 J0
G1 X120.9
X99.423
X77.946 Z-2.25 F1000
X39.75 F1500
G2 X35.4 Y301.9 I0 J4.35
G1 Y494.2
G2 X39.75 Y498.55 I4.35 J0
G1 X202.05
G2 X206.4 Y494.2 I0 J-4.35
G1 Y301.9
G2 X202.05 Y297.55 I-4.35 J0
G1 X99.423
X77.946
X56.468 Z-3 F1000
X39.75 F1500
G2 X35.4 Y301.9 I0 J4.35
G1 Y494.2
G2 X39.75 Y498.55 I4.35 J0
G1 X202.05
G2 X206.4 Y494.2 I0 J-4.35
G1 Y301.9
G2 X202.05 Y297.55 I-4.35 J0
G1 X77.946
X56.468
G2 X56.068 Y297.95 I0 J0.4
G1 Y298.35
G19 G3 Y298.75 Z-2.6 J0 K0.4
G0 Z15
G17
G28 G91 Z0
G90
G28 G91 X0 Y0
G90
M5
M30
