(1mm depth 1500 full cut)
(T1  D=4 CR=0 - ZMIN=-3 - flat end mill)
G90 G94
G17
G21
G28 G91 Z0
G90

(1mm depth 1500 full cut)
T1
S10000 M3
G54
G0 X98.414 Y267
Z15
Z7
G1 Z2.9 F450
G19 G2 Y266.6 Z2.5 J-0.4 K0 F1000
G1 Y266.2
G17 G2 X98.014 Y265.8 I-0.4 J0
G1 X20.7 Z-0.2
G3 X6.001 Y251.278 Z-1 I0 J-14.7
G1 X6 Y251.1 F1500
Y20.7
G3 X20.7 Y6 I14.7 J0
G1 X221.1
G3 X235.8 Y20.7 I0 J14.7
G1 Y251.1
G3 X221.1 Y265.8 I-14.7 J0
G1 X20.7
G3 X6.001 Y251.278 I0 J-14.7
G2 X5.596 Y250.883 I-0.4 J0.005
G1 X5.196 Y250.888
X5.118 Z-0.992
X5.043 Y250.889 Z-0.97
X4.974 Y250.89 Z-0.933
X4.913 Y250.891 Z-0.883
X4.864 Y250.892 Z-0.822
X4.827 Z-0.753
X4.804 Z-0.678
X4.796 Z-0.6
G0 Z10
X143.386 Y266.95
Z7
G1 Z2.9 F450
G19 G3 Y267.35 Z2.5 J0.4 K0 F1000
G1 Y267.75
G17 G2 X143.786 Y268.15 I0.4 J0
G1 X221.1 Z-0.2
G3 X235.799 Y282.672 Z-1 I0 J14.7
G1 X235.8 Y282.85 F1500
Y513.25
G3 X221.1 Y527.95 I-14.7 J0
G1 X20.7
G3 X6 Y513.25 I0 J-14.7
G1 Y282.85
G3 X20.7 Y268.15 I14.7 J0
G1 X221.1
G3 X235.799 Y282.672 I0 J14.7
G2 X236.204 Y283.067 I0.4 J-0.005
G1 X236.604 Y283.062
X236.682 Z-0.992
X236.757 Y283.061 Z-0.97
X236.826 Y283.06 Z-0.933
X236.887 Y283.059 Z-0.883
X236.936 Y283.058 Z-0.822
X236.973 Z-0.753
X236.996 Z-0.678
X237.004 Z-0.6
G0 Z10
X143.386 Y266.95
Z7
G1 Z1.9 F450
G19 G3 Y267.35 Z1.5 J0.4 K0 F1000
G1 Y267.75
G17 G2 X143.786 Y268.15 I0.4 J0
G1 X221.1 Z-1.2
G3 X235.799 Y282.672 Z-2 I0 J14.7
G1 X235.8 Y282.85 F1500
Y513.25
G3 X221.1 Y527.95 I-14.7 J0
G1 X20.7
G3 X6 Y513.25 I0 J-14.7
G1 Y282.85
G3 X20.7 Y268.15 I14.7 J0
G1 X221.1
G3 X235.799 Y282.672 I0 J14.7
G2 X236.204 Y283.067 I0.4 J-0.005
G1 X236.604 Y283.062
X236.682 Z-1.992
X236.757 Y283.061 Z-1.97
X236.826 Y283.06 Z-1.933
X236.887 Y283.059 Z-1.883
X236.936 Y283.058 Z-1.822
X236.973 Z-1.753
X236.996 Z-1.678
X237.004 Z-1.6
G0 Z10
X237 Y150.651
Z7
G1 Z1.9 F450
G18 G3 X236.6 Z1.5 I-0.4 K0 F1000
G1 X236.2
G17 G2 X235.8 Y151.051 I0 J0.4
G1 Y251.1 Z-1.994
X235.799 Y251.278 Z-2
G3 X221.1 Y265.8 I-14.699 J-0.178 F1500
G1 X20.7
G3 X6 Y251.1 I0 J-14.7
G1 Y20.7
G3 X20.7 Y6 I14.7 J0
G1 X221.1
G3 X235.8 Y20.7 I0 J14.7
G1 Y251.1
X235.799 Y251.278
G3 X221.1 Y265.8 Z-2.673 I-14.699 J-0.178 F1000
G1 X209.943 Z-3
X20.7 F1500
G3 X6 Y251.1 I0 J-14.7
G1 Y20.7
G3 X20.7 Y6 I14.7 J0
G1 X221.1
G3 X235.8 Y20.7 I0 J14.7
G1 Y251.1
G3 X221.1 Y265.8 I-14.7 J0
G1 X209.943
G2 X209.543 Y266.2 I0 J0.4
G1 Y266.6
G19 G3 Y267 Z-2.6 J0 K0.4
G0 Z10
X143.386 Y266.95
Z7
G1 Z0.9 F450
G3 Y267.35 Z0.5 J0.4 K0 F1000
G1 Y267.75
G17 G2 X143.786 Y268.15 I0.4 J0
G1 X221.1 Z-2.2
G3 X235.799 Y282.672 Z-3 I0 J14.7
G1 X235.8 Y282.85 F1500
Y513.25
G3 X221.1 Y527.95 I-14.7 J0
G1 X20.7
G3 X6 Y513.25 I0 J-14.7
G1 Y282.85
G3 X20.7 Y268.15 I14.7 J0
G1 X221.1
G3 X235.799 Y282.672 I0 J14.7
G2 X236.204 Y283.067 I0.4 J-0.005
G1 X236.604 Y283.062
X236.682 Z-2.992
X236.757 Y283.061 Z-2.97
X236.826 Y283.06 Z-2.933
X236.887 Y283.059 Z-2.883
X236.936 Y283.058 Z-2.822
X236.973 Z-2.753
X236.996 Z-2.678
X237.004 Z-2.6
G0 Z10
X205.2 Y314.544
Z7
G1 Z2.9 F450
G18 G2 X205.6 Z2.5 I0.4 K0 F1000
G1 X206
G17 G2 X206.4 Y314.144 I0 J-0.4
G1 Y301.9 Z2.072
G2 X202.05 Y297.55 Z1.834 I-4.35 J0
G1 X120.9 Z-1
X39.75 F1500
G2 X35.4 Y301.9 I0 J4.35
G1 Y494.2
G2 X39.75 Y498.55 I4.35 J0
G1 X202.05
G2 X206.4 Y494.2 I0 J-4.35
G1 Y301.9
G2 X202.05 Y297.55 I-4.35 J0
G1 X120.9
X92.264 Z-2 F1000
X39.75 F1500
G2 X35.4 Y301.9 I0 J4.35
G1 Y494.2
G2 X39.75 Y498.55 I4.35 J0
G1 X202.05
G2 X206.4 Y494.2 I0 J-4.35
G1 Y301.9
G2 X202.05 Y297.55 I-4.35 J0
G1 X120.9
X92.264
X63.628 Z-3 F1000
X39.75 F1500
G2 X35.4 Y301.9 I0 J4.35
G1 Y494.2
G2 X39.75 Y498.55 I4.35 J0
G1 X202.05
G2 X206.4 Y494.2 I0 J-4.35
G1 Y301.9
G2 X202.05 Y297.55 I-4.35 J0
G1 X92.264
X63.628
G2 X63.228 Y297.95 I0 J0.4
G1 Y298.35
G19 G3 Y298.75 Z-2.6 J0 K0.4
G0 Z10
X205.2 Y207.854
Z7
G1 Z2.9 F450
G18 G2 X205.6 Z2.5 I0.4 K0 F1000
G1 X206
G17 G2 X206.4 Y207.454 I0 J-0.4
G1 Y107.227 Z-1
Y39.75 F1500
G2 X202.05 Y35.4 I-4.35 J0
G1 X39.75
G2 X35.4 Y39.75 I0 J4.35
G1 Y232.05
G2 X39.75 Y236.4 I4.35 J0
G1 X202.05
G2 X206.4 Y232.05 I0 J-4.35
G1 Y107.227
G2 X206 Y106.827 I-0.4 J0
G1 X205.6
G18 G3 X205.2 Z-0.6 I0 K0.4
G0 Z10
X56.159 Y64.536
Z7
G1 Z2.9 F450
X56.166 Y64.538 Z2.822 F1000
X56.188 Y64.545 Z2.747
X56.223 Y64.555 Z2.678
X56.271 Y64.57 Z2.617
X56.329 Y64.587 Z2.567
X56.395 Y64.607 Z2.53
X56.467 Y64.629 Z2.508
X56.542 Y64.652 Z2.5
X56.925 Y64.768
G17 G2 X57.423 Y64.501 I0.116 J-0.383
G1 X58.851 Y59.788 Z2.328
G3 X100.209 Y44.738 Z0.546 I26.319 J7.974
G1 X122.639 Y59.39 Z-0.389
G3 X124.439 Y74.63 Z-1 I-5.469 J8.372
X122.639 Y76.134 I-7.269 J-6.868 F1500
G1 X106.446 Y86.711
G2 X105.848 Y87.142 I4.37 J6.701
X106.447 Y92.79 I7.737 J2.035
G3 X98.872 Y104.392 I-7.137 J3.614
G2 X91.734 Y108.006 I-0.439 J7.988
G1 X86.578 Y115.903
G2 X86.139 Y123.89 I6.698 J4.374
G3 X77.782 Y135.412 I-7.137 J3.615
G2 X71.599 Y137.043 I-1.221 J7.907
G3 X41.629 Y116.631 I-11.786 J-14.903
G1 X47.874 Y96.018
G2 X46.055 Y88.227 I-7.656 J-2.32
G3 X50.073 Y74.966 I5.837 J-5.471
G2 X55.91 Y69.496 I-1.819 J-7.79
G1 X58.851 Y59.788
G3 X100.209 Y44.738 I26.319 J7.974
G1 X122.639 Y59.39
G3 X124.439 Y74.63 I-5.469 J8.372
G2 X124.455 Y75.195 I0.291 J0.275
G1 X124.745 Y75.47
X124.802 Y75.524 Z-0.992
X124.857 Y75.575 Z-0.97
X124.907 Y75.623 Z-0.933
X124.951 Y75.664 Z-0.883
X124.987 Y75.698 Z-0.822
X125.014 Y75.724 Z-0.753
X125.03 Y75.739 Z-0.678
X125.036 Y75.745 Z-0.6
G0 Z10
X61.278 Y183.791
Z7
G1 Z2.9 F450
X61.286 Y183.792 Z2.822 F1000
X61.309 Z2.747
X61.346 Y183.793 Z2.678
X61.395 Y183.795 Z2.617
X61.456 Y183.796 Z2.567
X61.525 Y183.798 Z2.53
X61.6 Y183.801 Z2.508
X61.678 Y183.803 Z2.5
X62.078 Y183.814
G2 X62.489 Y183.426 I0.011 J-0.4
X61.629 Y179.583 Z2.361 I-7.997 J-0.228
G3 X69.205 Y167.982 Z1.776 I7.137 J-3.614
G2 X76.342 Y164.368 Z1.483 I0.439 J-7.988
G1 X81.499 Y156.471 Z1.154
G2 X81.938 Y148.484 Z0.862 I-6.698 J-4.374
G3 X90.295 Y136.962 Z0.249 I7.137 J-3.615
G2 X96.478 Y135.331 Z0.019 I1.221 J-7.907
G3 X122.75 Y137.94 Z-1 I11.786 J14.903
X126.448 Y155.743 I-14.486 J12.294 F1500
G1 X120.202 Y176.356
G2 X122.022 Y184.146 I7.657 J2.319
G3 X118.004 Y197.408 I-5.837 J5.471
G2 X112.167 Y202.878 I1.819 J7.79
G1 X109.226 Y212.586
G3 X67.868 Y227.635 I-26.319 J-7.974
G1 X45.438 Y212.984
G3 X45.438 Y196.24 I5.469 J-8.372
G1 X61.631 Y185.663
G2 X62.229 Y185.232 I-4.37 J-6.701
X61.629 Y179.583 I-7.737 J-2.034
G3 X69.205 Y167.982 I7.137 J-3.614
G2 X76.342 Y164.368 I0.439 J-7.988
G1 X81.499 Y156.471
G2 X81.938 Y148.484 I-6.698 J-4.374
G3 X90.295 Y136.962 I7.137 J-3.615
G2 X96.478 Y135.331 I1.221 J-7.907
G3 X122.75 Y137.94 I11.786 J14.903
G2 X123.314 Y137.986 I0.305 J-0.259
G1 X123.619 Y137.727
X123.679 Y137.676 Z-0.992
X123.736 Y137.628 Z-0.97
X123.788 Y137.583 Z-0.933
X123.835 Y137.544 Z-0.883
X123.873 Y137.512 Z-0.822
X123.901 Y137.488 Z-0.753
X123.918 Y137.473 Z-0.678
X123.924 Y137.468 Z-0.6
G0 Z10
X61.278 Y183.791
Z7
G1 Z1.9 F450
X61.286 Y183.792 Z1.822 F1000
X61.309 Z1.747
X61.346 Y183.793 Z1.678
X61.395 Y183.795 Z1.617
X61.456 Y183.796 Z1.567
X61.525 Y183.798 Z1.53
X61.6 Y183.801 Z1.508
X61.678 Y183.803 Z1.5
X62.078 Y183.814
G2 X62.489 Y183.426 I0.011 J-0.4
X61.629 Y179.583 Z1.361 I-7.997 J-0.228
G3 X69.205 Y167.982 Z0.776 I7.137 J-3.614
G2 X76.342 Y164.368 Z0.483 I0.439 J-7.988
G1 X81.499 Y156.471 Z0.154
G2 X81.938 Y148.484 Z-0.138 I-6.698 J-4.374
G3 X90.295 Y136.962 Z-0.751 I7.137 J-3.615
G2 X96.478 Y135.331 Z-0.981 I1.221 J-7.907
G3 X122.75 Y137.94 Z-2 I11.786 J14.903
X126.448 Y155.743 I-14.486 J12.294 F1500
G1 X120.202 Y176.356
G2 X122.022 Y184.146 I7.657 J2.319
G3 X118.004 Y197.408 I-5.837 J5.471
G2 X112.167 Y202.878 I1.819 J7.79
G1 X109.226 Y212.586
G3 X67.868 Y227.635 I-26.319 J-7.974
G1 X45.438 Y212.984
G3 X45.438 Y196.24 I5.469 J-8.372
G1 X61.631 Y185.663
G2 X62.229 Y185.232 I-4.37 J-6.701
X61.629 Y179.583 I-7.737 J-2.034
G3 X69.205 Y167.982 I7.137 J-3.614
G2 X76.342 Y164.368 I0.439 J-7.988
G1 X81.499 Y156.471
G2 X81.938 Y148.484 I-6.698 J-4.374
G3 X90.295 Y136.962 I7.137 J-3.615
G2 X96.478 Y135.331 I1.221 J-7.907
G3 X122.75 Y137.94 I11.786 J14.903
G2 X123.314 Y137.986 I0.305 J-0.259
G1 X123.619 Y137.727
X123.679 Y137.676 Z-1.992
X123.736 Y137.628 Z-1.97
X123.788 Y137.583 Z-1.933
X123.835 Y137.544 Z-1.883
X123.873 Y137.512 Z-1.822
X123.901 Y137.488 Z-1.753
X123.918 Y137.473 Z-1.678
X123.924 Y137.468 Z-1.6
G0 Z10
X56.159 Y64.536
Z7
G1 Z1.9 F450
X56.166 Y64.538 Z1.822 F1000
X56.188 Y64.545 Z1.747
X56.223 Y64.555 Z1.678
X56.271 Y64.57 Z1.617
X56.329 Y64.587 Z1.567
X56.395 Y64.607 Z1.53
X56.467 Y64.629 Z1.508
X56.542 Y64.652 Z1.5
X56.925 Y64.768
G2 X57.423 Y64.501 I0.116 J-0.383
G1 X58.851 Y59.788 Z1.328
G3 X100.209 Y44.738 Z-0.454 I26.319 J7.974
G1 X122.639 Y59.39 Z-1.389
G3 X124.439 Y74.63 Z-2 I-5.469 J8.372
X122.639 Y76.134 I-7.269 J-6.868 F1500
G1 X106.446 Y86.711
G2 X105.848 Y87.142 I4.37 J6.701
X106.447 Y92.79 I7.737 J2.035
G3 X98.872 Y104.392 I-7.137 J3.614
G2 X91.734 Y108.006 I-0.439 J7.988
G1 X86.578 Y115.903
G2 X86.139 Y123.89 I6.698 J4.374
G3 X77.782 Y135.412 I-7.137 J3.615
G2 X71.599 Y137.043 I-1.221 J7.907
G3 X41.629 Y116.631 I-11.786 J-14.903
G1 X47.874 Y96.018
G2 X46.055 Y88.227 I-7.656 J-2.32
G3 X50.073 Y74.966 I5.837 J-5.471
G2 X55.91 Y69.496 I-1.819 J-7.79
G1 X58.851 Y59.788
G3 X100.209 Y44.738 I26.319 J7.974
G1 X122.639 Y59.39
G3 X124.439 Y74.63 I-5.469 J8.372
X122.639 Y76.134 Z-2.082 I-7.269 J-6.868 F1000
G1 X106.446 Y86.711 Z-2.758
G2 X105.848 Y87.142 Z-2.783 I4.37 J6.701
X106.447 Y92.79 Z-2.986 I7.737 J2.035
G3 X106.619 Y93.151 Z-3 I-7.137 J3.614
X98.872 Y104.392 I-7.309 J3.253 F1500
G2 X91.734 Y108.006 I-0.439 J7.988
G1 X86.578 Y115.903
G2 X86.139 Y123.89 I6.698 J4.374
G3 X77.782 Y135.412 I-7.137 J3.615
G2 X71.599 Y137.043 I-1.221 J7.907
G3 X41.629 Y116.631 I-11.786 J-14.903
G1 X47.874 Y96.018
G2 X46.055 Y88.227 I-7.656 J-2.32
G3 X50.073 Y74.966 I5.837 J-5.471
G2 X55.91 Y69.496 I-1.819 J-7.79
G1 X58.851 Y59.788
G3 X100.209 Y44.738 I26.319 J7.974
G1 X122.639 Y59.39
G3 X122.639 Y76.134 I-5.469 J8.372
G1 X106.446 Y86.711
G2 X105.848 Y87.142 I4.37 J6.701
X106.447 Y92.79 I7.737 J2.035
G3 X106.619 Y93.151 I-7.137 J3.614
G2 X107.147 Y93.354 I0.365 J-0.163
G1 X107.512 Y93.191
X107.584 Y93.16 Z-2.992
X107.652 Y93.129 Z-2.97
X107.715 Y93.101 Z-2.933
X107.771 Y93.076 Z-2.883
X107.816 Y93.056 Z-2.822
X107.85 Y93.041 Z-2.753
X107.871 Y93.032 Z-2.678
X107.878 Y93.029 Z-2.6
G0 Z10
X205.2 Y207.854
Z7
G1 Z1.9 F450
G18 G2 X205.6 Z1.5 I0.4 K0 F1000
G1 X206
G17 G2 X206.4 Y207.454 I0 J-0.4
G1 Y107.227 Z-2
Y39.75 F1500
G2 X202.05 Y35.4 I-4.35 J0
G1 X39.75
G2 X35.4 Y39.75 I0 J4.35
G1 Y232.05
G2 X39.75 Y236.4 I4.35 J0
G1 X202.05
G2 X206.4 Y232.05 I0 J-4.35
G1 Y107.227
Y78.591 Z-3 F1000
Y39.75 F1500
G2 X202.05 Y35.4 I-4.35 J0
G1 X39.75
G2 X35.4 Y39.75 I0 J4.35
G1 Y232.05
G2 X39.75 Y236.4 I4.35 J0
G1 X202.05
G2 X206.4 Y232.05 I0 J-4.35
G1 Y107.227
Y78.591
G2 X206 Y78.191 I-0.4 J0
G1 X205.6
G18 G3 X205.2 Z-2.6 I0 K0.4
G0 Z10
X61.278 Y183.791
Z7
G1 Z0.9 F450
X61.286 Y183.792 Z0.822 F1000
X61.309 Z0.747
X61.346 Y183.793 Z0.678
X61.395 Y183.795 Z0.617
X61.456 Y183.796 Z0.567
X61.525 Y183.798 Z0.53
X61.6 Y183.801 Z0.508
X61.678 Y183.803 Z0.5
X62.078 Y183.814
G17 G2 X62.489 Y183.426 I0.011 J-0.4
X61.629 Y179.583 Z0.361 I-7.997 J-0.228
G3 X69.205 Y167.982 Z-0.224 I7.137 J-3.614
G2 X76.342 Y164.368 Z-0.517 I0.439 J-7.988
G1 X81.499 Y156.471 Z-0.846
G2 X81.938 Y148.484 Z-1.138 I-6.698 J-4.374
G3 X90.295 Y136.962 Z-1.751 I7.137 J-3.615
G2 X96.478 Y135.331 Z-1.981 I1.221 J-7.907
G3 X122.75 Y137.94 Z-3 I11.786 J14.903
X126.448 Y155.743 I-14.486 J12.294 F1500
G1 X120.202 Y176.356
G2 X122.022 Y184.146 I7.657 J2.319
G3 X118.004 Y197.408 I-5.837 J5.471
G2 X112.167 Y202.878 I1.819 J7.79
G1 X109.226 Y212.586
G3 X67.868 Y227.635 I-26.319 J-7.974
G1 X45.438 Y212.984
G3 X45.438 Y196.24 I5.469 J-8.372
G1 X61.631 Y185.663
G2 X62.229 Y185.232 I-4.37 J-6.701
X61.629 Y179.583 I-7.737 J-2.034
G3 X69.205 Y167.982 I7.137 J-3.614
G2 X76.342 Y164.368 I0.439 J-7.988
G1 X81.499 Y156.471
G2 X81.938 Y148.484 I-6.698 J-4.374
G3 X90.295 Y136.962 I7.137 J-3.615
G2 X96.478 Y135.331 I1.221 J-7.907
G3 X122.75 Y137.94 I11.786 J14.903
G2 X123.314 Y137.986 I0.305 J-0.259
G1 X123.619 Y137.727
X123.679 Y137.676 Z-2.992
X123.736 Y137.628 Z-2.97
X123.788 Y137.583 Z-2.933
X123.835 Y137.544 Z-2.883
X123.873 Y137.512 Z-2.822
X123.901 Y137.488 Z-2.753
X123.918 Y137.473 Z-2.678
X123.924 Y137.468 Z-2.6
G0 Z15
G28 G91 Z0
G90
G28 G91 X0 Y0
G90
M5
M30
