(1001)
(T1  D=4 CR=0 - ZMIN=-3 - flat end mill)
G90 G94
G17
G21
G28 G91 Z0
G90

(Drill1)
T1
S10000 M3
G54
G0 X114.652 Y450.971
Z25
Z10
Z7
G1 Z-3 F450
G0 Z10
X94.053 Y438.777
Z7
G1 Z-3 F450
G0 Z10
X97.983 Y430.348
Z7
G1 Z-3 F450
G0 Z10
X87.542 Y406.223
Z7
G1 Z-3 F450
G0 Z10
X77.913 Y388.247
Z7
G1 Z-3 F450
G0 Z10
X67.472 Y364.122
Z7
G1 Z-3 F450
G0 Z10
X71.403 Y355.693
Z7
G1 Z-3 F450
G0 Z10
X50.803 Y343.499
Z7
G1 Z-3 F450
G0 Z10
X20.7 Y353.15
Z7
G1 Z-3 F450
G0 Z10
Y398.05
Z7
G1 Z-3 F450
G0 Z10
Y442.95
Z7
G1 Z-3 F450
G0 Z10
X67.234 Y437.324
Z7
G1 Z-3 F450
G0 Z10
X49.374 Y465.966
Z7
G1 Z-3 F450
G0 Z10
X20.7 Y487.85
Z7
G1 Z-3 F450
G0 Z10
Y513.25
Z7
G1 Z-3 F450
G0 Z10
X60.78
Z7
G1 Z-3 F450
G0 Z10
X100.86
Z7
G1 Z-3 F450
G0 Z10
X140.94
Z7
G1 Z-3 F450
G0 Z10
X181.02
Z7
G1 Z-3 F450
G0 Z10
X221.1
Z7
G1 Z-3 F450
G0 Z10
Y487.85
Z7
G1 Z-3 F450
G0 Z10
Y442.95
Z7
G1 Z-3 F450
G0 Z10
Y398.05
Z7
G1 Z-3 F450
G0 Z10
Y353.15
Z7
G1 Z-3 F450
G0 Z10
X174.797 Y360.952
Z7
G1 Z-3 F450
G0 Z10
X154.198 Y348.757
Z7
G1 Z-3 F450
G0 Z10
X158.128 Y340.329
Z7
G1 Z-3 F450
G0 Z10
X147.687 Y316.204
Z7
G1 Z-3 F450
G0 Z10
X116.081 Y328.504
Z7
G1 Z-3 F450
G0 Z10
X127.379 Y347.304
Z7
G1 Z-3 F450
G0 Z10
X98.222 Y357.146
Z7
G1 Z-3 F450
G0 Z10
X109.519 Y375.947
Z7
G1 Z-3 F450
G0 Z10
X116.185 Y189.617
Z7
G1 Z-3 F450
G0 Z10
X95.586 Y177.423
Z7
G1 Z-3 F450
G0 Z10
X99.516 Y168.994
Z7
G1 Z-3 F450
G0 Z10
X89.075 Y144.869
Z7
G1 Z-3 F450
G0 Z10
X79.002 Y127.505
Z7
G1 Z-3 F450
G0 Z10
X68.561 Y103.38
Z7
G1 Z-3 F450
G0 Z10
X72.491 Y94.951
Z7
G1 Z-3 F450
G0 Z10
X51.892 Y82.757
Z7
G1 Z-3 F450
G0 Z10
X20.7 Y91
Z7
G1 Z-3 F450
G0 Z10
Y135.9
Z7
G1 Z-3 F450
G0 Z10
Y180.8
Z7
G1 Z-3 F450
G0 Z10
X68.767 Y175.97
Z7
G1 Z-3 F450
G0 Z10
X50.907 Y204.612
Z7
G1 Z-3 F450
G0 Z10
X20.7 Y225.7
Z7
G1 Z-3 F450
G0 Z10
Y251.1
Z7
G1 Z-3 F450
G0 Z10
Y282.85
Z7
G1 Z-3 F450
G0 Z10
Y308.25
Z7
G1 Z-3 F450
G0 Z10
X60.78 Y282.85
Z7
G1 Z-3 F450
G0 Z10
Y251.1
Z7
G1 Z-3 F450
G0 Z10
X100.86
Z7
G1 Z-3 F450
G0 Z10
Y282.85
Z7
G1 Z-3 F450
G0 Z10
X140.94
Z7
G1 Z-3 F450
G0 Z10
Y251.1
Z7
G1 Z-3 F450
G0 Z10
X181.02
Z7
G1 Z-3 F450
G0 Z10
Y282.85
Z7
G1 Z-3 F450
G0 Z10
X221.1 Y308.25
Z7
G1 Z-3 F450
G0 Z10
Y282.85
Z7
G1 Z-3 F450
G0 Z10
Y251.1
Z7
G1 Z-3 F450
G0 Z10
Y225.7
Z7
G1 Z-3 F450
G0 Z10
Y180.8
Z7
G1 Z-3 F450
G0 Z10
Y135.9
Z7
G1 Z-3 F450
G0 Z10
Y91
Z7
G1 Z-3 F450
G0 Z10
X176.575 Y99.759
Z7
G1 Z-3 F450
G0 Z10
X155.976 Y87.565
Z7
G1 Z-3 F450
G0 Z10
X159.906 Y79.136
Z7
G1 Z-3 F450
G0 Z10
X149.466 Y55.011
Z7
G1 Z-3 F450
G0 Z10
X117.17 Y67.762
Z7
G1 Z-3 F450
G0 Z10
X129.157 Y86.112
Z7
G1 Z-3 F450
G0 Z10
X99.31 Y96.404
Z7
G1 Z-3 F450
G0 Z10
X111.298 Y114.754
Z7
G1 Z-3 F450
G0 Z10
X20.7 Y46.1
Z7
G1 Z-3 F450
G0 Z10
Y20.7
Z7
G1 Z-3 F450
G0 Z10
X60.78
Z7
G1 Z-3 F450
G0 Z10
X100.86
Z7
G1 Z-3 F450
G0 Z10
X140.94
Z7
G1 Z-3 F450
G0 Z10
X181.02
Z7
G1 Z-3 F450
G0 Z10
X221.1
Z7
G1 Z-3 F450
G0 Z10
Y46.1
Z7
G1 Z-3 F450
G0 Z10
Z25

(Bore1)
X168.255 Y64.376
Z25
Z2
G1 Z0.4 F1000
G19 G3 Y64.776 Z0 J0.4 K0
G1 Y64.976
G17 G2 X168.655 Y65.376 I0.4 J0
X168.655 Y55.376 Z-0.5 I0 J-5 F1143
X168.655 Y65.376 Z-1 I0 J5
X168.655 Y55.376 Z-1.5 I0 J-5
X168.655 Y65.376 Z-2 I0 J5
X168.655 Y55.376 Z-2.5 I0 J-5
X168.655 Y65.376 Z-3 I0 J5
X168.655 Y55.376 I0 J-5
X168.655 Y65.376 I0 J5
X169.055 Y64.976 I0 J-0.4
G1 Y64.776
G19 G2 Y64.376 Z-2.6 J0 K0.4
G0 Z10
X142.898 Y118.754
Z2
G1 Z0.4 F1000
G3 Y119.154 Z0 J0.4 K0
G1 Y119.354
G17 G2 X143.298 Y119.754 I0.4 J0
X143.298 Y109.754 Z-0.5 I0 J-5 F1143
X143.298 Y119.754 Z-1 I0 J5
X143.298 Y109.754 Z-1.5 I0 J-5
X143.298 Y119.754 Z-2 I0 J5
X143.298 Y109.754 Z-2.5 I0 J-5
X143.298 Y119.754 Z-3 I0 J5
X143.298 Y109.754 I0 J-5
X143.298 Y119.754 I0 J5
X143.698 Y119.354 I0 J-0.4
G1 Y119.154
G19 G2 Y118.754 Z-2.6 J0 K0.4
G0 Z10
X107.864 Y154.234
Z2
G1 Z0.4 F1000
G3 Y154.634 Z0 J0.4 K0
G1 Y154.834
G17 G2 X108.264 Y155.234 I0.4 J0
X108.264 Y145.234 Z-0.5 I0 J-5 F1143
X108.264 Y155.234 Z-1 I0 J5
X108.264 Y145.234 Z-1.5 I0 J-5
X108.264 Y155.234 Z-2 I0 J5
X108.264 Y145.234 Z-2.5 I0 J-5
X108.264 Y155.234 Z-3 I0 J5
X108.264 Y145.234 I0 J-5
X108.264 Y155.234 I0 J5
X108.664 Y154.834 I0 J-0.4
G1 Y154.634
G19 G2 Y154.234 Z-2.6 J0 K0.4
G0 Z10
X60.213 Y118.14
Z2
G1 Z0.4 F1000
G2 Y117.74 Z0 J-0.4 K0
G1 Y117.54
G17 G2 X59.813 Y117.14 I-0.4 J0
X59.813 Y127.14 Z-0.5 I0 J5 F1143
X59.813 Y117.14 Z-1 I0 J-5
X59.813 Y127.14 Z-1.5 I0 J5
X59.813 Y117.14 Z-2 I0 J-5
X59.813 Y127.14 Z-2.5 I0 J5
X59.813 Y117.14 Z-3 I0 J-5
X59.813 Y127.14 I0 J5
X59.813 Y117.14 I0 J-5
X59.413 Y117.54 I0 J0.4
G1 Y117.74
G19 G3 Y118.14 Z-2.6 J0 K0.4
G0 Z10
X85.57 Y51.262
Z2
G1 Z0.4 F1000
G2 Y50.862 Z0 J-0.4 K0
G1 Y50.662
G17 G2 X85.17 Y50.262 I-0.4 J0
X85.17 Y85.262 Z-0.5 I0 J17.5 F1143
X85.17 Y50.262 Z-1 I0 J-17.5
X85.17 Y85.262 Z-1.5 I0 J17.5
X85.17 Y50.262 Z-2 I0 J-17.5
X85.17 Y85.262 Z-2.5 I0 J17.5
X85.17 Y50.262 Z-3 I0 J-17.5
X85.17 Y85.262 I0 J17.5
X85.17 Y50.262 I0 J-17.5
X84.77 Y50.662 I0 J0.4
G1 Y50.862
G19 G3 Y51.262 Z-2.6 J0 K0.4
G0 Z10
X82.507 Y221.112
Z2
G1 Z0.4 F1000
G3 Y221.512 Z0 J0.4 K0
G1 Y221.712
G17 G2 X82.907 Y222.112 I0.4 J0
X82.907 Y187.112 Z-0.5 I0 J-17.5 F1143
X82.907 Y222.112 Z-1 I0 J17.5
X82.907 Y187.112 Z-1.5 I0 J-17.5
X82.907 Y222.112 Z-2 I0 J17.5
X82.907 Y187.112 Z-2.5 I0 J-17.5
X82.907 Y222.112 Z-3 I0 J17.5
X82.907 Y187.112 I0 J-17.5
X82.907 Y222.112 I0 J17.5
X83.307 Y221.712 I0 J-0.4
G1 Y221.512
G19 G2 Y221.112 Z-2.6 J0 K0.4
G0 Z10
X84.481 Y324.504
Z2
G1 Z0.4 F1000
G2 Y324.104 Z0 J-0.4 K0
G1 Y323.904
G17 G2 X84.081 Y323.504 I-0.4 J0
X84.081 Y333.504 Z-0.5 I0 J5 F1143
X84.081 Y323.504 Z-1 I0 J-5
X84.081 Y333.504 Z-1.5 I0 J5
X84.081 Y323.504 Z-2 I0 J-5
X84.081 Y333.504 Z-2.5 I0 J5
X84.081 Y323.504 Z-3 I0 J-5
X84.081 Y333.504 I0 J5
X84.081 Y323.504 I0 J-5
X83.681 Y323.904 I0 J0.4
G1 Y324.104
G19 G3 Y324.504 Z-2.6 J0 K0.4
G0 Z10
X59.124 Y378.882
Z2
G1 Z0.4 F1000
G2 Y378.482 Z0 J-0.4 K0
G1 Y378.282
G17 G2 X58.724 Y377.882 I-0.4 J0
X58.724 Y387.882 Z-0.5 I0 J5 F1143
X58.724 Y377.882 Z-1 I0 J-5
X58.724 Y387.882 Z-1.5 I0 J5
X58.724 Y377.882 Z-2 I0 J-5
X58.724 Y387.882 Z-2.5 I0 J5
X58.724 Y377.882 Z-3 I0 J-5
X58.724 Y387.882 I0 J5
X58.724 Y377.882 I0 J-5
X58.324 Y378.282 I0 J0.4
G1 Y378.482
G19 G3 Y378.882 Z-2.6 J0 K0.4
G0 Z10
X106.331 Y415.588
Z2
G1 Z0.4 F1000
G3 Y415.988 Z0 J0.4 K0
G1 Y416.188
G17 G2 X106.731 Y416.588 I0.4 J0
X106.731 Y406.588 Z-0.5 I0 J-5 F1143
X106.731 Y416.588 Z-1 I0 J5
X106.731 Y406.588 Z-1.5 I0 J-5
X106.731 Y416.588 Z-2 I0 J5
X106.731 Y406.588 Z-2.5 I0 J-5
X106.731 Y416.588 Z-3 I0 J5
X106.731 Y406.588 I0 J-5
X106.731 Y416.588 I0 J5
X107.131 Y416.188 I0 J-0.4
G1 Y415.988
G19 G2 Y415.588 Z-2.6 J0 K0.4
G0 Z10
X141.119 Y379.947
Z2
G1 Z0.4 F1000
G3 Y380.347 Z0 J0.4 K0
G1 Y380.547
G17 G2 X141.519 Y380.947 I0.4 J0
X141.519 Y370.947 Z-0.5 I0 J-5 F1143
X141.519 Y380.947 Z-1 I0 J5
X141.519 Y370.947 Z-1.5 I0 J-5
X141.519 Y380.947 Z-2 I0 J5
X141.519 Y370.947 Z-2.5 I0 J-5
X141.519 Y380.947 Z-3 I0 J5
X141.519 Y370.947 I0 J-5
X141.519 Y380.947 I0 J5
X141.919 Y380.547 I0 J-0.4
G1 Y380.347
G19 G2 Y379.947 Z-2.6 J0 K0.4
G0 Z10
X166.476 Y325.568
Z2
G1 Z0.4 F1000
G3 Y325.968 Z0 J0.4 K0
G1 Y326.168
G17 G2 X166.876 Y326.568 I0.4 J0
X166.876 Y316.568 Z-0.5 I0 J-5 F1143
X166.876 Y326.568 Z-1 I0 J5
X166.876 Y316.568 Z-1.5 I0 J-5
X166.876 Y326.568 Z-2 I0 J5
X166.876 Y316.568 Z-2.5 I0 J-5
X166.876 Y326.568 Z-3 I0 J5
X166.876 Y316.568 I0 J-5
X166.876 Y326.568 I0 J5
X167.276 Y326.168 I0 J-0.4
G1 Y325.968
G19 G2 Y325.568 Z-2.6 J0 K0.4
G0 Z10
X80.974 Y469.966
Z2
G1 Z0.4 F1000
G3 Y470.366 Z0 J0.4 K0
G1 Y470.566
G17 G2 X81.374 Y470.966 I0.4 J0
X81.374 Y460.966 Z-0.5 I0 J-5 F1143
X81.374 Y470.966 Z-1 I0 J5
X81.374 Y460.966 Z-1.5 I0 J-5
X81.374 Y470.966 Z-2 I0 J5
X81.374 Y460.966 Z-2.5 I0 J-5
X81.374 Y470.966 Z-3 I0 J5
X81.374 Y460.966 I0 J-5
X81.374 Y470.966 I0 J5
X81.774 Y470.566 I0 J-0.4
G1 Y470.366
G19 G2 Y469.966 Z-2.6 J0 K0.4
G0 Z25
G17
G28 G91 Z0
G90
G28 G91 X0 Y0
G90
M5
M30
