(0.5mm depth 1500 full cut)
(T1  D=4 CR=0 - ZMIN=-3 - flat end mill)
G90 G94
G17
G21
G28 G91 Z0
G90

(0.5mm depth 1500 full cut)
T1
S10000 M3
G54
G0 X104.516 Y369.3
Z15
Z7
G1 Z5.4 F450
G19 G2 Y368.9 Z5 J-0.4 K0 F1000
G1 Y368.5
G17 G2 X104.116 Y368.1 I-0.4 J0
G1 X14.343 Z1.865
G3 X12.929 Y367.514 Z1.81 I0 J-2
G1 X6.586 Y361.171 Z1.497
G3 X6 Y359.757 Z1.442 I1.414 J-1.414
G1 Y303.913 Z-0.508
Y302.1 F1500
G3 X8 Y300.1 I2 J0
G1 X448
G3 X450 Y302.1 I0 J2
G1 Y359.757
G3 X449.414 Y361.171 I-2 J0
G1 X443.071 Y367.514
G3 X441.657 Y368.1 I-1.414 J-1.414
G1 X14.343
G3 X12.929 Y367.514 I0 J-2
G1 X6.586 Y361.171
G3 X6 Y359.757 I1.414 J-1.414
G1 Y303.913
G2 X5.6 Y303.513 I-0.4 J0
G1 X5.2
G18 G3 X4.8 Z-0.108 I0 K0.4
G0 Z10
X160.373 Y298.95
Z7
G1 Z5.4 F450
G19 G2 Y298.55 Z5 J-0.4 K0 F1000
G1 Y298.15
G17 G2 X159.973 Y297.75 I-0.4 J0
G1 X14.343 Z-0.085
G3 X12.929 Y297.164 Z-0.14 I0 J-2
G1 X6.586 Y290.821 Z-0.454
G3 X6 Y289.42 Z-0.508 I1.414 J-1.414
G1 Y289.407 F1500
Y231.75
G3 X8 Y229.75 I2 J0
G1 X448
G3 X450 Y231.75 I0 J2
G1 Y289.407
G3 X449.414 Y290.821 I-2 J0
G1 X443.071 Y297.164
G3 X441.657 Y297.75 I-1.414 J-1.414
G1 X14.343
G3 X12.929 Y297.164 I0 J-2
G1 X6.586 Y290.821
G3 X6 Y289.42 I1.414 J-1.414
G2 X5.597 Y289.023 I-0.4 J0.003
G1 X5.197 Y289.025
X5.119 Y289.026 Z-0.5
X5.044 Z-0.478
X4.975 Y289.027 Z-0.441
X4.915 Z-0.391
X4.865 Y289.028 Z-0.33
X4.828 Z-0.261
X4.805 Z-0.186
X4.797 Z-0.108
G0 Z10
X160.374 Y228.6
Z7
G1 Z5.4 F450
G19 G2 Y228.2 Z5 J-0.4 K0 F1000
G1 Y227.8
G17 G2 X159.974 Y227.4 I-0.4 J0
G1 X14.343 Z-0.086
G3 X12.929 Y226.814 Z-0.14 I0 J-2
G1 X6.586 Y220.471 Z-0.454
G3 X6 Y219.072 Z-0.508 I1.414 J-1.414
G1 Y219.057 F1500
Y161.4
G3 X8 Y159.4 I2 J0
G1 X448
G3 X450 Y161.4 I0 J2
G1 Y200.374
Y219.057
G3 X449.414 Y220.471 I-2 J0
G1 X443.071 Y226.814
G3 X441.657 Y227.4 I-1.414 J-1.414
G1 X14.343
G3 X12.929 Y226.814 I0 J-2
G1 X6.586 Y220.471
G3 X6 Y219.072 I1.414 J-1.414
G2 X5.597 Y218.675 I-0.4 J0.003
G1 X5.197 Y218.678
X5.119 Z-0.5
X5.044 Y218.679 Z-0.478
X4.975 Z-0.441
X4.914 Y218.68 Z-0.391
X4.865 Z-0.33
X4.828 Z-0.261
X4.805 Y218.681 Z-0.186
X4.797 Z-0.108
G0 Z10
X162.995 Y158.25
Z7
G1 Z5.4 F450
G19 G2 Y157.85 Z5 J-0.4 K0 F1000
G1 Y157.45
G17 G2 X162.595 Y157.05 I-0.4 J0
G1 X8 Z-0.399
G3 X6 Y155.058 Z-0.508 I0 J-2
G1 Y155.05 F1500
Y84.7
G3 X8 Y82.7 I2 J0
G1 X448
G3 X450 Y84.7 I0 J2
G1 Y155.05
G3 X448 Y157.05 I-2 J0
G1 X8
G3 X6 Y155.058 I0 J-2
G2 X5.598 Y154.66 I-0.4 J0.002
G1 X5.198 Y154.662
X5.12 Z-0.5
X5.045 Z-0.478
X4.976 Z-0.441
X4.916 Y154.663 Z-0.391
X4.866 Z-0.33
X4.829 Z-0.261
X4.806 Z-0.186
X4.798 Z-0.108
G0 Z10
X139.391 Y4.8
Z7
G1 Z5.4 F450
G19 G3 Y5.2 Z5 J0.4 K0 F1000
G1 Y5.6
G17 G2 X139.791 Y6 I0.4 J0
G1 X297.519 Z-0.508
X448 F1500
G3 X450 Y8 I0 J2
G1 Y78.35
G3 X448 Y80.35 I-2 J0
G1 X8
G3 X6 Y78.35 I0 J-2
G1 Y8
G3 X8 Y6 I2 J0
G1 X297.519
G2 X297.919 Y5.6 I0 J-0.4
G1 Y5.2
G19 G2 Y4.8 Z-0.108 J0 K0.4
G0 Z10
X528.789 Y62.279
Z7
G1 Z5.4 F450
G2 Y61.879 Z5 J-0.4 K0 F1000
G1 Y61.479
G17 G2 X528.389 Y61.079 I-0.4 J0
G1 X483.834 Z3.444
G3 X476.703 Y59.743 Z3.189 I0 J-19.7
G1 X458.244 Y52.575 Z2.498
G3 X453.172 Y44.395 Z2.137 I2.896 J-7.458
G1 X454.215 Y32.895 Z1.734
G3 X457.316 Y27.268 Z1.503 I7.968 J0.723
G1 X477.104 Y12.105 Z0.632
G3 X480.772 Y10.545 Z0.492 I4.866 J6.35
G1 X506.889 Y6.59 Z-0.431
G3 X509.094 Y6.382 Z-0.508 I2.95 J19.478
X513.524 Y6.716 I0.744 J19.686 F1500
G1 X534.207 Y10.655
G3 X535.145 Y10.893 I-1.494 J7.859
G1 X582.429 Y25.997
G3 X587.962 Y32.895 I-2.434 J7.621
G1 X589.005 Y44.395
G3 X583.934 Y52.575 I-7.967 J0.723
G1 X565.475 Y59.743
G3 X558.344 Y61.079 I-7.131 J-18.364
G1 X483.834
G3 X476.703 Y59.743 I0 J-19.7
G1 X458.244 Y52.575
G3 X453.172 Y44.395 I2.896 J-7.458
G1 X454.215 Y32.895
G3 X457.316 Y27.268 I7.968 J0.723
G1 X477.104 Y12.105
G3 X480.772 Y10.545 I4.866 J6.35
G1 X506.889 Y6.59
G3 X509.094 Y6.382 I2.95 J19.478
G2 X509.479 Y5.967 I-0.015 J-0.4
G1 X509.464 Y5.567
X509.461 Y5.489 Z-0.5
X509.458 Y5.414 Z-0.478
X509.456 Y5.345 Z-0.441
X509.453 Y5.285 Z-0.391
X509.451 Y5.235 Z-0.33
X509.45 Y5.198 Z-0.261
X509.449 Y5.175 Z-0.186
Y5.168 Z-0.108
G0 Z10
X454.959 Y85.312
Z7
G1 Z5.4 F450
X454.965 Y85.317 Z5.322 F1000
X454.982 Y85.332 Z5.247
X455.01 Y85.356 Z5.178
X455.048 Y85.388 Z5.117
X455.094 Y85.428 Z5.067
X455.146 Y85.473 Z5.03
X455.203 Y85.522 Z5.008
X455.262 Y85.573 Z5
X455.564 Y85.835
G2 X456.129 Y85.794 I0.261 J-0.303
G3 X457.316 Y84.673 Z4.943 I6.054 J5.23
G1 X477.104 Y69.51 Z4.072
G3 X480.772 Y67.95 Z3.932 I4.866 J6.35
G1 X506.889 Y63.995 Z3.009
G3 X513.524 Y64.121 Z2.776 I2.95 J19.478
G1 X534.207 Y68.06 Z2.041
G3 X535.145 Y68.299 Z2.007 I-1.495 J7.859
G1 X582.429 Y83.403 Z0.274
G3 X587.962 Y90.301 Z-0.053 I-2.434 J7.62
G1 X589.005 Y101.8 Z-0.456
G3 X589.002 Y103.274 Z-0.508 I-7.967 J0.723
X583.934 Y109.98 I-7.964 J-0.751 F1500
G1 X565.475 Y117.148
G3 X558.344 Y118.485 I-7.133 J-18.363
G1 X483.834
G3 X476.703 Y117.148 I0.002 J-19.7
G1 X458.244 Y109.98
G3 X453.172 Y101.8 I2.896 J-7.458
G1 X454.215 Y90.301
G3 X457.316 Y84.673 I7.968 J0.723
G1 X477.104 Y69.51
G3 X480.772 Y67.95 I4.866 J6.35
G1 X506.889 Y63.995
G3 X513.524 Y64.121 I2.95 J19.478
G1 X534.207 Y68.06
G3 X535.145 Y68.299 I-1.495 J7.859
G1 X582.429 Y83.403
G3 X587.962 Y90.301 I-2.434 J7.62
G1 X589.005 Y101.8
G3 X589.002 Y103.274 I-7.967 J0.723
G2 X589.363 Y103.71 I0.398 J0.038
G1 X589.761 Y103.747
X589.839 Y103.755 Z-0.5
X589.914 Y103.762 Z-0.478
X589.982 Y103.768 Z-0.441
X590.043 Y103.774 Z-0.391
X590.092 Y103.779 Z-0.33
X590.129 Y103.782 Z-0.261
X590.152 Y103.784 Z-0.186
X590.159 Y103.785 Z-0.108
G0 Z10
X458.113 Y143.666
Z7
G1 Z5.4 F450
X458.119 Y143.661 Z5.322 F1000
X458.136 Y143.647 Z5.247
X458.166 Y143.624 Z5.178
X458.205 Y143.594 Z5.117
X458.252 Y143.556 Z5.067
X458.307 Y143.513 Z5.03
X458.366 Y143.467 Z5.008
X458.427 Y143.419 Z5
X458.741 Y143.172
G2 X458.809 Y142.61 I-0.247 J-0.314
G3 X471.053 Y120.011 Z3.863 I11.005 J-8.654
G1 X520.543 Y124.409 Z2.128
G2 X521.959 Y124.409 Z2.078 I0.708 J-7.969
G1 X571.449 Y120.011 Z0.343
G3 X586.642 Y135.101 Z-0.508 I1.24 J13.945
X582.867 Y143.568 I-13.953 J-1.145 F1500
G1 X546.794 Y181.762
G3 X541.705 Y183.956 I-5.089 J-4.806
G1 X535.95
G3 X506.552 Y183.956 I-14.699 J-27.86
G1 X500.797
G3 X495.708 Y181.762 I0 J-7
G1 X459.635 Y143.568
G3 X471.053 Y120.011 I10.178 J-9.613
G1 X520.543 Y124.409
G2 X521.959 Y124.409 I0.708 J-7.969
G1 X571.449 Y120.011
G3 X586.642 Y135.101 I1.24 J13.945
G2 X587.008 Y135.532 I0.399 J0.033
G1 X587.406 Y135.565
X587.484 Y135.571 Z-0.5
X587.559 Y135.577 Z-0.478
X587.628 Y135.583 Z-0.441
X587.688 Y135.588 Z-0.391
X587.738 Y135.592 Z-0.33
X587.775 Y135.595 Z-0.261
X587.797 Y135.597 Z-0.186
X587.805 Z-0.108
G0 Z10
X454.959 Y85.312
Z7
G1 Z4.892 F450
X454.965 Y85.317 Z4.814 F1000
X454.982 Y85.332 Z4.739
X455.01 Y85.356 Z4.67
X455.048 Y85.388 Z4.609
X455.094 Y85.428 Z4.559
X455.146 Y85.473 Z4.522
X455.203 Y85.522 Z4.5
X455.262 Y85.573 Z4.492
X455.564 Y85.835
G2 X456.129 Y85.794 I0.261 J-0.303
G3 X457.316 Y84.673 Z4.435 I6.054 J5.23
G1 X477.104 Y69.51 Z3.564
G3 X480.772 Y67.95 Z3.424 I4.866 J6.35
G1 X506.889 Y63.995 Z2.501
G3 X513.524 Y64.121 Z2.268 I2.95 J19.478
G1 X534.207 Y68.06 Z1.533
G3 X535.145 Y68.299 Z1.499 I-1.495 J7.859
G1 X582.429 Y83.403 Z-0.234
G3 X587.962 Y90.301 Z-0.561 I-2.434 J7.62
G1 X589.005 Y101.8 Z-0.964
G3 X589.002 Y103.274 Z-1.016 I-7.967 J0.723
X583.934 Y109.98 I-7.964 J-0.751 F1500
G1 X565.475 Y117.148
G3 X558.344 Y118.485 I-7.133 J-18.363
G1 X483.834
G3 X476.703 Y117.148 I0.002 J-19.7
G1 X458.244 Y109.98
G3 X453.172 Y101.8 I2.896 J-7.458
G1 X454.215 Y90.301
G3 X457.316 Y84.673 I7.968 J0.723
G1 X477.104 Y69.51
G3 X480.772 Y67.95 I4.866 J6.35
G1 X506.889 Y63.995
G3 X513.524 Y64.121 I2.95 J19.478
G1 X534.207 Y68.06
G3 X535.145 Y68.299 I-1.495 J7.859
G1 X582.429 Y83.403
G3 X587.962 Y90.301 I-2.434 J7.62
G1 X589.005 Y101.8
G3 X589.002 Y103.274 I-7.967 J0.723
G2 X589.363 Y103.71 I0.398 J0.038
G1 X589.761 Y103.747
X589.839 Y103.755 Z-1.008
X589.914 Y103.762 Z-0.986
X589.982 Y103.768 Z-0.949
X590.043 Y103.774 Z-0.899
X590.092 Y103.779 Z-0.838
X590.129 Y103.782 Z-0.769
X590.152 Y103.784 Z-0.694
X590.159 Y103.785 Z-0.616
G0 Z10
X528.789 Y62.279
Z7
G1 Z4.892 F450
G19 G2 Y61.879 Z4.492 J-0.4 K0 F1000
G1 Y61.479
G17 G2 X528.389 Y61.079 I-0.4 J0
G1 X483.834 Z2.936
G3 X476.703 Y59.743 Z2.681 I0 J-19.7
G1 X458.244 Y52.575 Z1.99
G3 X453.172 Y44.395 Z1.629 I2.896 J-7.458
G1 X454.215 Y32.895 Z1.226
G3 X457.316 Y27.268 Z0.995 I7.968 J0.723
G1 X477.104 Y12.105 Z0.124
G3 X480.772 Y10.545 Z-0.016 I4.866 J6.35
G1 X506.889 Y6.59 Z-0.939
G3 X509.094 Y6.382 Z-1.016 I2.95 J19.478
X513.524 Y6.716 I0.744 J19.686 F1500
G1 X534.207 Y10.655
G3 X535.145 Y10.893 I-1.494 J7.859
G1 X582.429 Y25.997
G3 X587.962 Y32.895 I-2.434 J7.621
G1 X589.005 Y44.395
G3 X583.934 Y52.575 I-7.967 J0.723
G1 X565.475 Y59.743
G3 X558.344 Y61.079 I-7.131 J-18.364
G1 X483.834
G3 X476.703 Y59.743 I0 J-19.7
G1 X458.244 Y52.575
G3 X453.172 Y44.395 I2.896 J-7.458
G1 X454.215 Y32.895
G3 X457.316 Y27.268 I7.968 J0.723
G1 X477.104 Y12.105
G3 X480.772 Y10.545 I4.866 J6.35
G1 X506.889 Y6.59
G3 X509.094 Y6.382 I2.95 J19.478
G2 X509.479 Y5.967 I-0.015 J-0.4
G1 X509.464 Y5.567
X509.461 Y5.489 Z-1.008
X509.458 Y5.414 Z-0.986
X509.456 Y5.345 Z-0.949
X509.453 Y5.285 Z-0.899
X509.451 Y5.235 Z-0.838
X509.45 Y5.198 Z-0.769
X509.449 Y5.175 Z-0.694
Y5.168 Z-0.616
G0 Z10
X139.391 Y4.8
Z7
G1 Z4.892 F450
G19 G3 Y5.2 Z4.492 J0.4 K0 F1000
G1 Y5.6
G17 G2 X139.791 Y6 I0.4 J0
G1 X297.519 Z-1.016
X448 F1500
G3 X450 Y8 I0 J2
G1 Y78.35
G3 X448 Y80.35 I-2 J0
G1 X8
G3 X6 Y78.35 I0 J-2
G1 Y8
G3 X8 Y6 I2 J0
G1 X297.519
G2 X297.919 Y5.6 I0 J-0.4
G1 Y5.2
G19 G2 Y4.8 Z-0.616 J0 K0.4
G0 Z10
X162.995 Y158.25
Z7
G1 Z4.892 F450
G2 Y157.85 Z4.492 J-0.4 K0 F1000
G1 Y157.45
G17 G2 X162.595 Y157.05 I-0.4 J0
G1 X8 Z-0.907
G3 X6 Y155.058 Z-1.016 I0 J-2
G1 Y155.05 F1500
Y84.7
G3 X8 Y82.7 I2 J0
G1 X448
G3 X450 Y84.7 I0 J2
G1 Y155.05
G3 X448 Y157.05 I-2 J0
G1 X8
G3 X6 Y155.058 I0 J-2
G2 X5.598 Y154.66 I-0.4 J0.002
G1 X5.198 Y154.662
X5.12 Z-1.008
X5.045 Z-0.986
X4.976 Z-0.949
X4.916 Y154.663 Z-0.899
X4.866 Z-0.838
X4.829 Z-0.769
X4.806 Z-0.694
X4.798 Z-0.616
G0 Z10
X139.391 Y4.8
Z7
G1 Z4.384 F450
G19 G3 Y5.2 Z3.984 J0.4 K0 F1000
G1 Y5.6
G17 G2 X139.791 Y6 I0.4 J0
G1 X297.519 Z-1.524
X448 F1500
G3 X450 Y8 I0 J2
G1 Y78.35
G3 X448 Y80.35 I-2 J0
G1 X8
G3 X6 Y78.35 I0 J-2
G1 Y8
G3 X8 Y6 I2 J0
G1 X297.519
G2 X297.919 Y5.6 I0 J-0.4
G1 Y5.2
G19 G2 Y4.8 Z-1.124 J0 K0.4
G0 Z10
X528.789 Y62.279
Z7
G1 Z4.384 F450
G2 Y61.879 Z3.984 J-0.4 K0 F1000
G1 Y61.479
G17 G2 X528.389 Y61.079 I-0.4 J0
G1 X483.834 Z2.428
G3 X476.703 Y59.743 Z2.173 I0 J-19.7
G1 X458.244 Y52.575 Z1.482
G3 X453.172 Y44.395 Z1.121 I2.896 J-7.458
G1 X454.215 Y32.895 Z0.718
G3 X457.316 Y27.268 Z0.487 I7.968 J0.723
G1 X477.104 Y12.105 Z-0.384
G3 X480.772 Y10.545 Z-0.524 I4.866 J6.35
G1 X506.889 Y6.59 Z-1.447
G3 X509.094 Y6.382 Z-1.524 I2.95 J19.478
X513.524 Y6.716 I0.744 J19.686 F1500
G1 X534.207 Y10.655
G3 X535.145 Y10.893 I-1.494 J7.859
G1 X582.429 Y25.997
G3 X587.962 Y32.895 I-2.434 J7.621
G1 X589.005 Y44.395
G3 X583.934 Y52.575 I-7.967 J0.723
G1 X565.475 Y59.743
G3 X558.344 Y61.079 I-7.131 J-18.364
G1 X483.834
G3 X476.703 Y59.743 I0 J-19.7
G1 X458.244 Y52.575
G3 X453.172 Y44.395 I2.896 J-7.458
G1 X454.215 Y32.895
G3 X457.316 Y27.268 I7.968 J0.723
G1 X477.104 Y12.105
G3 X480.772 Y10.545 I4.866 J6.35
G1 X506.889 Y6.59
G3 X509.094 Y6.382 I2.95 J19.478
G2 X509.479 Y5.967 I-0.015 J-0.4
G1 X509.464 Y5.567
X509.461 Y5.489 Z-1.516
X509.458 Y5.414 Z-1.494
X509.456 Y5.345 Z-1.457
X509.453 Y5.285 Z-1.407
X509.451 Y5.235 Z-1.346
X509.45 Y5.198 Z-1.277
X509.449 Y5.175 Z-1.202
Y5.168 Z-1.124
G0 Z10
X455.747 Y210.709
Z7
G1 Z5.4 F450
X455.753 Y210.704 Z5.322 F1000
X455.77 Y210.689 Z5.247
X455.798 Y210.665 Z5.178
X455.836 Y210.633 Z5.117
X455.882 Y210.593 Z5.067
X455.935 Y210.548 Z5.03
X455.991 Y210.499 Z5.008
X456.051 Y210.448 Z5
X456.354 Y210.187
G2 X456.396 Y209.623 I-0.261 J-0.303
G3 X468.246 Y186.545 Z3.841 I10.61 J-9.133
G1 X517.736 Y190.943 Z2.106
G2 X519.152 Y190.943 Z2.057 I0.708 J-7.969
G1 X568.642 Y186.545 Z0.322
G3 X583.871 Y201.016 Z-0.508 I1.239 J13.945
X580.059 Y210.102 I-13.99 J-0.526 F1500
G1 X543.987 Y248.296
G3 X538.898 Y250.49 I-5.089 J-4.806
G1 X533.143
G3 X503.744 Y250.49 I-14.699 J-27.86
G1 X497.99
G3 X492.901 Y248.296 I0 J-7
G1 X456.828 Y210.102
G3 X468.246 Y186.545 I10.178 J-9.613
G1 X499.655 Y189.336
X517.736 Y190.943
G2 X519.152 Y190.943 I0.708 J-7.969
G1 X568.642 Y186.545
G3 X583.871 Y201.016 I1.239 J13.945
G2 X584.255 Y201.431 I0.4 J0.015
G1 X584.655 Y201.446
X584.733 Y201.449 Z-0.5
X584.808 Y201.452 Z-0.478
X584.877 Y201.454 Z-0.441
X584.938 Y201.457 Z-0.391
X584.988 Y201.459 Z-0.33
X585.025 Y201.46 Z-0.261
X585.047 Y201.461 Z-0.186
X585.055 Z-0.108
G0 Z10
X458.113 Y143.666
Z7
G1 Z4.892 F450
X458.119 Y143.661 Z4.814 F1000
X458.136 Y143.647 Z4.739
X458.166 Y143.624 Z4.67
X458.205 Y143.594 Z4.609
X458.252 Y143.556 Z4.559
X458.307 Y143.513 Z4.522
X458.366 Y143.467 Z4.5
X458.427 Y143.419 Z4.492
X458.741 Y143.172
G2 X458.809 Y142.61 I-0.247 J-0.314
G3 X471.053 Y120.011 Z3.355 I11.005 J-8.654
G1 X520.543 Y124.409 Z1.62
G2 X521.959 Y124.409 Z1.57 I0.708 J-7.969
G1 X571.449 Y120.011 Z-0.165
G3 X586.642 Y135.101 Z-1.016 I1.24 J13.945
X582.867 Y143.568 I-13.953 J-1.145 F1500
G1 X546.794 Y181.762
G3 X541.705 Y183.956 I-5.089 J-4.806
G1 X535.95
G3 X506.552 Y183.956 I-14.699 J-27.86
G1 X500.797
G3 X495.708 Y181.762 I0 J-7
G1 X459.635 Y143.568
G3 X471.053 Y120.011 I10.178 J-9.613
G1 X520.543 Y124.409
G2 X521.959 Y124.409 I0.708 J-7.969
G1 X571.449 Y120.011
G3 X586.642 Y135.101 I1.24 J13.945
G2 X587.008 Y135.532 I0.399 J0.033
G1 X587.406 Y135.565
X587.484 Y135.571 Z-1.008
X587.559 Y135.577 Z-0.986
X587.628 Y135.583 Z-0.949
X587.688 Y135.588 Z-0.899
X587.738 Y135.592 Z-0.838
X587.775 Y135.595 Z-0.769
X587.797 Y135.597 Z-0.694
X587.805 Z-0.616
G0 Z10
X454.959 Y85.312
Z7
G1 Z4.384 F450
X454.965 Y85.317 Z4.306 F1000
X454.982 Y85.332 Z4.231
X455.01 Y85.356 Z4.162
X455.048 Y85.388 Z4.101
X455.094 Y85.428 Z4.051
X455.146 Y85.473 Z4.014
X455.203 Y85.522 Z3.992
X455.262 Y85.573 Z3.984
X455.564 Y85.835
G2 X456.129 Y85.794 I0.261 J-0.303
G3 X457.316 Y84.673 Z3.927 I6.054 J5.23
G1 X477.104 Y69.51 Z3.056
G3 X480.772 Y67.95 Z2.916 I4.866 J6.35
G1 X506.889 Y63.995 Z1.993
G3 X513.524 Y64.121 Z1.76 I2.95 J19.478
G1 X534.207 Y68.06 Z1.025
G3 X535.145 Y68.299 Z0.991 I-1.495 J7.859
G1 X582.429 Y83.403 Z-0.742
G3 X587.962 Y90.301 Z-1.069 I-2.434 J7.62
G1 X589.005 Y101.8 Z-1.472
G3 X589.002 Y103.274 Z-1.524 I-7.967 J0.723
X583.934 Y109.98 I-7.964 J-0.751 F1500
G1 X565.475 Y117.148
G3 X558.344 Y118.485 I-7.133 J-18.363
G1 X483.834
G3 X476.703 Y117.148 I0.002 J-19.7
G1 X458.244 Y109.98
G3 X453.172 Y101.8 I2.896 J-7.458
G1 X454.215 Y90.301
G3 X457.316 Y84.673 I7.968 J0.723
G1 X477.104 Y69.51
G3 X480.772 Y67.95 I4.866 J6.35
G1 X506.889 Y63.995
G3 X513.524 Y64.121 I2.95 J19.478
G1 X534.207 Y68.06
G3 X535.145 Y68.299 I-1.495 J7.859
G1 X582.429 Y83.403
G3 X587.962 Y90.301 I-2.434 J7.62
G1 X589.005 Y101.8
G3 X589.002 Y103.274 I-7.967 J0.723
G2 X589.363 Y103.71 I0.398 J0.038
G1 X589.761 Y103.747
X589.839 Y103.755 Z-1.516
X589.914 Y103.762 Z-1.494
X589.982 Y103.768 Z-1.457
X590.043 Y103.774 Z-1.407
X590.092 Y103.779 Z-1.346
X590.129 Y103.782 Z-1.277
X590.152 Y103.784 Z-1.202
X590.159 Y103.785 Z-1.124
G0 Z10
X528.789 Y62.279
Z7
G1 Z3.876 F450
G19 G2 Y61.879 Z3.476 J-0.4 K0 F1000
G1 Y61.479
G17 G2 X528.389 Y61.079 I-0.4 J0
G1 X483.834 Z1.92
G3 X476.703 Y59.743 Z1.665 I0 J-19.7
G1 X458.244 Y52.575 Z0.974
G3 X453.172 Y44.395 Z0.613 I2.896 J-7.458
G1 X454.215 Y32.895 Z0.21
G3 X457.316 Y27.268 Z-0.021 I7.968 J0.723
G1 X477.104 Y12.105 Z-0.892
G3 X480.772 Y10.545 Z-1.032 I4.866 J6.35
G1 X506.889 Y6.59 Z-1.955
G3 X509.094 Y6.382 Z-2.032 I2.95 J19.478
X513.524 Y6.716 I0.744 J19.686 F1500
G1 X534.207 Y10.655
G3 X535.145 Y10.893 I-1.494 J7.859
G1 X582.429 Y25.997
G3 X587.962 Y32.895 I-2.434 J7.621
G1 X589.005 Y44.395
G3 X583.934 Y52.575 I-7.967 J0.723
G1 X565.475 Y59.743
G3 X558.344 Y61.079 I-7.131 J-18.364
G1 X483.834
G3 X476.703 Y59.743 I0 J-19.7
G1 X458.244 Y52.575
G3 X453.172 Y44.395 I2.896 J-7.458
G1 X454.215 Y32.895
G3 X457.316 Y27.268 I7.968 J0.723
G1 X477.104 Y12.105
G3 X480.772 Y10.545 I4.866 J6.35
G1 X506.889 Y6.59
G3 X509.094 Y6.382 I2.95 J19.478
G2 X509.479 Y5.967 I-0.015 J-0.4
G1 X509.464 Y5.567
X509.461 Y5.489 Z-2.024
X509.458 Y5.414 Z-2.002
X509.456 Y5.345 Z-1.965
X509.453 Y5.285 Z-1.915
X509.451 Y5.235 Z-1.854
X509.45 Y5.198 Z-1.785
X509.449 Y5.175 Z-1.71
Y5.168 Z-1.632
G0 Z10
X160.374 Y228.6
Z7
G1 Z4.892 F450
G19 G2 Y228.2 Z4.492 J-0.4 K0 F1000
G1 Y227.8
G17 G2 X159.974 Y227.4 I-0.4 J0
G1 X14.343 Z-0.594
G3 X12.929 Y226.814 Z-0.648 I0 J-2
G1 X6.586 Y220.471 Z-0.962
G3 X6 Y219.072 Z-1.016 I1.414 J-1.414
G1 Y219.057 F1500
Y161.4
G3 X8 Y159.4 I2 J0
G1 X448
G3 X450 Y161.4 I0 J2
G1 Y200.374
Y219.057
G3 X449.414 Y220.471 I-2 J0
G1 X443.071 Y226.814
G3 X441.657 Y227.4 I-1.414 J-1.414
G1 X14.343
G3 X12.929 Y226.814 I0 J-2
G1 X6.586 Y220.471
G3 X6 Y219.072 I1.414 J-1.414
G2 X5.597 Y218.675 I-0.4 J0.003
G1 X5.197 Y218.678
X5.119 Z-1.008
X5.044 Y218.679 Z-0.986
X4.975 Z-0.949
X4.914 Y218.68 Z-0.899
X4.865 Z-0.838
X4.828 Z-0.769
X4.805 Y218.681 Z-0.694
X4.797 Z-0.616
G0 Z10
X162.995 Y158.25
Z7
G1 Z4.384 F450
G19 G2 Y157.85 Z3.984 J-0.4 K0 F1000
G1 Y157.45
G17 G2 X162.595 Y157.05 I-0.4 J0
G1 X8 Z-1.415
G3 X6 Y155.058 Z-1.524 I0 J-2
G1 Y155.05 F1500
Y84.7
G3 X8 Y82.7 I2 J0
G1 X448
G3 X450 Y84.7 I0 J2
G1 Y155.05
G3 X448 Y157.05 I-2 J0
G1 X8
G3 X6 Y155.058 I0 J-2
G2 X5.598 Y154.66 I-0.4 J0.002
G1 X5.198 Y154.662
X5.12 Z-1.516
X5.045 Z-1.494
X4.976 Z-1.457
X4.916 Y154.663 Z-1.407
X4.866 Z-1.346
X4.829 Z-1.277
X4.806 Z-1.202
X4.798 Z-1.124
G0 Z10
X139.391 Y4.8
Z7
G1 Z3.876 F450
G19 G3 Y5.2 Z3.476 J0.4 K0 F1000
G1 Y5.6
G17 G2 X139.791 Y6 I0.4 J0
G1 X297.519 Z-2.032
X448 F1500
G3 X450 Y8 I0 J2
G1 Y78.35
G3 X448 Y80.35 I-2 J0
G1 X8
G3 X6 Y78.35 I0 J-2
G1 Y8
G3 X8 Y6 I2 J0
G1 X297.519
G2 X297.919 Y5.6 I0 J-0.4
G1 Y5.2
G19 G2 Y4.8 Z-1.632 J0 K0.4
G0 Z10
X455.784 Y277.043
Z7
G1 Z5.4 F450
X455.789 Y277.038 Z5.322 F1000
X455.807 Y277.023 Z5.247
X455.835 Y276.999 Z5.178
X455.872 Y276.966 Z5.117
X455.918 Y276.926 Z5.067
X455.97 Y276.881 Z5.03
X456.027 Y276.832 Z5.008
X456.086 Y276.781 Z5
X456.388 Y276.519
G17 G2 X456.428 Y275.955 I-0.262 J-0.302
G3 X468.246 Y252.838 Z3.839 I10.578 J-9.172
G1 X517.736 Y257.236 Z2.104
G2 X519.152 Y257.236 Z2.055 I0.708 J-7.969
G1 X568.642 Y252.838 Z0.32
G3 X583.873 Y267.258 Z-0.508 I1.239 J13.945
X580.059 Y276.396 I-13.992 J-0.475 F1500
G1 X543.987 Y314.589
G3 X538.898 Y316.783 I-5.089 J-4.806
G1 X533.143
G3 X503.744 Y316.783 I-14.699 J-27.86
G1 X497.99
G3 X492.901 Y314.589 I0 J-7
G1 X456.828 Y276.396
G3 X468.246 Y252.838 I10.178 J-9.613
G1 X517.736 Y257.236
G2 X519.152 Y257.236 I0.708 J-7.969
G1 X568.642 Y252.838
G3 X583.873 Y267.258 I1.239 J13.945
G2 X584.259 Y267.671 I0.4 J0.014
G1 X584.659 Y267.685
X584.737 Y267.687 Z-0.5
X584.812 Y267.69 Z-0.478
X584.881 Y267.692 Z-0.441
X584.942 Y267.694 Z-0.391
X584.992 Y267.696 Z-0.33
X585.028 Y267.697 Z-0.261
X585.051 Y267.698 Z-0.186
X585.059 Z-0.108
G0 Z10
X455.747 Y210.709
Z7
G1 Z4.892 F450
X455.753 Y210.704 Z4.814 F1000
X455.77 Y210.689 Z4.739
X455.798 Y210.665 Z4.67
X455.836 Y210.633 Z4.609
X455.882 Y210.593 Z4.559
X455.935 Y210.548 Z4.522
X455.991 Y210.499 Z4.5
X456.051 Y210.448 Z4.492
X456.354 Y210.187
G2 X456.396 Y209.623 I-0.261 J-0.303
G3 X468.246 Y186.545 Z3.333 I10.61 J-9.133
G1 X517.736 Y190.943 Z1.598
G2 X519.152 Y190.943 Z1.549 I0.708 J-7.969
G1 X568.642 Y186.545 Z-0.186
G3 X583.871 Y201.016 Z-1.016 I1.239 J13.945
X580.059 Y210.102 I-13.99 J-0.526 F1500
G1 X543.987 Y248.296
G3 X538.898 Y250.49 I-5.089 J-4.806
G1 X533.143
G3 X503.744 Y250.49 I-14.699 J-27.86
G1 X497.99
G3 X492.901 Y248.296 I0 J-7
G1 X456.828 Y210.102
G3 X468.246 Y186.545 I10.178 J-9.613
G1 X499.655 Y189.336
X517.736 Y190.943
G2 X519.152 Y190.943 I0.708 J-7.969
G1 X568.642 Y186.545
G3 X583.871 Y201.016 I1.239 J13.945
G2 X584.255 Y201.431 I0.4 J0.015
G1 X584.655 Y201.446
X584.733 Y201.449 Z-1.008
X584.808 Y201.452 Z-0.986
X584.877 Y201.454 Z-0.949
X584.938 Y201.457 Z-0.899
X584.988 Y201.459 Z-0.838
X585.025 Y201.46 Z-0.769
X585.047 Y201.461 Z-0.694
X585.055 Z-0.616
G0 Z10
X458.113 Y143.666
Z7
G1 Z4.384 F450
X458.119 Y143.661 Z4.306 F1000
X458.136 Y143.647 Z4.231
X458.166 Y143.624 Z4.162
X458.205 Y143.594 Z4.101
X458.252 Y143.556 Z4.051
X458.307 Y143.513 Z4.014
X458.366 Y143.467 Z3.992
X458.427 Y143.419 Z3.984
X458.741 Y143.172
G2 X458.809 Y142.61 I-0.247 J-0.314
G3 X471.053 Y120.011 Z2.847 I11.005 J-8.654
G1 X520.543 Y124.409 Z1.112
G2 X521.959 Y124.409 Z1.062 I0.708 J-7.969
G1 X571.449 Y120.011 Z-0.673
G3 X586.642 Y135.101 Z-1.524 I1.24 J13.945
X582.867 Y143.568 I-13.953 J-1.145 F1500
G1 X546.794 Y181.762
G3 X541.705 Y183.956 I-5.089 J-4.806
G1 X535.95
G3 X506.552 Y183.956 I-14.699 J-27.86
G1 X500.797
G3 X495.708 Y181.762 I0 J-7
G1 X459.635 Y143.568
G3 X471.053 Y120.011 I10.178 J-9.613
G1 X520.543 Y124.409
G2 X521.959 Y124.409 I0.708 J-7.969
G1 X571.449 Y120.011
G3 X586.642 Y135.101 I1.24 J13.945
G2 X587.008 Y135.532 I0.399 J0.033
G1 X587.406 Y135.565
X587.484 Y135.571 Z-1.516
X587.559 Y135.577 Z-1.494
X587.628 Y135.583 Z-1.457
X587.688 Y135.588 Z-1.407
X587.738 Y135.592 Z-1.346
X587.775 Y135.595 Z-1.277
X587.797 Y135.597 Z-1.202
X587.805 Z-1.124
G0 Z10
X454.959 Y85.312
Z7
G1 Z3.876 F450
X454.965 Y85.317 Z3.798 F1000
X454.982 Y85.332 Z3.723
X455.01 Y85.356 Z3.654
X455.048 Y85.388 Z3.593
X455.094 Y85.428 Z3.543
X455.146 Y85.473 Z3.506
X455.203 Y85.522 Z3.484
X455.262 Y85.573 Z3.476
X455.564 Y85.835
G2 X456.129 Y85.794 I0.261 J-0.303
G3 X457.316 Y84.673 Z3.419 I6.054 J5.23
G1 X477.104 Y69.51 Z2.548
G3 X480.772 Y67.95 Z2.408 I4.866 J6.35
G1 X506.889 Y63.995 Z1.485
G3 X513.524 Y64.121 Z1.252 I2.95 J19.478
G1 X534.207 Y68.06 Z0.517
G3 X535.145 Y68.299 Z0.483 I-1.495 J7.859
G1 X582.429 Y83.403 Z-1.25
G3 X587.962 Y90.301 Z-1.577 I-2.434 J7.62
G1 X589.005 Y101.8 Z-1.98
G3 X589.002 Y103.274 Z-2.032 I-7.967 J0.723
X583.934 Y109.98 I-7.964 J-0.751 F1500
G1 X565.475 Y117.148
G3 X558.344 Y118.485 I-7.133 J-18.363
G1 X483.834
G3 X476.703 Y117.148 I0.002 J-19.7
G1 X458.244 Y109.98
G3 X453.172 Y101.8 I2.896 J-7.458
G1 X454.215 Y90.301
G3 X457.316 Y84.673 I7.968 J0.723
G1 X477.104 Y69.51
G3 X480.772 Y67.95 I4.866 J6.35
G1 X506.889 Y63.995
G3 X513.524 Y64.121 I2.95 J19.478
G1 X534.207 Y68.06
G3 X535.145 Y68.299 I-1.495 J7.859
G1 X582.429 Y83.403
G3 X587.962 Y90.301 I-2.434 J7.62
G1 X589.005 Y101.8
G3 X589.002 Y103.274 I-7.967 J0.723
G2 X589.363 Y103.71 I0.398 J0.038
G1 X589.761 Y103.747
X589.839 Y103.755 Z-2.024
X589.914 Y103.762 Z-2.002
X589.982 Y103.768 Z-1.965
X590.043 Y103.774 Z-1.915
X590.092 Y103.779 Z-1.854
X590.129 Y103.782 Z-1.785
X590.152 Y103.784 Z-1.71
X590.159 Y103.785 Z-1.632
G0 Z10
X528.789 Y62.279
Z7
G1 Z3.368 F450
G19 G2 Y61.879 Z2.968 J-0.4 K0 F1000
G1 Y61.479
G17 G2 X528.389 Y61.079 I-0.4 J0
G1 X483.834 Z1.412
G3 X476.703 Y59.743 Z1.157 I0 J-19.7
G1 X458.244 Y52.575 Z0.466
G3 X453.172 Y44.395 Z0.105 I2.896 J-7.458
G1 X454.215 Y32.895 Z-0.298
G3 X457.316 Y27.268 Z-0.529 I7.968 J0.723
G1 X477.104 Y12.105 Z-1.4
G3 X480.772 Y10.545 Z-1.54 I4.866 J6.35
G1 X506.889 Y6.59 Z-2.463
G3 X509.094 Y6.382 Z-2.54 I2.95 J19.478
X513.524 Y6.716 I0.744 J19.686 F1500
G1 X534.207 Y10.655
G3 X535.145 Y10.893 I-1.494 J7.859
G1 X582.429 Y25.997
G3 X587.962 Y32.895 I-2.434 J7.621
G1 X589.005 Y44.395
G3 X583.934 Y52.575 I-7.967 J0.723
G1 X565.475 Y59.743
G3 X558.344 Y61.079 I-7.131 J-18.364
G1 X483.834
G3 X476.703 Y59.743 I0 J-19.7
G1 X458.244 Y52.575
G3 X453.172 Y44.395 I2.896 J-7.458
G1 X454.215 Y32.895
G3 X457.316 Y27.268 I7.968 J0.723
G1 X477.104 Y12.105
G3 X480.772 Y10.545 I4.866 J6.35
G1 X506.889 Y6.59
G3 X509.094 Y6.382 I2.95 J19.478
G2 X509.479 Y5.967 I-0.015 J-0.4
G1 X509.464 Y5.567
X509.461 Y5.489 Z-2.532
X509.458 Y5.414 Z-2.51
X509.456 Y5.345 Z-2.473
X509.453 Y5.285 Z-2.423
X509.451 Y5.235 Z-2.362
X509.45 Y5.198 Z-2.293
X509.449 Y5.175 Z-2.218
Y5.168 Z-2.14
G0 Z10
X160.373 Y298.95
Z7
G1 Z4.892 F450
G19 G2 Y298.55 Z4.492 J-0.4 K0 F1000
G1 Y298.15
G17 G2 X159.973 Y297.75 I-0.4 J0
G1 X14.343 Z-0.593
G3 X12.929 Y297.164 Z-0.648 I0 J-2
G1 X6.586 Y290.821 Z-0.962
G3 X6 Y289.42 Z-1.016 I1.414 J-1.414
G1 Y289.407 F1500
Y231.75
G3 X8 Y229.75 I2 J0
G1 X448
G3 X450 Y231.75 I0 J2
G1 Y289.407
G3 X449.414 Y290.821 I-2 J0
G1 X443.071 Y297.164
G3 X441.657 Y297.75 I-1.414 J-1.414
G1 X14.343
G3 X12.929 Y297.164 I0 J-2
G1 X6.586 Y290.821
G3 X6 Y289.42 I1.414 J-1.414
G2 X5.597 Y289.023 I-0.4 J0.003
G1 X5.197 Y289.025
X5.119 Y289.026 Z-1.008
X5.044 Z-0.986
X4.975 Y289.027 Z-0.949
X4.915 Z-0.899
X4.865 Y289.028 Z-0.838
X4.828 Z-0.769
X4.805 Z-0.694
X4.797 Z-0.616
G0 Z10
X160.374 Y228.6
Z7
G1 Z4.384 F450
G19 G2 Y228.2 Z3.984 J-0.4 K0 F1000
G1 Y227.8
G17 G2 X159.974 Y227.4 I-0.4 J0
G1 X14.343 Z-1.102
G3 X12.929 Y226.814 Z-1.156 I0 J-2
G1 X6.586 Y220.471 Z-1.47
G3 X6 Y219.072 Z-1.524 I1.414 J-1.414
G1 Y219.057 F1500
Y161.4
G3 X8 Y159.4 I2 J0
G1 X448
G3 X450 Y161.4 I0 J2
G1 Y200.374
Y219.057
G3 X449.414 Y220.471 I-2 J0
G1 X443.071 Y226.814
G3 X441.657 Y227.4 I-1.414 J-1.414
G1 X14.343
G3 X12.929 Y226.814 I0 J-2
G1 X6.586 Y220.471
G3 X6 Y219.072 I1.414 J-1.414
G2 X5.597 Y218.675 I-0.4 J0.003
G1 X5.197 Y218.678
X5.119 Z-1.516
X5.044 Y218.679 Z-1.494
X4.975 Z-1.457
X4.914 Y218.68 Z-1.407
X4.865 Z-1.346
X4.828 Z-1.277
X4.805 Y218.681 Z-1.202
X4.797 Z-1.124
G0 Z10
X162.995 Y158.25
Z7
G1 Z3.876 F450
G19 G2 Y157.85 Z3.476 J-0.4 K0 F1000
G1 Y157.45
G17 G2 X162.595 Y157.05 I-0.4 J0
G1 X8 Z-1.923
G3 X6 Y155.058 Z-2.032 I0 J-2
G1 Y155.05 F1500
Y84.7
G3 X8 Y82.7 I2 J0
G1 X448
G3 X450 Y84.7 I0 J2
G1 Y155.05
G3 X448 Y157.05 I-2 J0
G1 X8
G3 X6 Y155.058 I0 J-2
G2 X5.598 Y154.66 I-0.4 J0.002
G1 X5.198 Y154.662
X5.12 Z-2.024
X5.045 Z-2.002
X4.976 Z-1.965
X4.916 Y154.663 Z-1.915
X4.866 Z-1.854
X4.829 Z-1.785
X4.806 Z-1.71
X4.798 Z-1.632
G0 Z10
X139.391 Y4.8
Z7
G1 Z3.368 F450
G19 G3 Y5.2 Z2.968 J0.4 K0 F1000
G1 Y5.6
G17 G2 X139.791 Y6 I0.4 J0
G1 X297.519 Z-2.54
X448 F1500
G3 X450 Y8 I0 J2
G1 Y78.35
G3 X448 Y80.35 I-2 J0
G1 X8
G3 X6 Y78.35 I0 J-2
G1 Y8
G3 X8 Y6 I2 J0
G1 X297.519
G2 X297.919 Y5.6 I0 J-0.4
G1 Y5.2
G19 G2 Y4.8 Z-2.14 J0 K0.4
G0 Z10
X456.432 Y344.018
Z7
G1 Z5.4 F450
X456.438 Y344.013 Z5.322 F1000
X456.454 Y343.997 Z5.247
X456.481 Y343.972 Z5.178
X456.517 Y343.937 Z5.117
X456.562 Y343.896 Z5.067
X456.612 Y343.848 Z5.03
X456.666 Y343.797 Z5.008
X456.723 Y343.743 Z5
X457.014 Y343.469
G17 G2 X457.03 Y342.903 I-0.275 J-0.291
G1 X456.828 Y342.689 Z4.99
G3 X468.246 Y319.131 Z3.808 I10.178 J-9.613
G1 X517.736 Y323.529 Z2.073
G2 X519.152 Y323.529 Z2.024 I0.708 J-7.968
G1 X568.642 Y319.131 Z0.289
G3 X583.875 Y332.661 Z-0.508 I1.239 J13.945
X580.059 Y342.689 I-13.994 J0.415 F1500
G1 X543.987 Y380.882
G3 X538.898 Y383.076 I-5.089 J-4.806
G1 X533.143
G3 X503.744 Y383.076 I-14.699 J-27.86
G1 X497.99
G3 X492.901 Y380.882 I0 J-7
G1 X456.828 Y342.689
G3 X468.246 Y319.131 I10.178 J-9.613
G1 X517.736 Y323.529
G2 X519.152 Y323.529 I0.708 J-7.968
G1 X568.642 Y319.131
G3 X583.875 Y332.661 I1.239 J13.945
G2 X584.287 Y333.049 I0.4 J-0.012
G1 X584.687 Y333.037
X584.765 Y333.035 Z-0.5
X584.84 Y333.033 Z-0.478
X584.909 Y333.03 Z-0.441
X584.969 Y333.029 Z-0.391
X585.019 Y333.027 Z-0.33
X585.056 Y333.026 Z-0.261
X585.079 Y333.025 Z-0.186
X585.086 Z-0.108
G0 Z10
X455.784 Y277.043
Z7
G1 Z4.892 F450
X455.789 Y277.038 Z4.814 F1000
X455.807 Y277.023 Z4.739
X455.835 Y276.999 Z4.67
X455.872 Y276.966 Z4.609
X455.918 Y276.926 Z4.559
X455.97 Y276.881 Z4.522
X456.027 Y276.832 Z4.5
X456.086 Y276.781 Z4.492
X456.388 Y276.519
G2 X456.428 Y275.955 I-0.262 J-0.302
G3 X468.246 Y252.838 Z3.331 I10.578 J-9.172
G1 X517.736 Y257.236 Z1.596
G2 X519.152 Y257.236 Z1.547 I0.708 J-7.969
G1 X568.642 Y252.838 Z-0.188
G3 X583.873 Y267.258 Z-1.016 I1.239 J13.945
X580.059 Y276.396 I-13.992 J-0.475 F1500
G1 X543.987 Y314.589
G3 X538.898 Y316.783 I-5.089 J-4.806
G1 X533.143
G3 X503.744 Y316.783 I-14.699 J-27.86
G1 X497.99
G3 X492.901 Y314.589 I0 J-7
G1 X456.828 Y276.396
G3 X468.246 Y252.838 I10.178 J-9.613
G1 X517.736 Y257.236
G2 X519.152 Y257.236 I0.708 J-7.969
G1 X568.642 Y252.838
G3 X583.873 Y267.258 I1.239 J13.945
G2 X584.259 Y267.671 I0.4 J0.014
G1 X584.659 Y267.685
X584.737 Y267.687 Z-1.008
X584.812 Y267.69 Z-0.986
X584.881 Y267.692 Z-0.949
X584.942 Y267.694 Z-0.899
X584.992 Y267.696 Z-0.838
X585.028 Y267.697 Z-0.769
X585.051 Y267.698 Z-0.694
X585.059 Z-0.616
G0 Z10
X455.747 Y210.709
Z7
G1 Z4.384 F450
X455.753 Y210.704 Z4.306 F1000
X455.77 Y210.689 Z4.231
X455.798 Y210.665 Z4.162
X455.836 Y210.633 Z4.101
X455.882 Y210.593 Z4.051
X455.935 Y210.548 Z4.014
X455.991 Y210.499 Z3.992
X456.051 Y210.448 Z3.984
X456.354 Y210.187
G2 X456.396 Y209.623 I-0.261 J-0.303
G3 X468.246 Y186.545 Z2.825 I10.61 J-9.133
G1 X517.736 Y190.943 Z1.09
G2 X519.152 Y190.943 Z1.041 I0.708 J-7.969
G1 X568.642 Y186.545 Z-0.694
G3 X583.871 Y201.016 Z-1.524 I1.239 J13.945
X580.059 Y210.102 I-13.99 J-0.526 F1500
G1 X543.987 Y248.296
G3 X538.898 Y250.49 I-5.089 J-4.806
G1 X533.143
G3 X503.744 Y250.49 I-14.699 J-27.86
G1 X497.99
G3 X492.901 Y248.296 I0 J-7
G1 X456.828 Y210.102
G3 X468.246 Y186.545 I10.178 J-9.613
G1 X499.655 Y189.336
X517.736 Y190.943
G2 X519.152 Y190.943 I0.708 J-7.969
G1 X568.642 Y186.545
G3 X583.871 Y201.016 I1.239 J13.945
G2 X584.255 Y201.431 I0.4 J0.015
G1 X584.655 Y201.446
X584.733 Y201.449 Z-1.516
X584.808 Y201.452 Z-1.494
X584.877 Y201.454 Z-1.457
X584.938 Y201.457 Z-1.407
X584.988 Y201.459 Z-1.346
X585.025 Y201.46 Z-1.277
X585.047 Y201.461 Z-1.202
X585.055 Z-1.124
G0 Z10
X458.113 Y143.666
Z7
G1 Z3.876 F450
X458.119 Y143.661 Z3.798 F1000
X458.136 Y143.647 Z3.723
X458.166 Y143.624 Z3.654
X458.205 Y143.594 Z3.593
X458.252 Y143.556 Z3.543
X458.307 Y143.513 Z3.506
X458.366 Y143.467 Z3.484
X458.427 Y143.419 Z3.476
X458.741 Y143.172
G2 X458.809 Y142.61 I-0.247 J-0.314
G3 X471.053 Y120.011 Z2.339 I11.005 J-8.654
G1 X520.543 Y124.409 Z0.604
G2 X521.959 Y124.409 Z0.554 I0.708 J-7.969
G1 X571.449 Y120.011 Z-1.181
G3 X586.642 Y135.101 Z-2.032 I1.24 J13.945
X582.867 Y143.568 I-13.953 J-1.145 F1500
G1 X546.794 Y181.762
G3 X541.705 Y183.956 I-5.089 J-4.806
G1 X535.95
G3 X506.552 Y183.956 I-14.699 J-27.86
G1 X500.797
G3 X495.708 Y181.762 I0 J-7
G1 X459.635 Y143.568
G3 X471.053 Y120.011 I10.178 J-9.613
G1 X520.543 Y124.409
G2 X521.959 Y124.409 I0.708 J-7.969
G1 X571.449 Y120.011
G3 X586.642 Y135.101 I1.24 J13.945
G2 X587.008 Y135.532 I0.399 J0.033
G1 X587.406 Y135.565
X587.484 Y135.571 Z-2.024
X587.559 Y135.577 Z-2.002
X587.628 Y135.583 Z-1.965
X587.688 Y135.588 Z-1.915
X587.738 Y135.592 Z-1.854
X587.775 Y135.595 Z-1.785
X587.797 Y135.597 Z-1.71
X587.805 Z-1.632
G0 Z10
X454.959 Y85.312
Z7
G1 Z3.368 F450
X454.965 Y85.317 Z3.29 F1000
X454.982 Y85.332 Z3.215
X455.01 Y85.356 Z3.146
X455.048 Y85.388 Z3.085
X455.094 Y85.428 Z3.035
X455.146 Y85.473 Z2.998
X455.203 Y85.522 Z2.976
X455.262 Y85.573 Z2.968
X455.564 Y85.835
G2 X456.129 Y85.794 I0.261 J-0.303
G3 X457.316 Y84.673 Z2.911 I6.054 J5.23
G1 X477.104 Y69.51 Z2.04
G3 X480.772 Y67.95 Z1.9 I4.866 J6.35
G1 X506.889 Y63.995 Z0.977
G3 X513.524 Y64.121 Z0.744 I2.95 J19.478
G1 X534.207 Y68.06 Z0.009
G3 X535.145 Y68.299 Z-0.025 I-1.495 J7.859
G1 X582.429 Y83.403 Z-1.758
G3 X587.962 Y90.301 Z-2.085 I-2.434 J7.62
G1 X589.005 Y101.8 Z-2.488
G3 X589.002 Y103.274 Z-2.54 I-7.967 J0.723
X583.934 Y109.98 I-7.964 J-0.751 F1500
G1 X565.475 Y117.148
G3 X558.344 Y118.485 I-7.133 J-18.363
G1 X483.834
G3 X476.703 Y117.148 I0.002 J-19.7
G1 X458.244 Y109.98
G3 X453.172 Y101.8 I2.896 J-7.458
G1 X454.215 Y90.301
G3 X457.316 Y84.673 I7.968 J0.723
G1 X477.104 Y69.51
G3 X480.772 Y67.95 I4.866 J6.35
G1 X506.889 Y63.995
G3 X513.524 Y64.121 I2.95 J19.478
G1 X534.207 Y68.06
G3 X535.145 Y68.299 I-1.495 J7.859
G1 X582.429 Y83.403
G3 X587.962 Y90.301 I-2.434 J7.62
G1 X589.005 Y101.8
G3 X589.002 Y103.274 I-7.967 J0.723
G2 X589.363 Y103.71 I0.398 J0.038
G1 X589.761 Y103.747
X589.839 Y103.755 Z-2.532
X589.914 Y103.762 Z-2.51
X589.982 Y103.768 Z-2.473
X590.043 Y103.774 Z-2.423
X590.092 Y103.779 Z-2.362
X590.129 Y103.782 Z-2.293
X590.152 Y103.784 Z-2.218
X590.159 Y103.785 Z-2.14
G0 Z10
X527.415 Y62.279
Z7
G1 Z2.86 F450
G19 G2 Y61.879 Z2.46 J-0.4 K0 F1000
G1 Y61.479
G17 G2 X527.015 Y61.079 I-0.4 J0
G1 X483.834 Z0.952
G3 X476.703 Y59.743 Z0.697 I0 J-19.7
G1 X458.244 Y52.575 Z0.006
G3 X453.172 Y44.395 Z-0.355 I2.896 J-7.458
G1 X454.215 Y32.895 Z-0.758
G3 X457.316 Y27.268 Z-0.989 I7.968 J0.723
G1 X477.104 Y12.105 Z-1.86
G3 X480.772 Y10.545 Z-2 I4.866 J6.35
G1 X506.889 Y6.59 Z-2.923
G3 X509.094 Y6.382 Z-3 I2.95 J19.478
X513.524 Y6.716 I0.744 J19.686 F1500
G1 X534.207 Y10.655
G3 X535.145 Y10.893 I-1.494 J7.859
G1 X582.429 Y25.997
G3 X587.962 Y32.895 I-2.434 J7.621
G1 X589.005 Y44.395
G3 X583.934 Y52.575 I-7.967 J0.723
G1 X565.475 Y59.743
G3 X558.344 Y61.079 I-7.131 J-18.364
G1 X483.834
G3 X476.703 Y59.743 I0 J-19.7
G1 X458.244 Y52.575
G3 X453.172 Y44.395 I2.896 J-7.458
G1 X454.215 Y32.895
G3 X457.316 Y27.268 I7.968 J0.723
G1 X477.104 Y12.105
G3 X480.772 Y10.545 I4.866 J6.35
G1 X506.889 Y6.59
G3 X509.094 Y6.382 I2.95 J19.478
G2 X509.479 Y5.967 I-0.015 J-0.4
G1 X509.464 Y5.567
X509.461 Y5.489 Z-2.992
X509.458 Y5.414 Z-2.97
X509.456 Y5.345 Z-2.933
X509.453 Y5.285 Z-2.883
X509.451 Y5.235 Z-2.822
X509.45 Y5.198 Z-2.753
X509.449 Y5.175 Z-2.678
Y5.168 Z-2.6
G0 Z10
X102.688 Y439.65
Z7
G1 Z5.4 F450
G19 G2 Y439.25 Z5 J-0.4 K0 F1000
G1 Y438.85
G17 G2 X102.288 Y438.45 I-0.4 J0
G1 X14.343 Z1.929
G3 X12.929 Y437.864 Z1.874 I0 J-2
G1 X6.586 Y431.521 Z1.561
G3 X6 Y430.107 Z1.506 I1.414 J-1.414
G1 Y372.45 Z-0.507
Y372.436 Z-0.508
G3 X8 Y370.45 I2 J0.014 F1500
G1 X448
G3 X450 Y372.45 I0 J2
G1 Y430.107
G3 X449.414 Y431.521 I-2 J0
G1 X443.071 Y437.864
G3 X441.657 Y438.45 I-1.414 J-1.414
G1 X14.343
G3 X12.929 Y437.864 I0 J-2
G1 X6.586 Y431.521
G3 X6 Y430.107 I1.414 J-1.414
G1 Y372.45
Y372.436
G2 X5.603 Y372.033 I-0.4 J-0.003
G1 X5.203 Y372.03
X5.125 Y372.029 Z-0.5
X5.05 Z-0.478
X4.981 Y372.028 Z-0.441
X4.92 Z-0.391
X4.87 Z-0.33
X4.833 Y372.027 Z-0.261
X4.811 Z-0.186
X4.803 Z-0.108
G0 Z10
X104.516 Y369.3
Z7
G1 Z4.892 F450
G19 G2 Y368.9 Z4.492 J-0.4 K0 F1000
G1 Y368.5
G17 G2 X104.116 Y368.1 I-0.4 J0
G1 X14.343 Z1.357
G3 X12.929 Y367.514 Z1.302 I0 J-2
G1 X6.586 Y361.171 Z0.989
G3 X6 Y359.757 Z0.934 I1.414 J-1.414
G1 Y303.913 Z-1.016
Y302.1 F1500
G3 X8 Y300.1 I2 J0
G1 X448
G3 X450 Y302.1 I0 J2
G1 Y359.757
G3 X449.414 Y361.171 I-2 J0
G1 X443.071 Y367.514
G3 X441.657 Y368.1 I-1.414 J-1.414
G1 X14.343
G3 X12.929 Y367.514 I0 J-2
G1 X6.586 Y361.171
G3 X6 Y359.757 I1.414 J-1.414
G1 Y303.913
G2 X5.6 Y303.513 I-0.4 J0
G1 X5.2
G18 G3 X4.8 Z-0.616 I0 K0.4
G0 Z10
X160.373 Y298.95
Z7
G1 Z4.384 F450
G19 G2 Y298.55 Z3.984 J-0.4 K0 F1000
G1 Y298.15
G17 G2 X159.973 Y297.75 I-0.4 J0
G1 X14.343 Z-1.101
G3 X12.929 Y297.164 Z-1.156 I0 J-2
G1 X6.586 Y290.821 Z-1.47
G3 X6 Y289.42 Z-1.524 I1.414 J-1.414
G1 Y289.407 F1500
Y231.75
G3 X8 Y229.75 I2 J0
G1 X448
G3 X450 Y231.75 I0 J2
G1 Y289.407
G3 X449.414 Y290.821 I-2 J0
G1 X443.071 Y297.164
G3 X441.657 Y297.75 I-1.414 J-1.414
G1 X14.343
G3 X12.929 Y297.164 I0 J-2
G1 X6.586 Y290.821
G3 X6 Y289.42 I1.414 J-1.414
G2 X5.597 Y289.023 I-0.4 J0.003
G1 X5.197 Y289.025
X5.119 Y289.026 Z-1.516
X5.044 Z-1.494
X4.975 Y289.027 Z-1.457
X4.915 Z-1.407
X4.865 Y289.028 Z-1.346
X4.828 Z-1.277
X4.805 Z-1.202
X4.797 Z-1.124
G0 Z10
X160.374 Y228.6
Z7
G1 Z3.876 F450
G19 G2 Y228.2 Z3.476 J-0.4 K0 F1000
G1 Y227.8
G17 G2 X159.974 Y227.4 I-0.4 J0
G1 X14.343 Z-1.61
G3 X12.929 Y226.814 Z-1.664 I0 J-2
G1 X6.586 Y220.471 Z-1.978
G3 X6 Y219.072 Z-2.032 I1.414 J-1.414
G1 Y219.057 F1500
Y161.4
G3 X8 Y159.4 I2 J0
G1 X448
G3 X450 Y161.4 I0 J2
G1 Y200.374
Y219.057
G3 X449.414 Y220.471 I-2 J0
G1 X443.071 Y226.814
G3 X441.657 Y227.4 I-1.414 J-1.414
G1 X14.343
G3 X12.929 Y226.814 I0 J-2
G1 X6.586 Y220.471
G3 X6 Y219.072 I1.414 J-1.414
G2 X5.597 Y218.675 I-0.4 J0.003
G1 X5.197 Y218.678
X5.119 Z-2.024
X5.044 Y218.679 Z-2.002
X4.975 Z-1.965
X4.914 Y218.68 Z-1.915
X4.865 Z-1.854
X4.828 Z-1.785
X4.805 Y218.681 Z-1.71
X4.797 Z-1.632
G0 Z10
X162.995 Y158.25
Z7
G1 Z3.368 F450
G19 G2 Y157.85 Z2.968 J-0.4 K0 F1000
G1 Y157.45
G17 G2 X162.595 Y157.05 I-0.4 J0
G1 X8 Z-2.431
G3 X6 Y155.058 Z-2.54 I0 J-2
G1 Y155.05 F1500
Y84.7
G3 X8 Y82.7 I2 J0
G1 X448
G3 X450 Y84.7 I0 J2
G1 Y155.05
G3 X448 Y157.05 I-2 J0
G1 X8
G3 X6 Y155.058 I0 J-2
G2 X5.598 Y154.66 I-0.4 J0.002
G1 X5.198 Y154.662
X5.12 Z-2.532
X5.045 Z-2.51
X4.976 Z-2.473
X4.916 Y154.663 Z-2.423
X4.866 Z-2.362
X4.829 Z-2.293
X4.806 Z-2.218
X4.798 Z-2.14
G0 Z10
X140.765 Y4.8
Z7
G1 Z2.86 F450
G19 G3 Y5.2 Z2.46 J0.4 K0 F1000
G1 Y5.6
G17 G2 X141.165 Y6 I0.4 J0
G1 X297.519 Z-3
X448 F1500
G3 X450 Y8 I0 J2
G1 Y78.35
G3 X448 Y80.35 I-2 J0
G1 X8
G3 X6 Y78.35 I0 J-2
G1 Y8
G3 X8 Y6 I2 J0
G1 X297.519
G2 X297.919 Y5.6 I0 J-0.4
G1 Y5.2
G19 G2 Y4.8 Z-2.6 J0 K0.4
G0 Z10
X456.506 Y410.389
Z7
G1 Z5.4 F450
X456.511 Y410.384 Z5.322 F1000
X456.528 Y410.368 Z5.247
X456.555 Y410.343 Z5.178
X456.591 Y410.308 Z5.117
X456.635 Y410.267 Z5.067
X456.685 Y410.219 Z5.03
X456.74 Y410.168 Z5.008
X456.797 Y410.114 Z5
X457.087 Y409.84
G17 G2 X457.104 Y409.274 I-0.275 J-0.291
G1 X456.828 Y408.982 Z4.986
G3 X468.246 Y385.425 Z3.805 I10.178 J-9.613
G1 X517.736 Y389.823 Z2.07
G2 X519.152 Y389.823 Z2.02 I0.708 J-7.969
G1 X568.642 Y385.425 Z0.285
G3 X583.871 Y398.85 Z-0.508 I1.239 J13.945
X580.059 Y408.982 I-13.99 J0.52 F1500
G1 X543.987 Y447.176
G3 X538.898 Y449.37 I-5.089 J-4.806
G1 X533.143
G3 X503.744 Y449.37 I-14.699 J-27.86
G1 X497.99
G3 X492.901 Y447.176 I0 J-7
G1 X456.828 Y408.982
G3 X468.246 Y385.425 I10.178 J-9.613
G1 X517.736 Y389.823
G2 X519.152 Y389.823 I0.708 J-7.969
G1 X568.642 Y385.425
G3 X583.871 Y398.85 I1.239 J13.945
G2 X584.286 Y399.235 I0.4 J-0.015
G1 X584.685 Y399.22
X584.763 Y399.217 Z-0.5
X584.838 Y399.214 Z-0.478
X584.907 Y399.212 Z-0.441
X584.968 Y399.209 Z-0.391
X585.018 Y399.207 Z-0.33
X585.055 Y399.206 Z-0.261
X585.077 Y399.205 Z-0.186
X585.085 Z-0.108
G0 Z10
X456.432 Y344.018
Z7
G1 Z4.892 F450
X456.438 Y344.013 Z4.814 F1000
X456.454 Y343.997 Z4.739
X456.481 Y343.972 Z4.67
X456.517 Y343.937 Z4.609
X456.562 Y343.896 Z4.559
X456.612 Y343.848 Z4.522
X456.666 Y343.797 Z4.5
X456.723 Y343.743 Z4.492
X457.014 Y343.469
G2 X457.03 Y342.903 I-0.275 J-0.291
G1 X456.828 Y342.689 Z4.482
G3 X468.246 Y319.131 Z3.3 I10.178 J-9.613
G1 X517.736 Y323.529 Z1.565
G2 X519.152 Y323.529 Z1.516 I0.708 J-7.968
G1 X568.642 Y319.131 Z-0.219
G3 X583.875 Y332.661 Z-1.016 I1.239 J13.945
X580.059 Y342.689 I-13.994 J0.415 F1500
G1 X543.987 Y380.882
G3 X538.898 Y383.076 I-5.089 J-4.806
G1 X533.143
G3 X503.744 Y383.076 I-14.699 J-27.86
G1 X497.99
G3 X492.901 Y380.882 I0 J-7
G1 X456.828 Y342.689
G3 X468.246 Y319.131 I10.178 J-9.613
G1 X517.736 Y323.529
G2 X519.152 Y323.529 I0.708 J-7.968
G1 X568.642 Y319.131
G3 X583.875 Y332.661 I1.239 J13.945
G2 X584.287 Y333.049 I0.4 J-0.012
G1 X584.687 Y333.037
X584.765 Y333.035 Z-1.008
X584.84 Y333.033 Z-0.986
X584.909 Y333.03 Z-0.949
X584.969 Y333.029 Z-0.899
X585.019 Y333.027 Z-0.838
X585.056 Y333.026 Z-0.769
X585.079 Y333.025 Z-0.694
X585.086 Z-0.616
G0 Z10
X455.784 Y277.043
Z7
G1 Z4.384 F450
X455.789 Y277.038 Z4.306 F1000
X455.807 Y277.023 Z4.231
X455.835 Y276.999 Z4.162
X455.872 Y276.966 Z4.101
X455.918 Y276.926 Z4.051
X455.97 Y276.881 Z4.014
X456.027 Y276.832 Z3.992
X456.086 Y276.781 Z3.984
X456.388 Y276.519
G2 X456.428 Y275.955 I-0.262 J-0.302
G3 X468.246 Y252.838 Z2.823 I10.578 J-9.172
G1 X517.736 Y257.236 Z1.088
G2 X519.152 Y257.236 Z1.039 I0.708 J-7.969
G1 X568.642 Y252.838 Z-0.696
G3 X583.873 Y267.258 Z-1.524 I1.239 J13.945
X580.059 Y276.396 I-13.992 J-0.475 F1500
G1 X543.987 Y314.589
G3 X538.898 Y316.783 I-5.089 J-4.806
G1 X533.143
G3 X503.744 Y316.783 I-14.699 J-27.86
G1 X497.99
G3 X492.901 Y314.589 I0 J-7
G1 X456.828 Y276.396
G3 X468.246 Y252.838 I10.178 J-9.613
G1 X517.736 Y257.236
G2 X519.152 Y257.236 I0.708 J-7.969
G1 X568.642 Y252.838
G3 X583.873 Y267.258 I1.239 J13.945
G2 X584.259 Y267.671 I0.4 J0.014
G1 X584.659 Y267.685
X584.737 Y267.687 Z-1.516
X584.812 Y267.69 Z-1.494
X584.881 Y267.692 Z-1.457
X584.942 Y267.694 Z-1.407
X584.992 Y267.696 Z-1.346
X585.028 Y267.697 Z-1.277
X585.051 Y267.698 Z-1.202
X585.059 Z-1.124
G0 Z10
X455.747 Y210.709
Z7
G1 Z3.876 F450
X455.753 Y210.704 Z3.798 F1000
X455.77 Y210.689 Z3.723
X455.798 Y210.665 Z3.654
X455.836 Y210.633 Z3.593
X455.882 Y210.593 Z3.543
X455.935 Y210.548 Z3.506
X455.991 Y210.499 Z3.484
X456.051 Y210.448 Z3.476
X456.354 Y210.187
G2 X456.396 Y209.623 I-0.261 J-0.303
G3 X468.246 Y186.545 Z2.317 I10.61 J-9.133
G1 X517.736 Y190.943 Z0.582
G2 X519.152 Y190.943 Z0.533 I0.708 J-7.969
G1 X568.642 Y186.545 Z-1.202
G3 X583.871 Y201.016 Z-2.032 I1.239 J13.945
X580.059 Y210.102 I-13.99 J-0.526 F1500
G1 X543.987 Y248.296
G3 X538.898 Y250.49 I-5.089 J-4.806
G1 X533.143
G3 X503.744 Y250.49 I-14.699 J-27.86
G1 X497.99
G3 X492.901 Y248.296 I0 J-7
G1 X456.828 Y210.102
G3 X468.246 Y186.545 I10.178 J-9.613
G1 X499.655 Y189.336
X517.736 Y190.943
G2 X519.152 Y190.943 I0.708 J-7.969
G1 X568.642 Y186.545
G3 X583.871 Y201.016 I1.239 J13.945
G2 X584.255 Y201.431 I0.4 J0.015
G1 X584.655 Y201.446
X584.733 Y201.449 Z-2.024
X584.808 Y201.452 Z-2.002
X584.877 Y201.454 Z-1.965
X584.938 Y201.457 Z-1.915
X584.988 Y201.459 Z-1.854
X585.025 Y201.46 Z-1.785
X585.047 Y201.461 Z-1.71
X585.055 Z-1.632
G0 Z10
X458.113 Y143.666
Z7
G1 Z3.368 F450
X458.119 Y143.661 Z3.29 F1000
X458.136 Y143.647 Z3.215
X458.166 Y143.624 Z3.146
X458.205 Y143.594 Z3.085
X458.252 Y143.556 Z3.035
X458.307 Y143.513 Z2.998
X458.366 Y143.467 Z2.976
X458.427 Y143.419 Z2.968
X458.741 Y143.172
G2 X458.809 Y142.61 I-0.247 J-0.314
G3 X471.053 Y120.011 Z1.831 I11.005 J-8.654
G1 X520.543 Y124.409 Z0.096
G2 X521.959 Y124.409 Z0.046 I0.708 J-7.969
G1 X571.449 Y120.011 Z-1.689
G3 X586.642 Y135.101 Z-2.54 I1.24 J13.945
X582.867 Y143.568 I-13.953 J-1.145 F1500
G1 X546.794 Y181.762
G3 X541.705 Y183.956 I-5.089 J-4.806
G1 X535.95
G3 X506.552 Y183.956 I-14.699 J-27.86
G1 X500.797
G3 X495.708 Y181.762 I0 J-7
G1 X459.635 Y143.568
G3 X471.053 Y120.011 I10.178 J-9.613
G1 X520.543 Y124.409
G2 X521.959 Y124.409 I0.708 J-7.969
G1 X571.449 Y120.011
G3 X586.642 Y135.101 I1.24 J13.945
G2 X587.008 Y135.532 I0.399 J0.033
G1 X587.406 Y135.565
X587.484 Y135.571 Z-2.532
X587.559 Y135.577 Z-2.51
X587.628 Y135.583 Z-2.473
X587.688 Y135.588 Z-2.423
X587.738 Y135.592 Z-2.362
X587.775 Y135.595 Z-2.293
X587.797 Y135.597 Z-2.218
X587.805 Z-2.14
G0 Z10
X456.042 Y84.161
Z7
G1 Z2.86 F450
X456.047 Y84.167 Z2.782 F1000
X456.061 Y84.185 Z2.707
X456.085 Y84.213 Z2.638
X456.116 Y84.252 Z2.577
X456.155 Y84.298 Z2.527
X456.198 Y84.352 Z2.49
X456.246 Y84.41 Z2.468
X456.295 Y84.47 Z2.46
X456.549 Y84.78
G2 X457.112 Y84.836 I0.309 J-0.254
G3 X457.316 Y84.673 Z2.451 I5.071 J6.188
G1 X477.104 Y69.51 Z1.58
G3 X480.772 Y67.95 Z1.44 I4.866 J6.35
G1 X506.889 Y63.995 Z0.517
G3 X513.524 Y64.121 Z0.284 I2.95 J19.478
G1 X534.207 Y68.06 Z-0.451
G3 X535.145 Y68.299 Z-0.485 I-1.495 J7.859
G1 X582.429 Y83.403 Z-2.218
G3 X587.962 Y90.301 Z-2.545 I-2.434 J7.62
G1 X589.005 Y101.8 Z-2.948
G3 X589.002 Y103.274 Z-3 I-7.967 J0.723
X583.934 Y109.98 I-7.964 J-0.751 F1500
G1 X565.475 Y117.148
G3 X558.344 Y118.485 I-7.133 J-18.363
G1 X483.834
G3 X476.703 Y117.148 I0.002 J-19.7
G1 X458.244 Y109.98
G3 X453.172 Y101.8 I2.896 J-7.458
G1 X454.215 Y90.301
G3 X457.316 Y84.673 I7.968 J0.723
G1 X477.104 Y69.51
G3 X480.772 Y67.95 I4.866 J6.35
G1 X506.889 Y63.995
G3 X513.524 Y64.121 I2.95 J19.478
G1 X534.207 Y68.06
G3 X535.145 Y68.299 I-1.495 J7.859
G1 X582.429 Y83.403
G3 X587.962 Y90.301 I-2.434 J7.62
G1 X589.005 Y101.8
G3 X589.002 Y103.274 I-7.967 J0.723
G2 X589.363 Y103.71 I0.398 J0.038
G1 X589.761 Y103.747
X589.839 Y103.755 Z-2.992
X589.914 Y103.762 Z-2.97
X589.982 Y103.768 Z-2.933
X590.043 Y103.774 Z-2.883
X590.092 Y103.779 Z-2.822
X590.129 Y103.782 Z-2.753
X590.152 Y103.784 Z-2.678
X590.159 Y103.785 Z-2.6
G0 Z10
X459.859 Y478.976
Z7
G1 Z5.4 F450
X459.866 Y478.98 Z5.322 F1000
X459.887 Y478.99 Z5.247
X459.92 Y479.006 Z5.178
X459.964 Y479.028 Z5.117
X460.019 Y479.055 Z5.067
X460.081 Y479.085 Z5.03
X460.148 Y479.119 Z5.008
X460.218 Y479.153 Z5
X460.577 Y479.33
G2 X461.113 Y479.147 I0.177 J-0.359
G3 X462.764 Y476.25 Z4.883 I24.674 J12.142
G1 X477.415 Y453.82 Z3.948
G3 X494.158 Y453.82 Z3.255 I8.372 J5.469
G1 X504.736 Y470.013 Z2.58
X504.737 Y470.014
G2 X505.167 Y470.613 Z2.554 I6.705 J-4.365
X510.815 Y470.012 Z2.351 I2.033 J-7.737
G3 X522.417 Y477.588 Z1.766 I3.614 J7.137
G2 X526.031 Y484.725 Z1.473 I7.988 J0.44
G1 X533.927 Y489.881 Z1.144
G2 X541.915 Y490.321 Z0.851 I4.375 J-6.698
G3 X553.436 Y498.678 Z0.239 I3.615 J7.136
G2 X555.068 Y504.86 Z0.009 I7.906 J1.219
G3 X559.05 Y518.739 Z-0.508 I-14.902 J11.786
X534.656 Y534.83 I-18.884 J-2.092 F1500
G1 X514.043 Y528.585
G2 X506.253 Y530.404 I-2.32 J7.656
G3 X492.991 Y526.387 I-5.471 J-5.837
G2 X487.52 Y520.549 I-7.791 J1.819
G1 X477.813 Y517.608
G3 X462.764 Y476.25 I7.974 J-26.319
G1 X477.415 Y453.82
G3 X494.158 Y453.82 I8.372 J5.469
G1 X504.736 Y470.013
X504.737 Y470.014
G2 X505.167 Y470.613 I6.705 J-4.365
X510.815 Y470.012 I2.033 J-7.737
G3 X522.417 Y477.588 I3.614 J7.137
G2 X526.031 Y484.725 I7.988 J0.44
G1 X533.927 Y489.881
G2 X541.915 Y490.321 I4.375 J-6.698
G3 X553.436 Y498.678 I3.615 J7.136
G2 X555.068 Y504.86 I7.906 J1.219
G3 X559.05 Y518.739 I-14.902 J11.786
G2 X559.403 Y519.18 I0.398 J0.044
G1 X559.801 Y519.224
X559.878 Y519.233 Z-0.5
X559.953 Y519.241 Z-0.478
X560.022 Y519.249 Z-0.441
X560.082 Y519.256 Z-0.391
X560.131 Y519.261 Z-0.33
X560.168 Y519.265 Z-0.261
X560.191 Y519.268 Z-0.186
X560.198 Z-0.108
G0 Z10
X495.445 Y538.074
Z7
G1 Z5.4 F450
X495.44 Y538.079 Z5.322 F1000
X495.424 Y538.095 Z5.247
X495.397 Y538.121 Z5.178
X495.362 Y538.156 Z5.117
X495.319 Y538.199 Z5.067
X495.27 Y538.248 Z5.03
X495.217 Y538.301 Z5.008
X495.162 Y538.356 Z5
X494.879 Y538.639
G2 X494.879 Y539.205 I0.283 J0.283
G1 X501.674 Y545.999 Z4.664
G2 X507.46 Y548.341 Z4.441 I5.657 J-5.657
G3 X507.942 Y548.341 Z4.424 I0.241 J14.998
G2 X513.727 Y545.999 Z4.2 I0.128 J-7.999
G1 X521.044 Y538.683 Z3.838
G3 X532.358 Y538.682 Z3.4 I5.657 J5.656
X532.357 Y549.996 Z2.961 I-5.657 J5.657
G1 X525.041 Y557.313 Z2.599
G2 X522.699 Y563.098 Z2.376 I5.656 J5.657
G3 X522.699 Y563.58 Z2.359 I-14.998 J0.241
G2 X525.041 Y569.366 Z2.135 I7.999 J0.128
G1 X532.357 Y576.683 Z1.774
G3 X532.358 Y587.997 Z1.335 I-5.656 J5.657
X521.044 Y587.996 Z0.896 I-5.657 J-5.657
G1 X513.727 Y580.679 Z0.534
G2 X507.942 Y578.338 Z0.311 I-5.656 J5.657
G3 X507.46 Y578.338 Z0.294 I-0.241 J-14.999
G2 X501.674 Y580.679 Z0.07 I-0.13 J7.999
G1 X494.357 Y587.996 Z-0.291
G3 X488.783 Y590.338 Z-0.508 I-5.656 J-5.657
X483.044 Y576.683 I-0.082 J-7.999 F1500
G1 X490.361 Y569.366
G2 X492.702 Y563.58 I-5.657 J-5.656
G3 X492.702 Y563.098 I14.999 J-0.241
G2 X490.361 Y557.313 I-7.999 J-0.129
G1 X483.044 Y549.996
G3 X483.043 Y538.682 I5.656 J-5.657
X494.357 Y538.683 I5.657 J5.657
G1 X501.674 Y545.999
G2 X507.46 Y548.341 I5.657 J-5.657
G3 X507.942 Y548.341 I0.241 J14.998
G2 X513.727 Y545.999 I0.128 J-7.999
G1 X521.044 Y538.683
G3 X532.358 Y538.682 I5.657 J5.656
X532.357 Y549.996 I-5.657 J5.657
G1 X525.041 Y557.313
G2 X522.699 Y563.098 I5.656 J5.657
G3 X522.699 Y563.58 I-14.998 J0.241
G2 X525.041 Y569.366 I7.999 J0.128
G1 X532.357 Y576.683
G3 X532.358 Y587.997 I-5.656 J5.657
X521.044 Y587.996 I-5.657 J-5.657
G1 X513.727 Y580.679
G2 X507.942 Y578.338 I-5.656 J5.657
G3 X507.46 Y578.338 I-0.241 J-14.999
G2 X501.674 Y580.679 I-0.13 J7.999
G1 X494.357 Y587.996
G3 X488.783 Y590.338 I-5.656 J-5.657
G2 X488.387 Y590.742 I0.004 J0.4
G1 X488.391 Y591.142
X488.392 Y591.22 Z-0.5
X488.393 Y591.296 Z-0.478
X488.394 Y591.365 Z-0.441
Y591.425 Z-0.391
X488.395 Y591.475 Z-0.33
Y591.512 Z-0.261
Y591.535 Z-0.186
X488.396 Y591.542 Z-0.108
G0 Z10
X445.658 Y523.637
Z7
G1 Z5.4 F450
X445.652 Y523.643 Z5.322 F1000
X445.636 Y523.659 Z5.247
X445.61 Y523.685 Z5.178
X445.575 Y523.72 Z5.117
X445.532 Y523.763 Z5.067
X445.483 Y523.812 Z5.03
X445.43 Y523.865 Z5.008
X445.375 Y523.92 Z5
X445.092 Y524.203
G2 X445.092 Y524.769 I0.283 J0.283
G1 X451.734 Y531.411 Z4.672
G2 X457.519 Y533.752 Z4.448 I5.656 J-5.657
G3 X458.001 Y533.752 Z4.431 I0.241 J14.999
G2 X463.787 Y531.411 Z4.207 I0.13 J-7.999
G1 X471.104 Y524.094 Z3.846
G3 X482.417 Y535.407 Z2.968 I5.656 J5.657
G1 X475.1 Y542.724 Z2.607
G2 X472.759 Y548.51 Z2.383 I5.657 J5.656
G3 X472.759 Y548.992 Z2.366 I-14.999 J0.241
G2 X475.1 Y554.777 Z2.142 I7.999 J0.129
G1 X482.417 Y562.094 Z1.781
G3 X471.104 Y573.407 Z0.904 I-5.657 J5.656
G1 X463.787 Y566.091 Z0.542
G2 X458.001 Y563.749 Z0.318 I-5.657 J5.656
G3 X457.519 Y563.749 Z0.301 I-0.241 J-14.998
G2 X451.734 Y566.091 Z0.078 I-0.128 J7.999
G1 X444.417 Y573.407 Z-0.284
G3 X438.623 Y575.75 Z-0.508 I-5.657 J-5.656
X433.104 Y562.094 I0.137 J-7.999 F1500
G1 X440.42 Y554.777
G2 X442.762 Y548.992 I-5.656 J-5.657
G3 X442.762 Y548.51 I14.998 J-0.241
G2 X440.42 Y542.724 I-7.999 J-0.128
G1 X433.104 Y535.407
G3 X433.103 Y524.093 I5.656 J-5.657
X444.417 Y524.094 I5.657 J5.657
G1 X451.734 Y531.411
G2 X457.519 Y533.752 I5.656 J-5.657
G3 X458.001 Y533.752 I0.241 J14.999
G2 X463.787 Y531.411 I0.13 J-7.999
G1 X471.104 Y524.094
G3 X482.417 Y535.407 I5.656 J5.657
G1 X475.1 Y542.724
G2 X472.759 Y548.51 I5.657 J5.656
G3 X472.759 Y548.992 I-14.999 J0.241
G2 X475.1 Y554.777 I7.999 J0.129
G1 X482.417 Y562.094
G3 X471.104 Y573.407 I-5.657 J5.656
G1 X463.787 Y566.091
G2 X458.001 Y563.749 I-5.657 J5.656
G3 X457.519 Y563.749 I-0.241 J-14.998
G2 X451.734 Y566.091 I-0.128 J7.999
G1 X444.417 Y573.407
G3 X438.623 Y575.75 I-5.657 J-5.656
G2 X438.216 Y576.143 I-0.007 J0.4
G1 X438.209 Y576.543
X438.208 Y576.621 Z-0.5
X438.206 Y576.696 Z-0.478
X438.205 Y576.765 Z-0.441
X438.204 Y576.825 Z-0.391
X438.203 Y576.875 Z-0.33
Y576.912 Z-0.261
X438.202 Y576.935 Z-0.186
Y576.943 Z-0.108
G0 Z10
X392.252 Y506.976
Z7
G1 Z5.4 F450
X392.249 Y506.983 Z5.322 F1000
X392.24 Y507.004 Z5.247
X392.226 Y507.038 Z5.178
X392.206 Y507.084 Z5.117
X392.182 Y507.139 Z5.067
X392.155 Y507.203 Z5.03
X392.125 Y507.272 Z5.008
X392.094 Y507.343 Z5
X391.936 Y507.711
G2 X392.145 Y508.236 I0.367 J0.158
G3 X394.634 Y509.926 Z4.894 I-3.168 J7.347
G1 X401.95 Y517.243 Z4.533
G2 X407.736 Y519.585 Z4.309 I5.657 J-5.657
G3 X408.218 Y519.585 Z4.292 I0.241 J14.998
G2 X414.004 Y517.243 Z4.068 I0.128 J-7.999
G1 X421.32 Y509.926 Z3.707
G3 X432.634 Y509.926 Z3.268 I5.657 J5.657
X432.634 Y521.24 Z2.829 I-5.657 J5.657
G1 X425.317 Y528.556 Z2.468
G2 X422.975 Y534.342 Z2.244 I5.657 J5.657
G3 X422.975 Y534.824 Z2.227 I-14.998 J0.241
G2 X425.317 Y540.61 Z2.003 I7.999 J0.128
G1 X432.634 Y547.926 Z1.642
G3 X432.634 Y559.24 Z1.203 I-5.657 J5.657
X421.32 Y559.24 Z0.764 I-5.657 J-5.657
G1 X414.004 Y551.923 Z0.403
G2 X408.218 Y549.581 Z0.179 I-5.657 J5.657
G3 X407.736 Y549.581 Z0.162 I-0.241 J-14.998
G2 X401.95 Y551.923 Z-0.062 I-0.128 J7.999
G1 X394.634 Y559.24 Z-0.423
G3 X392.683 Y560.674 Z-0.508 I-5.657 J-5.657
X383.32 Y547.926 I-3.706 J-7.091 F1500
G1 X390.637 Y540.61
G2 X392.979 Y534.824 I-5.657 J-5.657
G3 X392.979 Y534.342 I14.998 J-0.241
G2 X390.637 Y528.556 I-7.999 J-0.128
G1 X383.32 Y521.24
G3 X383.32 Y509.926 I5.657 J-5.657
X394.634 Y509.926 I5.657 J5.657
G1 X401.95 Y517.243
G2 X407.736 Y519.585 I5.657 J-5.657
G3 X408.218 Y519.585 I0.241 J14.998
G2 X414.004 Y517.243 I0.128 J-7.999
G1 X421.32 Y509.926
G3 X432.634 Y509.926 I5.657 J5.657
X432.634 Y521.24 I-5.657 J5.657
G1 X425.317 Y528.556
G2 X422.975 Y534.342 I5.657 J5.657
G3 X422.975 Y534.824 I-14.998 J0.241
G2 X425.317 Y540.61 I7.999 J0.128
G1 X432.634 Y547.926
G3 X432.634 Y559.24 I-5.657 J5.657
X421.32 Y559.24 I-5.657 J-5.657
G1 X414.004 Y551.923
G2 X408.218 Y549.581 I-5.657 J5.657
G3 X407.736 Y549.581 I-0.241 J-14.998
G2 X401.95 Y551.923 I-0.128 J7.999
G1 X394.634 Y559.24
G3 X392.683 Y560.674 I-5.657 J-5.657
G2 X392.513 Y561.213 I0.185 J0.354
G1 X392.699 Y561.568
X392.735 Y561.637 Z-0.5
X392.77 Y561.704 Z-0.478
X392.802 Y561.765 Z-0.441
X392.83 Y561.819 Z-0.391
X392.853 Y561.863 Z-0.33
X392.87 Y561.895 Z-0.261
X392.88 Y561.916 Z-0.186
X392.884 Y561.922 Z-0.108
G0 Z10
X361.874 Y507.179
Z7
G1 Z5.4 F450
X361.875 Y507.187 Z5.322 F1000
X361.876 Y507.21 Z5.247
X361.878 Y507.246 Z5.178
X361.88 Y507.296 Z5.117
X361.883 Y507.357 Z5.067
X361.886 Y507.426 Z5.03
X361.89 Y507.501 Z5.008
X361.894 Y507.579 Z5
X361.914 Y507.978
G2 X362.333 Y508.358 I0.4 J-0.02
X370.078 Y507.85 Z4.729 I-11.682 J-237.296
G3 X375.964 Y519.382 Z4.152 I0.572 J6.976
G2 X375.964 Y590.269 Z1.456 I41.34 J35.444
G3 X370.079 Y601.802 Z0.879 I-5.314 J4.556
G2 X331.223 Y601.802 Z-0.479 I-19.428 J236.787
G3 X330.404 Y601.821 Z-0.508 I-0.573 J-6.976
X323.728 Y593.782 I0.246 J-6.996 F1500
G2 X323.728 Y515.87 I-258.245 J-38.956
G3 X331.223 Y507.85 I6.922 J-1.044
G2 X370.078 Y507.85 I19.428 J-236.788
G3 X375.964 Y519.382 I0.572 J6.976
G2 X375.964 Y590.269 I41.34 J35.444
G3 X370.079 Y601.802 I-5.314 J4.556
G2 X331.223 Y601.802 I-19.428 J236.787
G3 X330.404 Y601.821 I-0.573 J-6.976
G2 X329.99 Y602.207 I-0.014 J0.4
G1 X329.976 Y602.607
X329.973 Y602.685 Z-0.5
X329.971 Y602.76 Z-0.478
X329.968 Y602.829 Z-0.441
X329.966 Y602.89 Z-0.391
X329.964 Y602.939 Z-0.33
X329.963 Y602.976 Z-0.261
X329.962 Y602.999 Z-0.186
Y603.007 Z-0.108
G0 Z10
X304.063 Y504.687
Z7
G1 Z5.4 F450
X304.064 Y504.695 Z5.322 F1000
X304.065 Y504.717 Z5.247
X304.067 Y504.754 Z5.178
X304.069 Y504.804 Z5.117
X304.072 Y504.865 Z5.067
X304.075 Y504.934 Z5.03
X304.079 Y505.009 Z5.008
X304.083 Y505.087 Z5
X304.102 Y505.486
G2 X304.521 Y505.866 I0.4 J-0.019
X312.435 Y505.35 Z4.723 I-11.513 J-237.304
G3 X318.321 Y516.882 Z4.146 I0.572 J6.976
G2 X318.321 Y587.769 Z1.45 I41.341 J35.444
G3 X312.436 Y599.302 Z0.873 I-5.314 J4.556
G2 X273.58 Y599.302 Z-0.485 I-19.428 J236.788
G3 X272.93 Y599.325 Z-0.508 I-0.573 J-6.976
X266.085 Y591.282 I0.077 J-6.999 F1500
G2 X266.085 Y513.37 I-258.245 J-38.956
G3 X273.58 Y505.35 I6.922 J-1.044
G2 X312.435 Y505.35 I19.428 J-236.788
G3 X318.321 Y516.882 I0.572 J6.976
G2 X318.321 Y587.769 I41.341 J35.444
G3 X312.436 Y599.302 I-5.314 J4.556
G2 X273.58 Y599.302 I-19.428 J236.788
G3 X272.93 Y599.325 I-0.573 J-6.976
G2 X272.525 Y599.721 I-0.004 J0.4
G1 X272.521 Y600.121
X272.52 Y600.199 Z-0.5
X272.519 Y600.274 Z-0.478
Y600.343 Z-0.441
X272.518 Y600.404 Z-0.391
X272.517 Y600.453 Z-0.33
Y600.49 Z-0.261
Y600.513 Z-0.186
Y600.521 Z-0.108
G0 Z10
X154.761 Y505.451
Z7
G1 Z5.4 F450
X154.76 Y505.459 Z5.322 F1000
X154.758 Y505.481 Z5.247
X154.756 Y505.518 Z5.178
X154.752 Y505.568 Z5.117
X154.748 Y505.628 Z5.067
X154.743 Y505.697 Z5.03
X154.738 Y505.772 Z5.008
X154.733 Y505.85 Z5
X154.705 Y506.249
G2 X155.076 Y506.676 I0.399 J0.028
G3 X159.257 Y507.446 Z4.851 I-1.328 J18.953
G1 X159.895 Y507.639 Z4.828
X179.87 Y513.691 Z4.099
G2 X187.66 Y511.872 Z3.807 I2.32 J-7.656
G3 X200.922 Y515.889 Z3.221 I5.471 J5.837
G2 X206.392 Y521.727 Z2.929 I7.791 J-1.818
G1 X216.1 Y524.668 Z2.575
G3 X231.149 Y566.026 Z0.793 I-7.974 J26.319
G1 X216.498 Y588.455 Z-0.143
G3 X207.582 Y592.971 Z-0.508 I-8.372 J-5.469
X199.754 Y588.455 I0.544 J-9.985 F1500
G1 X189.177 Y572.263
G2 X188.746 Y571.664 I-6.703 J4.367
X183.098 Y572.264 I-2.033 J7.737
G3 X171.496 Y564.688 I-3.614 J-7.137
G2 X167.882 Y557.551 I-7.988 J-0.439
G1 X159.986 Y552.395
G2 X151.997 Y551.955 I-4.374 J6.698
G3 X140.476 Y543.598 I-3.614 J-7.137
G2 X138.845 Y537.416 I-7.906 J-1.22
G3 X159.257 Y507.446 I14.902 J-11.786
G1 X159.895 Y507.639
X179.87 Y513.691
G2 X187.66 Y511.872 I2.32 J-7.656
G3 X200.922 Y515.889 I5.471 J5.837
G2 X206.392 Y521.727 I7.791 J-1.818
G1 X216.1 Y524.668
G3 X231.149 Y566.026 I-7.974 J26.319
G1 X216.498 Y588.455
G3 X207.582 Y592.971 I-8.372 J-5.469
G2 X207.161 Y593.349 I-0.022 J0.399
G1 X207.139 Y593.748
X207.135 Y593.826 Z-0.5
X207.131 Y593.901 Z-0.478
X207.127 Y593.97 Z-0.441
X207.124 Y594.031 Z-0.391
X207.121 Y594.081 Z-0.33
X207.119 Y594.117 Z-0.261
X207.118 Y594.14 Z-0.186
X207.117 Y594.148 Z-0.108
G0 Z10
X134.938 Y544.84
Z7
G1 Z5.4 F450
X134.932 Y544.845 Z5.322 F1000
X134.915 Y544.86 Z5.247
X134.887 Y544.884 Z5.178
X134.849 Y544.916 Z5.117
X134.802 Y544.955 Z5.067
X134.75 Y545 Z5.03
X134.692 Y545.048 Z5.008
X134.633 Y545.099 Z5
X134.327 Y545.357
G2 X134.28 Y545.921 I0.258 J0.305
G3 X122.351 Y568.906 Z3.846 I-10.69 J9.04
G1 X72.861 Y564.508 Z2.11
G2 X71.445 Y564.508 Z2.061 I-0.708 J7.969
G1 X21.955 Y568.906 Z0.326
G3 X6.73 Y554.313 Z-0.508 I-1.239 J-13.945
X10.537 Y545.348 I13.985 J0.648 F1500
G1 X46.61 Y507.155
G3 X51.699 Y504.961 I5.089 J4.806
G1 X92.607
G3 X97.696 Y507.155 I0 J7
G1 X133.768 Y545.348
G3 X122.351 Y568.906 I-10.178 J9.613
G1 X72.861 Y564.508
G2 X71.445 Y564.508 I-0.708 J7.969
G1 X21.955 Y568.906
G3 X6.73 Y554.313 I-1.239 J-13.945
G2 X6.349 Y553.895 I-0.4 J-0.018
G1 X5.95 Y553.876
X5.872 Y553.873 Z-0.5
X5.797 Y553.869 Z-0.478
X5.728 Y553.866 Z-0.441
X5.667 Y553.863 Z-0.391
X5.617 Y553.861 Z-0.33
X5.58 Y553.859 Z-0.261
X5.558 Y553.858 Z-0.186
X5.55 Z-0.108
G0 Z10
X134.758 Y480.48
Z7
G1 Z5.4 F450
X134.752 Y480.485 Z5.322 F1000
X134.735 Y480.5 Z5.247
X134.707 Y480.524 Z5.178
X134.67 Y480.557 Z5.117
X134.624 Y480.597 Z5.067
X134.572 Y480.643 Z5.03
X134.516 Y480.692 Z5.008
X134.457 Y480.743 Z5
X134.156 Y481.007
G2 X134.119 Y481.572 I0.264 J0.301
G3 X122.351 Y504.745 Z3.837 I-10.529 J9.228
G1 X72.861 Y500.347 Z2.102
G2 X71.445 Y500.347 Z2.052 I-0.708 J7.969
G1 X21.955 Y504.745 Z0.317
G3 X6.721 Y490.4 Z-0.508 I-1.239 J-13.945
X10.537 Y481.187 I13.994 J0.4 F1500
G1 X46.61 Y442.994
G3 X51.699 Y440.8 I5.089 J4.806
G1 X92.607
G3 X97.696 Y442.994 I0 J7
G1 X119.75 Y466.344
X133.769 Y481.187
G3 X122.351 Y504.745 I-10.179 J9.613
G1 X72.861 Y500.347
G2 X71.445 Y500.347 I-0.708 J7.969
G1 X21.955 Y504.745
G3 X6.721 Y490.4 I-1.239 J-13.945
G2 X6.332 Y489.989 I-0.4 J-0.011
G1 X5.933 Y489.978
X5.855 Y489.975 Z-0.5
X5.78 Y489.973 Z-0.478
X5.711 Y489.971 Z-0.441
X5.65 Y489.97 Z-0.391
X5.6 Y489.968 Z-0.33
X5.563 Y489.967 Z-0.261
X5.54 Y489.966 Z-0.186
X5.533 Z-0.108
G0 Z10
X134.938 Y544.84
Z7
G1 Z4.892 F450
X134.932 Y544.845 Z4.814 F1000
X134.915 Y544.86 Z4.739
X134.887 Y544.884 Z4.67
X134.849 Y544.916 Z4.609
X134.802 Y544.955 Z4.559
X134.75 Y545 Z4.522
X134.692 Y545.048 Z4.5
X134.633 Y545.099 Z4.492
X134.327 Y545.357
G2 X134.28 Y545.921 I0.258 J0.305
G3 X122.351 Y568.906 Z3.338 I-10.69 J9.04
G1 X72.861 Y564.508 Z1.602
G2 X71.445 Y564.508 Z1.553 I-0.708 J7.969
G1 X21.955 Y568.906 Z-0.182
G3 X6.73 Y554.313 Z-1.016 I-1.239 J-13.945
X10.537 Y545.348 I13.985 J0.648 F1500
G1 X46.61 Y507.155
G3 X51.699 Y504.961 I5.089 J4.806
G1 X92.607
G3 X97.696 Y507.155 I0 J7
G1 X133.768 Y545.348
G3 X122.351 Y568.906 I-10.178 J9.613
G1 X72.861 Y564.508
G2 X71.445 Y564.508 I-0.708 J7.969
G1 X21.955 Y568.906
G3 X6.73 Y554.313 I-1.239 J-13.945
G2 X6.349 Y553.895 I-0.4 J-0.018
G1 X5.95 Y553.876
X5.872 Y553.873 Z-1.008
X5.797 Y553.869 Z-0.986
X5.728 Y553.866 Z-0.949
X5.667 Y553.863 Z-0.899
X5.617 Y553.861 Z-0.838
X5.58 Y553.859 Z-0.769
X5.558 Y553.858 Z-0.694
X5.55 Z-0.616
G0 Z10
X158.763 Y442.372
Z7
G1 Z5.4 F450
Y442.38 Z5.322 F1000
X158.761 Y442.402 Z5.247
X158.757 Y442.439 Z5.178
X158.753 Y442.489 Z5.117
X158.748 Y442.549 Z5.067
X158.741 Y442.618 Z5.03
X158.735 Y442.693 Z5.008
X158.728 Y442.771 Z5
X158.693 Y443.169
G2 X159.056 Y443.603 I0.398 J0.035
G1 X182.473 Y445.684 Z4.179
G2 X183.889 Y445.684 Z4.13 I0.708 J-7.969
G1 X233.379 Y441.286 Z2.394
G3 X244.797 Y464.844 Z1.213 I1.24 J13.945
G1 X210.955 Y500.675 Z-0.508
X208.724 Y503.037 F1500
G3 X203.635 Y505.231 I-5.089 J-4.806
G1 X193.132
X162.727
G3 X157.638 Y503.037 I0 J-7
G1 X121.565 Y464.844
G3 X132.983 Y441.286 I10.178 J-9.613
G1 X182.473 Y445.684
G2 X183.889 Y445.684 I0.708 J-7.969
G1 X233.379 Y441.286
G3 X244.797 Y464.844 I1.24 J13.945
G1 X210.955 Y500.675
G2 X210.971 Y501.241 I0.291 J0.275
G1 X211.262 Y501.515
X211.319 Y501.569 Z-0.5
X211.373 Y501.62 Z-0.478
X211.423 Y501.668 Z-0.441
X211.467 Y501.71 Z-0.391
X211.504 Y501.744 Z-0.33
X211.53 Y501.769 Z-0.261
X211.547 Y501.785 Z-0.186
X211.553 Y501.79 Z-0.108
G0 Z10
X154.761 Y505.451
Z7
G1 Z4.892 F450
X154.76 Y505.459 Z4.814 F1000
X154.758 Y505.481 Z4.739
X154.756 Y505.518 Z4.67
X154.752 Y505.568 Z4.609
X154.748 Y505.628 Z4.559
X154.743 Y505.697 Z4.522
X154.738 Y505.772 Z4.5
X154.733 Y505.85 Z4.492
X154.705 Y506.249
G2 X155.076 Y506.676 I0.399 J0.028
G3 X159.257 Y507.446 Z4.343 I-1.328 J18.953
G1 X159.895 Y507.639 Z4.32
X179.87 Y513.691 Z3.591
G2 X187.66 Y511.872 Z3.299 I2.32 J-7.656
G3 X200.922 Y515.889 Z2.713 I5.471 J5.837
G2 X206.392 Y521.727 Z2.421 I7.791 J-1.818
G1 X216.1 Y524.668 Z2.067
G3 X231.149 Y566.026 Z0.285 I-7.974 J26.319
G1 X216.498 Y588.455 Z-0.651
G3 X207.582 Y592.971 Z-1.016 I-8.372 J-5.469
X199.754 Y588.455 I0.544 J-9.985 F1500
G1 X189.177 Y572.263
G2 X188.746 Y571.664 I-6.703 J4.367
X183.098 Y572.264 I-2.033 J7.737
G3 X171.496 Y564.688 I-3.614 J-7.137
G2 X167.882 Y557.551 I-7.988 J-0.439
G1 X159.986 Y552.395
G2 X151.997 Y551.955 I-4.374 J6.698
G3 X140.476 Y543.598 I-3.614 J-7.137
G2 X138.845 Y537.416 I-7.906 J-1.22
G3 X159.257 Y507.446 I14.902 J-11.786
G1 X159.895 Y507.639
X179.87 Y513.691
G2 X187.66 Y511.872 I2.32 J-7.656
G3 X200.922 Y515.889 I5.471 J5.837
G2 X206.392 Y521.727 I7.791 J-1.818
G1 X216.1 Y524.668
G3 X231.149 Y566.026 I-7.974 J26.319
G1 X216.498 Y588.455
G3 X207.582 Y592.971 I-8.372 J-5.469
G2 X207.161 Y593.349 I-0.022 J0.399
G1 X207.139 Y593.748
X207.135 Y593.826 Z-1.008
X207.131 Y593.901 Z-0.986
X207.127 Y593.97 Z-0.949
X207.124 Y594.031 Z-0.899
X207.121 Y594.081 Z-0.838
X207.119 Y594.117 Z-0.769
X207.118 Y594.14 Z-0.694
X207.117 Y594.148 Z-0.616
G0 Z10
X339.132 Y462.06
Z7
G1 Z5.4 F450
X339.126 Y462.065 Z5.322 F1000
X339.11 Y462.081 Z5.247
X339.083 Y462.106 Z5.178
X339.047 Y462.141 Z5.117
X339.003 Y462.182 Z5.067
X338.952 Y462.23 Z5.03
X338.898 Y462.281 Z5.008
X338.841 Y462.335 Z5
X338.55 Y462.609
G2 X338.534 Y463.175 I0.275 J0.291
G1 X355.685 Y481.335 Z4.128
G3 X344.268 Y504.892 Z2.946 I-10.178 J9.613
G1 X294.778 Y500.494 Z1.211
G2 X293.362 Y500.494 Z1.162 I-0.708 J7.969
G1 X245.73 Y504.727 Z-0.508
X243.872 Y504.892 F1500
G3 X232.454 Y481.335 I-1.24 J-13.945
G1 X268.527 Y443.141
G3 X273.616 Y440.947 I5.089 J4.806
G1 X314.524
G3 X319.613 Y443.141 I0 J7
G1 X355.685 Y481.335
G3 X344.268 Y504.892 I-10.178 J9.613
G1 X294.778 Y500.494
G2 X293.362 Y500.494 I-0.708 J7.969
G1 X245.73 Y504.727
G2 X245.367 Y505.161 I0.035 J0.398
G1 X245.402 Y505.559
X245.409 Y505.637 Z-0.5
X245.416 Y505.712 Z-0.478
X245.422 Y505.781 Z-0.441
X245.427 Y505.841 Z-0.391
X245.431 Y505.891 Z-0.33
X245.435 Y505.927 Z-0.261
X245.437 Y505.95 Z-0.186
Y505.958 Z-0.108
G0 Z10
X304.063 Y504.687
Z7
G1 Z4.892 F450
X304.064 Y504.695 Z4.814 F1000
X304.065 Y504.717 Z4.739
X304.067 Y504.754 Z4.67
X304.069 Y504.804 Z4.609
X304.072 Y504.865 Z4.559
X304.075 Y504.934 Z4.522
X304.079 Y505.009 Z4.5
X304.083 Y505.087 Z4.492
X304.102 Y505.486
G2 X304.521 Y505.866 I0.4 J-0.019
X312.435 Y505.35 Z4.215 I-11.513 J-237.304
G3 X318.321 Y516.882 Z3.638 I0.572 J6.976
G2 X318.321 Y587.769 Z0.942 I41.341 J35.444
G3 X312.436 Y599.302 Z0.365 I-5.314 J4.556
G2 X273.58 Y599.302 Z-0.993 I-19.428 J236.788
G3 X272.93 Y599.325 Z-1.016 I-0.573 J-6.976
X266.085 Y591.282 I0.077 J-6.999 F1500
G2 X266.085 Y513.37 I-258.245 J-38.956
G3 X273.58 Y505.35 I6.922 J-1.044
G2 X312.435 Y505.35 I19.428 J-236.788
G3 X318.321 Y516.882 I0.572 J6.976
G2 X318.321 Y587.769 I41.341 J35.444
G3 X312.436 Y599.302 I-5.314 J4.556
G2 X273.58 Y599.302 I-19.428 J236.788
G3 X272.93 Y599.325 I-0.573 J-6.976
G2 X272.525 Y599.721 I-0.004 J0.4
G1 X272.521 Y600.121
X272.52 Y600.199 Z-1.008
X272.519 Y600.274 Z-0.986
Y600.343 Z-0.949
X272.518 Y600.404 Z-0.899
X272.517 Y600.453 Z-0.838
Y600.49 Z-0.769
Y600.513 Z-0.694
Y600.521 Z-0.616
G0 Z10
X361.874 Y507.179
Z7
G1 Z4.892 F450
X361.875 Y507.187 Z4.814 F1000
X361.876 Y507.21 Z4.739
X361.878 Y507.246 Z4.67
X361.88 Y507.296 Z4.609
X361.883 Y507.357 Z4.559
X361.886 Y507.426 Z4.522
X361.89 Y507.501 Z4.5
X361.894 Y507.579 Z4.492
X361.914 Y507.978
G2 X362.333 Y508.358 I0.4 J-0.02
X370.078 Y507.85 Z4.221 I-11.682 J-237.296
G3 X375.964 Y519.382 Z3.644 I0.572 J6.976
G2 X375.964 Y590.269 Z0.948 I41.34 J35.444
G3 X370.079 Y601.802 Z0.371 I-5.314 J4.556
G2 X331.223 Y601.802 Z-0.987 I-19.428 J236.787
G3 X330.404 Y601.821 Z-1.016 I-0.573 J-6.976
X323.728 Y593.782 I0.246 J-6.996 F1500
G2 X323.728 Y515.87 I-258.245 J-38.956
G3 X331.223 Y507.85 I6.922 J-1.044
G2 X370.078 Y507.85 I19.428 J-236.788
G3 X375.964 Y519.382 I0.572 J6.976
G2 X375.964 Y590.269 I41.34 J35.444
G3 X370.079 Y601.802 I-5.314 J4.556
G2 X331.223 Y601.802 I-19.428 J236.787
G3 X330.404 Y601.821 I-0.573 J-6.976
G2 X329.99 Y602.207 I-0.014 J0.4
G1 X329.976 Y602.607
X329.973 Y602.685 Z-1.008
X329.971 Y602.76 Z-0.986
X329.968 Y602.829 Z-0.949
X329.966 Y602.89 Z-0.899
X329.964 Y602.939 Z-0.838
X329.963 Y602.976 Z-0.769
X329.962 Y602.999 Z-0.694
Y603.007 Z-0.616
G0 Z10
X445.658 Y523.637
Z7
G1 Z4.892 F450
X445.652 Y523.643 Z4.814 F1000
X445.636 Y523.659 Z4.739
X445.61 Y523.685 Z4.67
X445.575 Y523.72 Z4.609
X445.532 Y523.763 Z4.559
X445.483 Y523.812 Z4.522
X445.43 Y523.865 Z4.5
X445.375 Y523.92 Z4.492
X445.092 Y524.203
G2 X445.092 Y524.769 I0.283 J0.283
G1 X451.734 Y531.411 Z4.164
G2 X457.519 Y533.752 Z3.94 I5.656 J-5.657
G3 X458.001 Y533.752 Z3.923 I0.241 J14.999
G2 X463.787 Y531.411 Z3.699 I0.13 J-7.999
G1 X471.104 Y524.094 Z3.338
G3 X482.417 Y535.407 Z2.46 I5.656 J5.657
G1 X475.1 Y542.724 Z2.099
G2 X472.759 Y548.51 Z1.875 I5.657 J5.656
G3 X472.759 Y548.992 Z1.858 I-14.999 J0.241
G2 X475.1 Y554.777 Z1.634 I7.999 J0.129
G1 X482.417 Y562.094 Z1.273
G3 X471.104 Y573.407 Z0.396 I-5.657 J5.656
G1 X463.787 Y566.091 Z0.034
G2 X458.001 Y563.749 Z-0.19 I-5.657 J5.656
G3 X457.519 Y563.749 Z-0.207 I-0.241 J-14.998
G2 X451.734 Y566.091 Z-0.43 I-0.128 J7.999
G1 X444.417 Y573.407 Z-0.792
G3 X438.623 Y575.75 Z-1.016 I-5.657 J-5.656
X433.104 Y562.094 I0.137 J-7.999 F1500
G1 X440.42 Y554.777
G2 X442.762 Y548.992 I-5.656 J-5.657
G3 X442.762 Y548.51 I14.998 J-0.241
G2 X440.42 Y542.724 I-7.999 J-0.128
G1 X433.104 Y535.407
G3 X433.103 Y524.093 I5.656 J-5.657
X444.417 Y524.094 I5.657 J5.657
G1 X451.734 Y531.411
G2 X457.519 Y533.752 I5.656 J-5.657
G3 X458.001 Y533.752 I0.241 J14.999
G2 X463.787 Y531.411 I0.13 J-7.999
G1 X471.104 Y524.094
G3 X482.417 Y535.407 I5.656 J5.657
G1 X475.1 Y542.724
G2 X472.759 Y548.51 I5.657 J5.656
G3 X472.759 Y548.992 I-14.999 J0.241
G2 X475.1 Y554.777 I7.999 J0.129
G1 X482.417 Y562.094
G3 X471.104 Y573.407 I-5.657 J5.656
G1 X463.787 Y566.091
G2 X458.001 Y563.749 I-5.657 J5.656
G3 X457.519 Y563.749 I-0.241 J-14.998
G2 X451.734 Y566.091 I-0.128 J7.999
G1 X444.417 Y573.407
G3 X438.623 Y575.75 I-5.657 J-5.656
G2 X438.216 Y576.143 I-0.007 J0.4
G1 X438.209 Y576.543
X438.208 Y576.621 Z-1.008
X438.206 Y576.696 Z-0.986
X438.205 Y576.765 Z-0.949
X438.204 Y576.825 Z-0.899
X438.203 Y576.875 Z-0.838
Y576.912 Z-0.769
X438.202 Y576.935 Z-0.694
Y576.943 Z-0.616
G0 Z10
X495.445 Y538.074
Z7
G1 Z4.892 F450
X495.44 Y538.079 Z4.814 F1000
X495.424 Y538.095 Z4.739
X495.397 Y538.121 Z4.67
X495.362 Y538.156 Z4.609
X495.319 Y538.199 Z4.559
X495.27 Y538.248 Z4.522
X495.217 Y538.301 Z4.5
X495.162 Y538.356 Z4.492
X494.879 Y538.639
G2 X494.879 Y539.205 I0.283 J0.283
G1 X501.674 Y545.999 Z4.156
G2 X507.46 Y548.341 Z3.933 I5.657 J-5.657
G3 X507.942 Y548.341 Z3.916 I0.241 J14.998
G2 X513.727 Y545.999 Z3.692 I0.128 J-7.999
G1 X521.044 Y538.683 Z3.33
G3 X532.358 Y538.682 Z2.892 I5.657 J5.656
X532.357 Y549.996 Z2.453 I-5.657 J5.657
G1 X525.041 Y557.313 Z2.091
G2 X522.699 Y563.098 Z1.868 I5.656 J5.657
G3 X522.699 Y563.58 Z1.851 I-14.998 J0.241
G2 X525.041 Y569.366 Z1.627 I7.999 J0.128
G1 X532.357 Y576.683 Z1.266
G3 X532.358 Y587.997 Z0.827 I-5.656 J5.657
X521.044 Y587.996 Z0.388 I-5.657 J-5.657
G1 X513.727 Y580.679 Z0.026
G2 X507.942 Y578.338 Z-0.197 I-5.656 J5.657
G3 X507.46 Y578.338 Z-0.214 I-0.241 J-14.999
G2 X501.674 Y580.679 Z-0.438 I-0.13 J7.999
G1 X494.357 Y587.996 Z-0.799
G3 X488.783 Y590.338 Z-1.016 I-5.656 J-5.657
X483.044 Y576.683 I-0.082 J-7.999 F1500
G1 X490.361 Y569.366
G2 X492.702 Y563.58 I-5.657 J-5.656
G3 X492.702 Y563.098 I14.999 J-0.241
G2 X490.361 Y557.313 I-7.999 J-0.129
G1 X483.044 Y549.996
G3 X483.043 Y538.682 I5.656 J-5.657
X494.357 Y538.683 I5.657 J5.657
G1 X501.674 Y545.999
G2 X507.46 Y548.341 I5.657 J-5.657
G3 X507.942 Y548.341 I0.241 J14.998
G2 X513.727 Y545.999 I0.128 J-7.999
G1 X521.044 Y538.683
G3 X532.358 Y538.682 I5.657 J5.656
X532.357 Y549.996 I-5.657 J5.657
G1 X525.041 Y557.313
G2 X522.699 Y563.098 I5.656 J5.657
G3 X522.699 Y563.58 I-14.998 J0.241
G2 X525.041 Y569.366 I7.999 J0.128
G1 X532.357 Y576.683
G3 X532.358 Y587.997 I-5.656 J5.657
X521.044 Y587.996 I-5.657 J-5.657
G1 X513.727 Y580.679
G2 X507.942 Y578.338 I-5.656 J5.657
G3 X507.46 Y578.338 I-0.241 J-14.999
G2 X501.674 Y580.679 I-0.13 J7.999
G1 X494.357 Y587.996
G3 X488.783 Y590.338 I-5.656 J-5.657
G2 X488.387 Y590.742 I0.004 J0.4
G1 X488.391 Y591.142
X488.392 Y591.22 Z-1.008
X488.393 Y591.296 Z-0.986
X488.394 Y591.365 Z-0.949
Y591.425 Z-0.899
X488.395 Y591.475 Z-0.838
Y591.512 Z-0.769
Y591.535 Z-0.694
X488.396 Y591.542 Z-0.616
G0 Z10
X374.781 Y441.862
Z7
G1 Z5.4 F450
X374.78 Y441.87 Z5.322 F1000
X374.778 Y441.892 Z5.247
X374.775 Y441.929 Z5.178
X374.771 Y441.979 Z5.117
X374.765 Y442.039 Z5.067
X374.759 Y442.108 Z5.03
X374.753 Y442.183 Z5.008
X374.746 Y442.261 Z5
X374.71 Y442.659
G2 X375.073 Y443.093 I0.398 J0.035
G1 X404.252 Y445.686 Z3.977
G2 X405.669 Y445.686 Z3.927 I0.708 J-7.969
G1 X455.159 Y441.288 Z2.192
G3 X466.576 Y464.846 Z1.011 I1.239 J13.945
G1 X436.705 Y496.472 Z-0.508
X430.503 Y503.039 F1500
G3 X425.414 Y505.233 I-5.089 J-4.806
G1 X384.507
G3 X379.418 Y503.039 I0 J-7
G1 X343.345 Y464.846
G3 X354.762 Y441.288 I10.178 J-9.613
G1 X404.252 Y445.686
G2 X405.669 Y445.686 I0.708 J-7.969
G1 X455.159 Y441.288
G3 X466.576 Y464.846 I1.239 J13.945
G1 X436.705 Y496.472
X430.503 Y503.039 Z-0.823 F1000
G3 X425.597 Y505.231 Z-1.016 I-5.089 J-4.806
G1 X425.414 Y505.233 F1500
X384.507
G3 X379.418 Y503.039 I0 J-7
G1 X343.345 Y464.846
G3 X354.762 Y441.288 I10.178 J-9.613
G1 X404.252 Y445.686
G2 X405.669 Y445.686 I0.708 J-7.969
G1 X455.159 Y441.288
G3 X466.576 Y464.846 I1.239 J13.945
G1 X436.705 Y496.472
X430.503 Y503.039
G3 X425.597 Y505.231 I-5.089 J-4.806
G2 X425.208 Y505.641 I0.01 J0.4
G1 X425.218 Y506.041
X425.22 Y506.119 Z-1.008
X425.222 Y506.194 Z-0.986
X425.224 Y506.263 Z-0.949
X425.226 Y506.324 Z-0.899
X425.227 Y506.373 Z-0.838
X425.228 Y506.41 Z-0.769
X425.229 Y506.433 Z-0.694
Y506.441 Z-0.616
G0 Z10
X392.252 Y506.976
Z7
G1 Z4.892 F450
X392.249 Y506.983 Z4.814 F1000
X392.24 Y507.004 Z4.739
X392.226 Y507.038 Z4.67
X392.206 Y507.084 Z4.609
X392.182 Y507.139 Z4.559
X392.155 Y507.203 Z4.522
X392.125 Y507.272 Z4.5
X392.094 Y507.343 Z4.492
X391.936 Y507.711
G2 X392.145 Y508.236 I0.367 J0.158
G3 X394.634 Y509.926 Z4.386 I-3.168 J7.347
G1 X401.95 Y517.243 Z4.025
G2 X407.736 Y519.585 Z3.801 I5.657 J-5.657
G3 X408.218 Y519.585 Z3.784 I0.241 J14.998
G2 X414.004 Y517.243 Z3.56 I0.128 J-7.999
G1 X421.32 Y509.926 Z3.199
G3 X432.634 Y509.926 Z2.76 I5.657 J5.657
X432.634 Y521.24 Z2.321 I-5.657 J5.657
G1 X425.317 Y528.556 Z1.96
G2 X422.975 Y534.342 Z1.736 I5.657 J5.657
G3 X422.975 Y534.824 Z1.719 I-14.998 J0.241
G2 X425.317 Y540.61 Z1.495 I7.999 J0.128
G1 X432.634 Y547.926 Z1.134
G3 X432.634 Y559.24 Z0.695 I-5.657 J5.657
X421.32 Y559.24 Z0.256 I-5.657 J-5.657
G1 X414.004 Y551.923 Z-0.105
G2 X408.218 Y549.581 Z-0.329 I-5.657 J5.657
G3 X407.736 Y549.581 Z-0.346 I-0.241 J-14.998
G2 X401.95 Y551.923 Z-0.57 I-0.128 J7.999
G1 X394.634 Y559.24 Z-0.931
G3 X392.683 Y560.674 Z-1.016 I-5.657 J-5.657
X383.32 Y547.926 I-3.706 J-7.091 F1500
G1 X390.637 Y540.61
G2 X392.979 Y534.824 I-5.657 J-5.657
G3 X392.979 Y534.342 I14.998 J-0.241
G2 X390.637 Y528.556 I-7.999 J-0.128
G1 X383.32 Y521.24
G3 X383.32 Y509.926 I5.657 J-5.657
X394.634 Y509.926 I5.657 J5.657
G1 X401.95 Y517.243
G2 X407.736 Y519.585 I5.657 J-5.657
G3 X408.218 Y519.585 I0.241 J14.998
G2 X414.004 Y517.243 I0.128 J-7.999
G1 X421.32 Y509.926
G3 X432.634 Y509.926 I5.657 J5.657
X432.634 Y521.24 I-5.657 J5.657
G1 X425.317 Y528.556
G2 X422.975 Y534.342 I5.657 J5.657
G3 X422.975 Y534.824 I-14.998 J0.241
G2 X425.317 Y540.61 I7.999 J0.128
G1 X432.634 Y547.926
G3 X432.634 Y559.24 I-5.657 J5.657
X421.32 Y559.24 I-5.657 J-5.657
G1 X414.004 Y551.923
G2 X408.218 Y549.581 I-5.657 J5.657
G3 X407.736 Y549.581 I-0.241 J-14.998
G2 X401.95 Y551.923 I-0.128 J7.999
G1 X394.634 Y559.24
G3 X392.683 Y560.674 I-5.657 J-5.657
X381.195 Y555.439 Z-1.524 I-3.706 J-7.091 F1000
X383.32 Y547.926 I7.782 J-1.856 F1500
G1 X390.637 Y540.61
G2 X392.979 Y534.824 I-5.657 J-5.657
G3 X392.979 Y534.342 I14.998 J-0.241
G2 X390.637 Y528.556 I-7.999 J-0.128
G1 X383.32 Y521.24
G3 X383.32 Y509.926 I5.657 J-5.657
X394.634 Y509.926 I5.657 J5.657
G1 X401.95 Y517.243
G2 X407.736 Y519.585 I5.657 J-5.657
G3 X408.218 Y519.585 I0.241 J14.998
G2 X414.004 Y517.243 I0.128 J-7.999
G1 X421.32 Y509.926
G3 X432.634 Y509.926 I5.657 J5.657
X432.634 Y521.24 I-5.657 J5.657
G1 X425.317 Y528.556
G2 X422.975 Y534.342 I5.657 J5.657
G3 X422.975 Y534.824 I-14.998 J0.241
G2 X425.317 Y540.61 I7.999 J0.128
G1 X432.634 Y547.926
G3 X432.634 Y559.24 I-5.657 J5.657
X421.32 Y559.24 I-5.657 J-5.657
G1 X414.004 Y551.923
G2 X408.218 Y549.581 I-5.657 J5.657
G3 X407.736 Y549.581 I-0.241 J-14.998
G2 X401.95 Y551.923 I-0.128 J7.999
G1 X394.634 Y559.24
G3 X381.195 Y555.439 I-5.657 J-5.657
G2 X380.713 Y555.142 I-0.389 J0.093
G1 X380.324 Y555.235
X380.248 Y555.253 Z-1.516
X380.175 Y555.271 Z-1.494
X380.108 Y555.287 Z-1.457
X380.049 Y555.301 Z-1.407
X380 Y555.312 Z-1.346
X379.964 Y555.321 Z-1.277
X379.942 Y555.326 Z-1.202
X379.935 Y555.328 Z-1.124
G0 Z10
X339.132 Y462.06
Z7
G1 Z4.892 F450
X339.126 Y462.065 Z4.814 F1000
X339.11 Y462.081 Z4.739
X339.083 Y462.106 Z4.67
X339.047 Y462.141 Z4.609
X339.003 Y462.182 Z4.559
X338.952 Y462.23 Z4.522
X338.898 Y462.281 Z4.5
X338.841 Y462.335 Z4.492
X338.55 Y462.609
G2 X338.534 Y463.175 I0.275 J0.291
G1 X355.685 Y481.335 Z3.62
G3 X344.268 Y504.892 Z2.438 I-10.178 J9.613
G1 X294.778 Y500.494 Z0.703
G2 X293.362 Y500.494 Z0.654 I-0.708 J7.969
G1 X245.73 Y504.727 Z-1.016
X243.872 Y504.892 F1500
G3 X232.454 Y481.335 I-1.24 J-13.945
G1 X268.527 Y443.141
G3 X273.616 Y440.947 I5.089 J4.806
G1 X314.524
G3 X319.613 Y443.141 I0 J7
G1 X355.685 Y481.335
G3 X344.268 Y504.892 I-10.178 J9.613
G1 X294.778 Y500.494
G2 X293.362 Y500.494 I-0.708 J7.969
G1 X245.73 Y504.727
G2 X245.367 Y505.161 I0.035 J0.398
G1 X245.402 Y505.559
X245.409 Y505.637 Z-1.008
X245.416 Y505.712 Z-0.986
X245.422 Y505.781 Z-0.949
X245.427 Y505.841 Z-0.899
X245.431 Y505.891 Z-0.838
X245.435 Y505.927 Z-0.769
X245.437 Y505.95 Z-0.694
Y505.958 Z-0.616
G0 Z10
X304.063 Y504.687
Z7
G1 Z4.384 F450
X304.064 Y504.695 Z4.306 F1000
X304.065 Y504.717 Z4.231
X304.067 Y504.754 Z4.162
X304.069 Y504.804 Z4.101
X304.072 Y504.865 Z4.051
X304.075 Y504.934 Z4.014
X304.079 Y505.009 Z3.992
X304.083 Y505.087 Z3.984
X304.102 Y505.486
G2 X304.521 Y505.866 I0.4 J-0.019
X312.435 Y505.35 Z3.707 I-11.513 J-237.304
G3 X318.321 Y516.882 Z3.13 I0.572 J6.976
G2 X318.321 Y587.769 Z0.434 I41.341 J35.444
G3 X312.436 Y599.302 Z-0.143 I-5.314 J4.556
G2 X273.58 Y599.302 Z-1.501 I-19.428 J236.788
G3 X272.93 Y599.325 Z-1.524 I-0.573 J-6.976
X266.085 Y591.282 I0.077 J-6.999 F1500
G2 X266.085 Y513.37 I-258.245 J-38.956
G3 X273.58 Y505.35 I6.922 J-1.044
G2 X312.435 Y505.35 I19.428 J-236.788
G3 X318.321 Y516.882 I0.572 J6.976
G2 X318.321 Y587.769 I41.341 J35.444
G3 X312.436 Y599.302 I-5.314 J4.556
G2 X273.58 Y599.302 I-19.428 J236.788
G3 X272.93 Y599.325 I-0.573 J-6.976
G2 X272.525 Y599.721 I-0.004 J0.4
G1 X272.521 Y600.121
X272.52 Y600.199 Z-1.516
X272.519 Y600.274 Z-1.494
Y600.343 Z-1.457
X272.518 Y600.404 Z-1.407
X272.517 Y600.453 Z-1.346
Y600.49 Z-1.277
Y600.513 Z-1.202
Y600.521 Z-1.124
G0 Z10
X361.874 Y507.179
Z7
G1 Z4.384 F450
X361.875 Y507.187 Z4.306 F1000
X361.876 Y507.21 Z4.231
X361.878 Y507.246 Z4.162
X361.88 Y507.296 Z4.101
X361.883 Y507.357 Z4.051
X361.886 Y507.426 Z4.014
X361.89 Y507.501 Z3.992
X361.894 Y507.579 Z3.984
X361.914 Y507.978
G2 X362.333 Y508.358 I0.4 J-0.02
X370.078 Y507.85 Z3.713 I-11.682 J-237.296
G3 X375.964 Y519.382 Z3.136 I0.572 J6.976
G2 X375.964 Y590.269 Z0.44 I41.34 J35.444
G3 X370.079 Y601.802 Z-0.137 I-5.314 J4.556
G2 X331.223 Y601.802 Z-1.495 I-19.428 J236.787
G3 X330.404 Y601.821 Z-1.524 I-0.573 J-6.976
X323.728 Y593.782 I0.246 J-6.996 F1500
G2 X323.728 Y515.87 I-258.245 J-38.956
G3 X331.223 Y507.85 I6.922 J-1.044
G2 X370.078 Y507.85 I19.428 J-236.788
G3 X375.964 Y519.382 I0.572 J6.976
G2 X375.964 Y590.269 I41.34 J35.444
G3 X370.079 Y601.802 I-5.314 J4.556
G2 X331.223 Y601.802 I-19.428 J236.787
G3 X330.404 Y601.821 I-0.573 J-6.976
G2 X329.99 Y602.207 I-0.014 J0.4
G1 X329.976 Y602.607
X329.973 Y602.685 Z-1.516
X329.971 Y602.76 Z-1.494
X329.968 Y602.829 Z-1.457
X329.966 Y602.89 Z-1.407
X329.964 Y602.939 Z-1.346
X329.963 Y602.976 Z-1.277
X329.962 Y602.999 Z-1.202
Y603.007 Z-1.124
G0 Z10
X158.763 Y442.372
Z7
G1 Z4.892 F450
Y442.38 Z4.814 F1000
X158.761 Y442.402 Z4.739
X158.757 Y442.439 Z4.67
X158.753 Y442.489 Z4.609
X158.748 Y442.549 Z4.559
X158.741 Y442.618 Z4.522
X158.735 Y442.693 Z4.5
X158.728 Y442.771 Z4.492
X158.693 Y443.169
G2 X159.056 Y443.603 I0.398 J0.035
G1 X182.473 Y445.684 Z3.671
G2 X183.889 Y445.684 Z3.622 I0.708 J-7.969
G1 X233.379 Y441.286 Z1.886
G3 X244.797 Y464.844 Z0.705 I1.24 J13.945
G1 X210.955 Y500.675 Z-1.016
X208.724 Y503.037 F1500
G3 X203.635 Y505.231 I-5.089 J-4.806
G1 X193.132
X162.727
G3 X157.638 Y503.037 I0 J-7
G1 X121.565 Y464.844
G3 X132.983 Y441.286 I10.178 J-9.613
G1 X182.473 Y445.684
G2 X183.889 Y445.684 I0.708 J-7.969
G1 X233.379 Y441.286
G3 X244.797 Y464.844 I1.24 J13.945
G1 X210.955 Y500.675
G2 X210.971 Y501.241 I0.291 J0.275
G1 X211.262 Y501.515
X211.319 Y501.569 Z-1.008
X211.373 Y501.62 Z-0.986
X211.423 Y501.668 Z-0.949
X211.467 Y501.71 Z-0.899
X211.504 Y501.744 Z-0.838
X211.53 Y501.769 Z-0.769
X211.547 Y501.785 Z-0.694
X211.553 Y501.79 Z-0.616
G0 Z10
X154.761 Y505.451
Z7
G1 Z4.384 F450
X154.76 Y505.459 Z4.306 F1000
X154.758 Y505.481 Z4.231
X154.756 Y505.518 Z4.162
X154.752 Y505.568 Z4.101
X154.748 Y505.628 Z4.051
X154.743 Y505.697 Z4.014
X154.738 Y505.772 Z3.992
X154.733 Y505.85 Z3.984
X154.705 Y506.249
G2 X155.076 Y506.676 I0.399 J0.028
G3 X159.257 Y507.446 Z3.835 I-1.328 J18.953
G1 X159.895 Y507.639 Z3.812
X179.87 Y513.691 Z3.083
G2 X187.66 Y511.872 Z2.791 I2.32 J-7.656
G3 X200.922 Y515.889 Z2.205 I5.471 J5.837
G2 X206.392 Y521.727 Z1.913 I7.791 J-1.818
G1 X216.1 Y524.668 Z1.559
G3 X231.149 Y566.026 Z-0.223 I-7.974 J26.319
G1 X216.498 Y588.455 Z-1.159
G3 X207.582 Y592.971 Z-1.524 I-8.372 J-5.469
X199.754 Y588.455 I0.544 J-9.985 F1500
G1 X189.177 Y572.263
G2 X188.746 Y571.664 I-6.703 J4.367
X183.098 Y572.264 I-2.033 J7.737
G3 X171.496 Y564.688 I-3.614 J-7.137
G2 X167.882 Y557.551 I-7.988 J-0.439
G1 X159.986 Y552.395
G2 X151.997 Y551.955 I-4.374 J6.698
G3 X140.476 Y543.598 I-3.614 J-7.137
G2 X138.845 Y537.416 I-7.906 J-1.22
G3 X159.257 Y507.446 I14.902 J-11.786
G1 X159.895 Y507.639
X179.87 Y513.691
G2 X187.66 Y511.872 I2.32 J-7.656
G3 X200.922 Y515.889 I5.471 J5.837
G2 X206.392 Y521.727 I7.791 J-1.818
G1 X216.1 Y524.668
G3 X231.149 Y566.026 I-7.974 J26.319
G1 X216.498 Y588.455
G3 X207.582 Y592.971 I-8.372 J-5.469
G2 X207.161 Y593.349 I-0.022 J0.399
G1 X207.139 Y593.748
X207.135 Y593.826 Z-1.516
X207.131 Y593.901 Z-1.494
X207.127 Y593.97 Z-1.457
X207.124 Y594.031 Z-1.407
X207.121 Y594.081 Z-1.346
X207.119 Y594.117 Z-1.277
X207.118 Y594.14 Z-1.202
X207.117 Y594.148 Z-1.124
G0 Z10
X134.758 Y480.48
Z7
G1 Z4.892 F450
X134.752 Y480.485 Z4.814 F1000
X134.735 Y480.5 Z4.739
X134.707 Y480.524 Z4.67
X134.67 Y480.557 Z4.609
X134.624 Y480.597 Z4.559
X134.572 Y480.643 Z4.522
X134.516 Y480.692 Z4.5
X134.457 Y480.743 Z4.492
X134.156 Y481.007
G2 X134.119 Y481.572 I0.264 J0.301
G3 X122.351 Y504.745 Z3.329 I-10.529 J9.228
G1 X72.861 Y500.347 Z1.594
G2 X71.445 Y500.347 Z1.544 I-0.708 J7.969
G1 X21.955 Y504.745 Z-0.191
G3 X6.721 Y490.4 Z-1.016 I-1.239 J-13.945
X10.537 Y481.187 I13.994 J0.4 F1500
G1 X46.61 Y442.994
G3 X51.699 Y440.8 I5.089 J4.806
G1 X92.607
G3 X97.696 Y442.994 I0 J7
G1 X119.75 Y466.344
X133.769 Y481.187
G3 X122.351 Y504.745 I-10.179 J9.613
G1 X72.861 Y500.347
G2 X71.445 Y500.347 I-0.708 J7.969
G1 X21.955 Y504.745
G3 X6.721 Y490.4 I-1.239 J-13.945
G2 X6.332 Y489.989 I-0.4 J-0.011
G1 X5.933 Y489.978
X5.855 Y489.975 Z-1.008
X5.78 Y489.973 Z-0.986
X5.711 Y489.971 Z-0.949
X5.65 Y489.97 Z-0.899
X5.6 Y489.968 Z-0.838
X5.563 Y489.967 Z-0.769
X5.54 Y489.966 Z-0.694
X5.533 Z-0.616
G0 Z10
X134.938 Y544.84
Z7
G1 Z4.384 F450
X134.932 Y544.845 Z4.306 F1000
X134.915 Y544.86 Z4.231
X134.887 Y544.884 Z4.162
X134.849 Y544.916 Z4.101
X134.802 Y544.955 Z4.051
X134.75 Y545 Z4.014
X134.692 Y545.048 Z3.992
X134.633 Y545.099 Z3.984
X134.327 Y545.357
G2 X134.28 Y545.921 I0.258 J0.305
G3 X122.351 Y568.906 Z2.83 I-10.69 J9.04
G1 X72.861 Y564.508 Z1.094
G2 X71.445 Y564.508 Z1.045 I-0.708 J7.969
G1 X21.955 Y568.906 Z-0.69
G3 X6.73 Y554.313 Z-1.524 I-1.239 J-13.945
X10.537 Y545.348 I13.985 J0.648 F1500
G1 X46.61 Y507.155
G3 X51.699 Y504.961 I5.089 J4.806
G1 X92.607
G3 X97.696 Y507.155 I0 J7
G1 X133.768 Y545.348
G3 X122.351 Y568.906 I-10.178 J9.613
G1 X72.861 Y564.508
G2 X71.445 Y564.508 I-0.708 J7.969
G1 X21.955 Y568.906
G3 X6.73 Y554.313 I-1.239 J-13.945
G2 X6.349 Y553.895 I-0.4 J-0.018
G1 X5.95 Y553.876
X5.872 Y553.873 Z-1.516
X5.797 Y553.869 Z-1.494
X5.728 Y553.866 Z-1.457
X5.667 Y553.863 Z-1.407
X5.617 Y553.861 Z-1.346
X5.58 Y553.859 Z-1.277
X5.558 Y553.858 Z-1.202
X5.55 Z-1.124
G0 Z10
X102.688 Y439.65
Z7
G1 Z4.892 F450
G19 G2 Y439.25 Z4.492 J-0.4 K0 F1000
G1 Y438.85
G17 G2 X102.288 Y438.45 I-0.4 J0
G1 X14.343 Z1.421
G3 X12.929 Y437.864 Z1.366 I0 J-2
G1 X6.586 Y431.521 Z1.053
G3 X6 Y430.107 Z0.998 I1.414 J-1.414
G1 Y372.45 Z-1.015
Y372.436 Z-1.016
G3 X8 Y370.45 I2 J0.014 F1500
G1 X448
G3 X450 Y372.45 I0 J2
G1 Y430.107
G3 X449.414 Y431.521 I-2 J0
G1 X443.071 Y437.864
G3 X441.657 Y438.45 I-1.414 J-1.414
G1 X14.343
G3 X12.929 Y437.864 I0 J-2
G1 X6.586 Y431.521
G3 X6 Y430.107 I1.414 J-1.414
G1 Y372.45
Y372.436
G2 X5.603 Y372.033 I-0.4 J-0.003
G1 X5.203 Y372.03
X5.125 Y372.029 Z-1.008
X5.05 Z-0.986
X4.981 Y372.028 Z-0.949
X4.92 Z-0.899
X4.87 Z-0.838
X4.833 Y372.027 Z-0.769
X4.811 Z-0.694
X4.803 Z-0.616
G0 Z10
X104.516 Y369.3
Z7
G1 Z4.384 F450
G19 G2 Y368.9 Z3.984 J-0.4 K0 F1000
G1 Y368.5
G17 G2 X104.116 Y368.1 I-0.4 J0
G1 X14.343 Z0.849
G3 X12.929 Y367.514 Z0.794 I0 J-2
G1 X6.586 Y361.171 Z0.481
G3 X6 Y359.757 Z0.426 I1.414 J-1.414
G1 Y303.913 Z-1.524
Y302.1 F1500
G3 X8 Y300.1 I2 J0
G1 X448
G3 X450 Y302.1 I0 J2
G1 Y359.757
G3 X449.414 Y361.171 I-2 J0
G1 X443.071 Y367.514
G3 X441.657 Y368.1 I-1.414 J-1.414
G1 X14.343
G3 X12.929 Y367.514 I0 J-2
G1 X6.586 Y361.171
G3 X6 Y359.757 I1.414 J-1.414
G1 Y303.913
G2 X5.6 Y303.513 I-0.4 J0
G1 X5.2
G18 G3 X4.8 Z-1.124 I0 K0.4
G0 Z10
X160.373 Y298.95
Z7
G1 Z3.876 F450
G19 G2 Y298.55 Z3.476 J-0.4 K0 F1000
G1 Y298.15
G17 G2 X159.973 Y297.75 I-0.4 J0
G1 X14.343 Z-1.609
G3 X12.929 Y297.164 Z-1.664 I0 J-2
G1 X6.586 Y290.821 Z-1.978
G3 X6 Y289.42 Z-2.032 I1.414 J-1.414
G1 Y289.407 F1500
Y231.75
G3 X8 Y229.75 I2 J0
G1 X448
G3 X450 Y231.75 I0 J2
G1 Y289.407
G3 X449.414 Y290.821 I-2 J0
G1 X443.071 Y297.164
G3 X441.657 Y297.75 I-1.414 J-1.414
G1 X14.343
G3 X12.929 Y297.164 I0 J-2
G1 X6.586 Y290.821
G3 X6 Y289.42 I1.414 J-1.414
G2 X5.597 Y289.023 I-0.4 J0.003
G1 X5.197 Y289.025
X5.119 Y289.026 Z-2.024
X5.044 Z-2.002
X4.975 Y289.027 Z-1.965
X4.915 Z-1.915
X4.865 Y289.028 Z-1.854
X4.828 Z-1.785
X4.805 Z-1.71
X4.797 Z-1.632
G0 Z10
X160.374 Y228.6
Z7
G1 Z3.368 F450
G19 G2 Y228.2 Z2.968 J-0.4 K0 F1000
G1 Y227.8
G17 G2 X159.974 Y227.4 I-0.4 J0
G1 X14.343 Z-2.118
G3 X12.929 Y226.814 Z-2.172 I0 J-2
G1 X6.586 Y220.471 Z-2.486
G3 X6 Y219.072 Z-2.54 I1.414 J-1.414
G1 Y219.057 F1500
Y161.4
G3 X8 Y159.4 I2 J0
G1 X448
G3 X450 Y161.4 I0 J2
G1 Y200.374
Y219.057
G3 X449.414 Y220.471 I-2 J0
G1 X443.071 Y226.814
G3 X441.657 Y227.4 I-1.414 J-1.414
G1 X14.343
G3 X12.929 Y226.814 I0 J-2
G1 X6.586 Y220.471
G3 X6 Y219.072 I1.414 J-1.414
G2 X5.597 Y218.675 I-0.4 J0.003
G1 X5.197 Y218.678
X5.119 Z-2.532
X5.044 Y218.679 Z-2.51
X4.975 Z-2.473
X4.914 Y218.68 Z-2.423
X4.865 Z-2.362
X4.828 Z-2.293
X4.805 Y218.681 Z-2.218
X4.797 Z-2.14
G0 Z10
X161.621 Y158.25
Z7
G1 Z2.86 F450
G19 G2 Y157.85 Z2.46 J-0.4 K0 F1000
G1 Y157.45
G17 G2 X161.221 Y157.05 I-0.4 J0
G1 X8 Z-2.891
G3 X6 Y155.058 Z-3 I0 J-2
G1 Y155.05 F1500
Y84.7
G3 X8 Y82.7 I2 J0
G1 X448
G3 X450 Y84.7 I0 J2
G1 Y155.05
G3 X448 Y157.05 I-2 J0
G1 X8
G3 X6 Y155.058 I0 J-2
G2 X5.598 Y154.66 I-0.4 J0.002
G1 X5.198 Y154.662
X5.12 Z-2.992
X5.045 Z-2.97
X4.976 Z-2.933
X4.916 Y154.663 Z-2.883
X4.866 Z-2.822
X4.829 Z-2.753
X4.806 Z-2.678
X4.798 Z-2.6
G0 Z10
X134.758 Y480.48
Z7
G1 Z4.384 F450
X134.752 Y480.485 Z4.306 F1000
X134.735 Y480.5 Z4.231
X134.707 Y480.524 Z4.162
X134.67 Y480.557 Z4.101
X134.624 Y480.597 Z4.051
X134.572 Y480.643 Z4.014
X134.516 Y480.692 Z3.992
X134.457 Y480.743 Z3.984
X134.156 Y481.007
G2 X134.119 Y481.572 I0.264 J0.301
G3 X122.351 Y504.745 Z2.821 I-10.529 J9.228
G1 X72.861 Y500.347 Z1.086
G2 X71.445 Y500.347 Z1.036 I-0.708 J7.969
G1 X21.955 Y504.745 Z-0.699
G3 X6.721 Y490.4 Z-1.524 I-1.239 J-13.945
X10.537 Y481.187 I13.994 J0.4 F1500
G1 X46.61 Y442.994
G3 X51.699 Y440.8 I5.089 J4.806
G1 X92.607
G3 X97.696 Y442.994 I0 J7
G1 X119.75 Y466.344
X133.769 Y481.187
G3 X122.351 Y504.745 I-10.179 J9.613
G1 X72.861 Y500.347
G2 X71.445 Y500.347 I-0.708 J7.969
G1 X21.955 Y504.745
G3 X6.721 Y490.4 I-1.239 J-13.945
G2 X6.332 Y489.989 I-0.4 J-0.011
G1 X5.933 Y489.978
X5.855 Y489.975 Z-1.516
X5.78 Y489.973 Z-1.494
X5.711 Y489.971 Z-1.457
X5.65 Y489.97 Z-1.407
X5.6 Y489.968 Z-1.346
X5.563 Y489.967 Z-1.277
X5.54 Y489.966 Z-1.202
X5.533 Z-1.124
G0 Z10
X134.938 Y544.84
Z7
G1 Z3.876 F450
X134.932 Y544.845 Z3.798 F1000
X134.915 Y544.86 Z3.723
X134.887 Y544.884 Z3.654
X134.849 Y544.916 Z3.593
X134.802 Y544.955 Z3.543
X134.75 Y545 Z3.506
X134.692 Y545.048 Z3.484
X134.633 Y545.099 Z3.476
X134.327 Y545.357
G2 X134.28 Y545.921 I0.258 J0.305
G3 X122.351 Y568.906 Z2.322 I-10.69 J9.04
G1 X72.861 Y564.508 Z0.586
G2 X71.445 Y564.508 Z0.537 I-0.708 J7.969
G1 X21.955 Y568.906 Z-1.198
G3 X6.73 Y554.313 Z-2.032 I-1.239 J-13.945
X10.537 Y545.348 I13.985 J0.648 F1500
G1 X46.61 Y507.155
G3 X51.699 Y504.961 I5.089 J4.806
G1 X92.607
G3 X97.696 Y507.155 I0 J7
G1 X133.768 Y545.348
G3 X122.351 Y568.906 I-10.178 J9.613
G1 X72.861 Y564.508
G2 X71.445 Y564.508 I-0.708 J7.969
G1 X21.955 Y568.906
G3 X6.73 Y554.313 I-1.239 J-13.945
G2 X6.349 Y553.895 I-0.4 J-0.018
G1 X5.95 Y553.876
X5.872 Y553.873 Z-2.024
X5.797 Y553.869 Z-2.002
X5.728 Y553.866 Z-1.965
X5.667 Y553.863 Z-1.915
X5.617 Y553.861 Z-1.854
X5.58 Y553.859 Z-1.785
X5.558 Y553.858 Z-1.71
X5.55 Z-1.632
G0 Z10
X158.763 Y442.372
Z7
G1 Z4.384 F450
Y442.38 Z4.306 F1000
X158.761 Y442.402 Z4.231
X158.757 Y442.439 Z4.162
X158.753 Y442.489 Z4.101
X158.748 Y442.549 Z4.051
X158.741 Y442.618 Z4.014
X158.735 Y442.693 Z3.992
X158.728 Y442.771 Z3.984
X158.693 Y443.169
G2 X159.056 Y443.603 I0.398 J0.035
G1 X182.473 Y445.684 Z3.163
G2 X183.889 Y445.684 Z3.114 I0.708 J-7.969
G1 X233.379 Y441.286 Z1.378
G3 X244.797 Y464.844 Z0.197 I1.24 J13.945
G1 X210.955 Y500.675 Z-1.524
X208.724 Y503.037 F1500
G3 X203.635 Y505.231 I-5.089 J-4.806
G1 X193.132
X162.727
G3 X157.638 Y503.037 I0 J-7
G1 X121.565 Y464.844
G3 X132.983 Y441.286 I10.178 J-9.613
G1 X182.473 Y445.684
G2 X183.889 Y445.684 I0.708 J-7.969
G1 X233.379 Y441.286
G3 X244.797 Y464.844 I1.24 J13.945
G1 X210.955 Y500.675
G2 X210.971 Y501.241 I0.291 J0.275
G1 X211.262 Y501.515
X211.319 Y501.569 Z-1.516
X211.373 Y501.62 Z-1.494
X211.423 Y501.668 Z-1.457
X211.467 Y501.71 Z-1.407
X211.504 Y501.744 Z-1.346
X211.53 Y501.769 Z-1.277
X211.547 Y501.785 Z-1.202
X211.553 Y501.79 Z-1.124
G0 Z10
X154.761 Y505.451
Z7
G1 Z3.876 F450
X154.76 Y505.459 Z3.798 F1000
X154.758 Y505.481 Z3.723
X154.756 Y505.518 Z3.654
X154.752 Y505.568 Z3.593
X154.748 Y505.628 Z3.543
X154.743 Y505.697 Z3.506
X154.738 Y505.772 Z3.484
X154.733 Y505.85 Z3.476
X154.705 Y506.249
G2 X155.076 Y506.676 I0.399 J0.028
G3 X159.257 Y507.446 Z3.327 I-1.328 J18.953
G1 X159.895 Y507.639 Z3.304
X179.87 Y513.691 Z2.575
G2 X187.66 Y511.872 Z2.283 I2.32 J-7.656
G3 X200.922 Y515.889 Z1.697 I5.471 J5.837
G2 X206.392 Y521.727 Z1.405 I7.791 J-1.818
G1 X216.1 Y524.668 Z1.051
G3 X231.149 Y566.026 Z-0.731 I-7.974 J26.319
G1 X216.498 Y588.455 Z-1.667
G3 X207.582 Y592.971 Z-2.032 I-8.372 J-5.469
X199.754 Y588.455 I0.544 J-9.985 F1500
G1 X189.177 Y572.263
G2 X188.746 Y571.664 I-6.703 J4.367
X183.098 Y572.264 I-2.033 J7.737
G3 X171.496 Y564.688 I-3.614 J-7.137
G2 X167.882 Y557.551 I-7.988 J-0.439
G1 X159.986 Y552.395
G2 X151.997 Y551.955 I-4.374 J6.698
G3 X140.476 Y543.598 I-3.614 J-7.137
G2 X138.845 Y537.416 I-7.906 J-1.22
G3 X159.257 Y507.446 I14.902 J-11.786
G1 X159.895 Y507.639
X179.87 Y513.691
G2 X187.66 Y511.872 I2.32 J-7.656
G3 X200.922 Y515.889 I5.471 J5.837
G2 X206.392 Y521.727 I7.791 J-1.818
G1 X216.1 Y524.668
G3 X231.149 Y566.026 I-7.974 J26.319
G1 X216.498 Y588.455
G3 X207.582 Y592.971 I-8.372 J-5.469
G2 X207.161 Y593.349 I-0.022 J0.399
G1 X207.139 Y593.748
X207.135 Y593.826 Z-2.024
X207.131 Y593.901 Z-2.002
X207.127 Y593.97 Z-1.965
X207.124 Y594.031 Z-1.915
X207.121 Y594.081 Z-1.854
X207.119 Y594.117 Z-1.785
X207.118 Y594.14 Z-1.71
X207.117 Y594.148 Z-1.632
G0 Z10
X339.132 Y462.06
Z7
G1 Z4.384 F450
X339.126 Y462.065 Z4.306 F1000
X339.11 Y462.081 Z4.231
X339.083 Y462.106 Z4.162
X339.047 Y462.141 Z4.101
X339.003 Y462.182 Z4.051
X338.952 Y462.23 Z4.014
X338.898 Y462.281 Z3.992
X338.841 Y462.335 Z3.984
X338.55 Y462.609
G2 X338.534 Y463.175 I0.275 J0.291
G1 X355.685 Y481.335 Z3.112
G3 X344.268 Y504.892 Z1.93 I-10.178 J9.613
G1 X294.778 Y500.494 Z0.195
G2 X293.362 Y500.494 Z0.146 I-0.708 J7.969
G1 X245.73 Y504.727 Z-1.524
X243.872 Y504.892 F1500
G3 X232.454 Y481.335 I-1.24 J-13.945
G1 X268.527 Y443.141
G3 X273.616 Y440.947 I5.089 J4.806
G1 X314.524
G3 X319.613 Y443.141 I0 J7
G1 X355.685 Y481.335
G3 X344.268 Y504.892 I-10.178 J9.613
G1 X294.778 Y500.494
G2 X293.362 Y500.494 I-0.708 J7.969
G1 X245.73 Y504.727
G2 X245.367 Y505.161 I0.035 J0.398
G1 X245.402 Y505.559
X245.409 Y505.637 Z-1.516
X245.416 Y505.712 Z-1.494
X245.422 Y505.781 Z-1.457
X245.427 Y505.841 Z-1.407
X245.431 Y505.891 Z-1.346
X245.435 Y505.927 Z-1.277
X245.437 Y505.95 Z-1.202
Y505.958 Z-1.124
G0 Z10
X304.063 Y504.687
Z7
G1 Z3.876 F450
X304.064 Y504.695 Z3.798 F1000
X304.065 Y504.717 Z3.723
X304.067 Y504.754 Z3.654
X304.069 Y504.804 Z3.593
X304.072 Y504.865 Z3.543
X304.075 Y504.934 Z3.506
X304.079 Y505.009 Z3.484
X304.083 Y505.087 Z3.476
X304.102 Y505.486
G2 X304.521 Y505.866 I0.4 J-0.019
X312.435 Y505.35 Z3.199 I-11.513 J-237.304
G3 X318.321 Y516.882 Z2.622 I0.572 J6.976
G2 X318.321 Y587.769 Z-0.074 I41.341 J35.444
G3 X312.436 Y599.302 Z-0.651 I-5.314 J4.556
G2 X273.58 Y599.302 Z-2.009 I-19.428 J236.788
G3 X272.93 Y599.325 Z-2.032 I-0.573 J-6.976
X266.085 Y591.282 I0.077 J-6.999 F1500
G2 X266.085 Y513.37 I-258.245 J-38.956
G3 X273.58 Y505.35 I6.922 J-1.044
G2 X312.435 Y505.35 I19.428 J-236.788
G3 X318.321 Y516.882 I0.572 J6.976
G2 X318.321 Y587.769 I41.341 J35.444
G3 X312.436 Y599.302 I-5.314 J4.556
G2 X273.58 Y599.302 I-19.428 J236.788
G3 X272.93 Y599.325 I-0.573 J-6.976
G2 X272.525 Y599.721 I-0.004 J0.4
G1 X272.521 Y600.121
X272.52 Y600.199 Z-2.024
X272.519 Y600.274 Z-2.002
Y600.343 Z-1.965
X272.518 Y600.404 Z-1.915
X272.517 Y600.453 Z-1.854
Y600.49 Z-1.785
Y600.513 Z-1.71
Y600.521 Z-1.632
G0 Z10
X361.874 Y507.179
Z7
G1 Z3.876 F450
X361.875 Y507.187 Z3.798 F1000
X361.876 Y507.21 Z3.723
X361.878 Y507.246 Z3.654
X361.88 Y507.296 Z3.593
X361.883 Y507.357 Z3.543
X361.886 Y507.426 Z3.506
X361.89 Y507.501 Z3.484
X361.894 Y507.579 Z3.476
X361.914 Y507.978
G2 X362.333 Y508.358 I0.4 J-0.02
X370.078 Y507.85 Z3.205 I-11.682 J-237.296
G3 X375.964 Y519.382 Z2.628 I0.572 J6.976
G2 X375.964 Y590.269 Z-0.068 I41.34 J35.444
G3 X370.079 Y601.802 Z-0.645 I-5.314 J4.556
G2 X331.223 Y601.802 Z-2.003 I-19.428 J236.787
G3 X330.404 Y601.821 Z-2.032 I-0.573 J-6.976
X323.728 Y593.782 I0.246 J-6.996 F1500
G2 X323.728 Y515.87 I-258.245 J-38.956
G3 X331.223 Y507.85 I6.922 J-1.044
G2 X370.078 Y507.85 I19.428 J-236.788
G3 X375.964 Y519.382 I0.572 J6.976
G2 X375.964 Y590.269 I41.34 J35.444
G3 X370.079 Y601.802 I-5.314 J4.556
G2 X331.223 Y601.802 I-19.428 J236.787
G3 X330.404 Y601.821 I-0.573 J-6.976
G2 X329.99 Y602.207 I-0.014 J0.4
G1 X329.976 Y602.607
X329.973 Y602.685 Z-2.024
X329.971 Y602.76 Z-2.002
X329.968 Y602.829 Z-1.965
X329.966 Y602.89 Z-1.915
X329.964 Y602.939 Z-1.854
X329.963 Y602.976 Z-1.785
X329.962 Y602.999 Z-1.71
Y603.007 Z-1.632
G0 Z10
X459.859 Y478.976
Z7
G1 Z4.892 F450
X459.866 Y478.98 Z4.814 F1000
X459.887 Y478.99 Z4.739
X459.92 Y479.006 Z4.67
X459.964 Y479.028 Z4.609
X460.019 Y479.055 Z4.559
X460.081 Y479.085 Z4.522
X460.148 Y479.119 Z4.5
X460.218 Y479.153 Z4.492
X460.577 Y479.33
G2 X461.113 Y479.147 I0.177 J-0.359
G3 X462.764 Y476.25 Z4.375 I24.674 J12.142
G1 X477.415 Y453.82 Z3.44
G3 X494.158 Y453.82 Z2.747 I8.372 J5.469
G1 X504.736 Y470.013 Z2.072
X504.737 Y470.014
G2 X505.167 Y470.613 Z2.046 I6.705 J-4.365
X510.815 Y470.012 Z1.843 I2.033 J-7.737
G3 X522.417 Y477.588 Z1.258 I3.614 J7.137
G2 X526.031 Y484.725 Z0.965 I7.988 J0.44
G1 X533.927 Y489.881 Z0.636
G2 X541.915 Y490.321 Z0.343 I4.375 J-6.698
G3 X553.436 Y498.678 Z-0.269 I3.615 J7.136
G2 X555.068 Y504.86 Z-0.499 I7.906 J1.219
G3 X559.05 Y518.739 Z-1.016 I-14.902 J11.786
X534.656 Y534.83 I-18.884 J-2.092 F1500
G1 X514.043 Y528.585
G2 X506.253 Y530.404 I-2.32 J7.656
G3 X492.991 Y526.387 I-5.471 J-5.837
G2 X487.52 Y520.549 I-7.791 J1.819
G1 X477.813 Y517.608
G3 X462.764 Y476.25 I7.974 J-26.319
G1 X477.415 Y453.82
G3 X494.158 Y453.82 I8.372 J5.469
G1 X504.736 Y470.013
X504.737 Y470.014
G2 X505.167 Y470.613 I6.705 J-4.365
X510.815 Y470.012 I2.033 J-7.737
G3 X522.417 Y477.588 I3.614 J7.137
G2 X526.031 Y484.725 I7.988 J0.44
G1 X533.927 Y489.881
G2 X541.915 Y490.321 I4.375 J-6.698
G3 X553.436 Y498.678 I3.615 J7.136
G2 X555.068 Y504.86 I7.906 J1.219
G3 X559.05 Y518.739 I-14.902 J11.786
G2 X559.403 Y519.18 I0.398 J0.044
G1 X559.801 Y519.224
X559.878 Y519.233 Z-1.008
X559.953 Y519.241 Z-0.986
X560.022 Y519.249 Z-0.949
X560.082 Y519.256 Z-0.899
X560.131 Y519.261 Z-0.838
X560.168 Y519.265 Z-0.769
X560.191 Y519.268 Z-0.694
X560.198 Z-0.616
G0 Z10
X495.445 Y538.074
Z7
G1 Z4.384 F450
X495.44 Y538.079 Z4.306 F1000
X495.424 Y538.095 Z4.231
X495.397 Y538.121 Z4.162
X495.362 Y538.156 Z4.101
X495.319 Y538.199 Z4.051
X495.27 Y538.248 Z4.014
X495.217 Y538.301 Z3.992
X495.162 Y538.356 Z3.984
X494.879 Y538.639
G2 X494.879 Y539.205 I0.283 J0.283
G1 X501.674 Y545.999 Z3.648
G2 X507.46 Y548.341 Z3.425 I5.657 J-5.657
G3 X507.942 Y548.341 Z3.408 I0.241 J14.998
G2 X513.727 Y545.999 Z3.184 I0.128 J-7.999
G1 X521.044 Y538.683 Z2.822
G3 X532.358 Y538.682 Z2.384 I5.657 J5.656
X532.357 Y549.996 Z1.945 I-5.657 J5.657
G1 X525.041 Y557.313 Z1.583
G2 X522.699 Y563.098 Z1.36 I5.656 J5.657
G3 X522.699 Y563.58 Z1.343 I-14.998 J0.241
G2 X525.041 Y569.366 Z1.119 I7.999 J0.128
G1 X532.357 Y576.683 Z0.758
G3 X532.358 Y587.997 Z0.319 I-5.656 J5.657
X521.044 Y587.996 Z-0.12 I-5.657 J-5.657
G1 X513.727 Y580.679 Z-0.482
G2 X507.942 Y578.338 Z-0.705 I-5.656 J5.657
G3 X507.46 Y578.338 Z-0.722 I-0.241 J-14.999
G2 X501.674 Y580.679 Z-0.946 I-0.13 J7.999
G1 X494.357 Y587.996 Z-1.307
G3 X488.783 Y590.338 Z-1.524 I-5.656 J-5.657
X483.044 Y576.683 I-0.082 J-7.999 F1500
G1 X490.361 Y569.366
G2 X492.702 Y563.58 I-5.657 J-5.656
G3 X492.702 Y563.098 I14.999 J-0.241
G2 X490.361 Y557.313 I-7.999 J-0.129
G1 X483.044 Y549.996
G3 X483.043 Y538.682 I5.656 J-5.657
X494.357 Y538.683 I5.657 J5.657
G1 X501.674 Y545.999
G2 X507.46 Y548.341 I5.657 J-5.657
G3 X507.942 Y548.341 I0.241 J14.998
G2 X513.727 Y545.999 I0.128 J-7.999
G1 X521.044 Y538.683
G3 X532.358 Y538.682 I5.657 J5.656
X532.357 Y549.996 I-5.657 J5.657
G1 X525.041 Y557.313
G2 X522.699 Y563.098 I5.656 J5.657
G3 X522.699 Y563.58 I-14.998 J0.241
G2 X525.041 Y569.366 I7.999 J0.128
G1 X532.357 Y576.683
G3 X532.358 Y587.997 I-5.656 J5.657
X521.044 Y587.996 I-5.657 J-5.657
G1 X513.727 Y580.679
G2 X507.942 Y578.338 I-5.656 J5.657
G3 X507.46 Y578.338 I-0.241 J-14.999
G2 X501.674 Y580.679 I-0.13 J7.999
G1 X494.357 Y587.996
G3 X488.783 Y590.338 I-5.656 J-5.657
G2 X488.387 Y590.742 I0.004 J0.4
G1 X488.391 Y591.142
X488.392 Y591.22 Z-1.516
X488.393 Y591.296 Z-1.494
X488.394 Y591.365 Z-1.457
Y591.425 Z-1.407
X488.395 Y591.475 Z-1.346
Y591.512 Z-1.277
Y591.535 Z-1.202
X488.396 Y591.542 Z-1.124
G0 Z10
X445.658 Y523.637
Z7
G1 Z4.384 F450
X445.652 Y523.643 Z4.306 F1000
X445.636 Y523.659 Z4.231
X445.61 Y523.685 Z4.162
X445.575 Y523.72 Z4.101
X445.532 Y523.763 Z4.051
X445.483 Y523.812 Z4.014
X445.43 Y523.865 Z3.992
X445.375 Y523.92 Z3.984
X445.092 Y524.203
G2 X445.092 Y524.769 I0.283 J0.283
G1 X451.734 Y531.411 Z3.656
G2 X457.519 Y533.752 Z3.432 I5.656 J-5.657
G3 X458.001 Y533.752 Z3.415 I0.241 J14.999
G2 X463.787 Y531.411 Z3.191 I0.13 J-7.999
G1 X471.104 Y524.094 Z2.83
G3 X482.417 Y535.407 Z1.952 I5.656 J5.657
G1 X475.1 Y542.724 Z1.591
G2 X472.759 Y548.51 Z1.367 I5.657 J5.656
G3 X472.759 Y548.992 Z1.35 I-14.999 J0.241
G2 X475.1 Y554.777 Z1.126 I7.999 J0.129
G1 X482.417 Y562.094 Z0.765
G3 X471.104 Y573.407 Z-0.112 I-5.657 J5.656
G1 X463.787 Y566.091 Z-0.474
G2 X458.001 Y563.749 Z-0.698 I-5.657 J5.656
G3 X457.519 Y563.749 Z-0.715 I-0.241 J-14.998
G2 X451.734 Y566.091 Z-0.938 I-0.128 J7.999
G1 X444.417 Y573.407 Z-1.3
G3 X438.623 Y575.75 Z-1.524 I-5.657 J-5.656
X433.104 Y562.094 I0.137 J-7.999 F1500
G1 X440.42 Y554.777
G2 X442.762 Y548.992 I-5.656 J-5.657
G3 X442.762 Y548.51 I14.998 J-0.241
G2 X440.42 Y542.724 I-7.999 J-0.128
G1 X433.104 Y535.407
G3 X433.103 Y524.093 I5.656 J-5.657
X444.417 Y524.094 I5.657 J5.657
G1 X451.734 Y531.411
G2 X457.519 Y533.752 I5.656 J-5.657
G3 X458.001 Y533.752 I0.241 J14.999
G2 X463.787 Y531.411 I0.13 J-7.999
G1 X471.104 Y524.094
G3 X482.417 Y535.407 I5.656 J5.657
G1 X475.1 Y542.724
G2 X472.759 Y548.51 I5.657 J5.656
G3 X472.759 Y548.992 I-14.999 J0.241
G2 X475.1 Y554.777 I7.999 J0.129
G1 X482.417 Y562.094
G3 X471.104 Y573.407 I-5.657 J5.656
G1 X463.787 Y566.091
G2 X458.001 Y563.749 I-5.657 J5.656
G3 X457.519 Y563.749 I-0.241 J-14.998
G2 X451.734 Y566.091 I-0.128 J7.999
G1 X444.417 Y573.407
G3 X438.623 Y575.75 I-5.657 J-5.656
G2 X438.216 Y576.143 I-0.007 J0.4
G1 X438.209 Y576.543
X438.208 Y576.621 Z-1.516
X438.206 Y576.696 Z-1.494
X438.205 Y576.765 Z-1.457
X438.204 Y576.825 Z-1.407
X438.203 Y576.875 Z-1.346
Y576.912 Z-1.277
X438.202 Y576.935 Z-1.202
Y576.943 Z-1.124
G0 Z10
X374.781 Y441.862
Z7
G1 Z4.384 F450
X374.78 Y441.87 Z4.306 F1000
X374.778 Y441.892 Z4.231
X374.775 Y441.929 Z4.162
X374.771 Y441.979 Z4.101
X374.765 Y442.039 Z4.051
X374.759 Y442.108 Z4.014
X374.753 Y442.183 Z3.992
X374.746 Y442.261 Z3.984
X374.71 Y442.659
G2 X375.073 Y443.093 I0.398 J0.035
G1 X404.252 Y445.686 Z2.961
G2 X405.669 Y445.686 Z2.911 I0.708 J-7.969
G1 X455.159 Y441.288 Z1.176
G3 X466.576 Y464.846 Z-0.005 I1.239 J13.945
G1 X436.705 Y496.472 Z-1.524
X430.503 Y503.039 F1500
G3 X425.414 Y505.233 I-5.089 J-4.806
G1 X384.507
G3 X379.418 Y503.039 I0 J-7
G1 X343.345 Y464.846
G3 X354.762 Y441.288 I10.178 J-9.613
G1 X404.252 Y445.686
G2 X405.669 Y445.686 I0.708 J-7.969
G1 X455.159 Y441.288
G3 X466.576 Y464.846 I1.239 J13.945
G1 X436.705 Y496.472
G2 X436.721 Y497.038 I0.291 J0.275
G1 X437.012 Y497.313
X437.069 Y497.366 Z-1.516
X437.124 Y497.418 Z-1.494
X437.174 Y497.465 Z-1.457
X437.218 Y497.507 Z-1.407
X437.254 Y497.541 Z-1.346
X437.281 Y497.566 Z-1.277
X437.297 Y497.582 Z-1.202
X437.303 Y497.587 Z-1.124
G0 Z10
X392.252 Y506.976
Z7
G1 Z3.876 F450
X392.249 Y506.983 Z3.798 F1000
X392.24 Y507.004 Z3.723
X392.226 Y507.038 Z3.654
X392.206 Y507.084 Z3.593
X392.182 Y507.139 Z3.543
X392.155 Y507.203 Z3.506
X392.125 Y507.272 Z3.484
X392.094 Y507.343 Z3.476
X391.936 Y507.711
G2 X392.145 Y508.236 I0.367 J0.158
G3 X394.634 Y509.926 Z3.37 I-3.168 J7.347
G1 X401.95 Y517.243 Z3.009
G2 X407.736 Y519.585 Z2.785 I5.657 J-5.657
G3 X408.218 Y519.585 Z2.768 I0.241 J14.998
G2 X414.004 Y517.243 Z2.544 I0.128 J-7.999
G1 X421.32 Y509.926 Z2.183
G3 X432.634 Y509.926 Z1.744 I5.657 J5.657
X432.634 Y521.24 Z1.305 I-5.657 J5.657
G1 X425.317 Y528.556 Z0.944
G2 X422.975 Y534.342 Z0.72 I5.657 J5.657
G3 X422.975 Y534.824 Z0.703 I-14.998 J0.241
G2 X425.317 Y540.61 Z0.479 I7.999 J0.128
G1 X432.634 Y547.926 Z0.118
G3 X432.634 Y559.24 Z-0.321 I-5.657 J5.657
X421.32 Y559.24 Z-0.76 I-5.657 J-5.657
G1 X414.004 Y551.923 Z-1.121
G2 X408.218 Y549.581 Z-1.345 I-5.657 J5.657
G3 X407.736 Y549.581 Z-1.362 I-0.241 J-14.998
G2 X401.95 Y551.923 Z-1.586 I-0.128 J7.999
G1 X394.634 Y559.24 Z-1.947
G3 X392.683 Y560.674 Z-2.032 I-5.657 J-5.657
