(0.75mm depth 1143 full cut)
(T1  D=4 CR=0 - ZMIN=-3 - flat end mill)
G90 G94
G17
G21
G28 G91 Z0
G90

(0.75mm depth 1143 full cut)
T1
S10000 M3
G54
G0 X111.446 Y369.3
Z15
Z7
G1 Z5.4 F450
G19 G2 Y368.9 Z5 J-0.4 K0 F1000
G1 Y368.5
G17 G2 X111.046 Y368.1 I-0.4 J0
G1 X14.343 Z1.623
G3 X12.929 Y367.514 Z1.568 I0 J-2
G1 X6.586 Y361.171 Z1.255
G3 X6 Y359.757 Z1.2 I1.414 J-1.414
G1 Y303.913 Z-0.75
Y302.1 F1143
G3 X8 Y300.1 I2 J0
G1 X448
G3 X450 Y302.1 I0 J2
G1 Y359.757
G3 X449.414 Y361.171 I-2 J0
G1 X443.071 Y367.514
G3 X441.657 Y368.1 I-1.414 J-1.414
G1 X14.343
G3 X12.929 Y367.514 I0 J-2
G1 X6.586 Y361.171
G3 X6 Y359.757 I1.414 J-1.414
G1 Y303.913
G2 X5.6 Y303.513 I-0.4 J0
G1 X5.2
G18 G3 X4.8 Z-0.35 I0 K0.4
G0 Z10
X167.303 Y298.95
Z7
G1 Z5.4 F450
G19 G2 Y298.55 Z5 J-0.4 K0 F1000
G1 Y298.15
G17 G2 X166.903 Y297.75 I-0.4 J0
G1 X14.343 Z-0.327
G3 X12.929 Y297.164 Z-0.382 I0 J-2
G1 X6.586 Y290.821 Z-0.696
G3 X6 Y289.42 Z-0.75 I1.414 J-1.414
G1 Y289.407 F1143
Y231.75
G3 X8 Y229.75 I2 J0
G1 X448
G3 X450 Y231.75 I0 J2
G1 Y289.407
G3 X449.414 Y290.821 I-2 J0
G1 X443.071 Y297.164
G3 X441.657 Y297.75 I-1.414 J-1.414
G1 X14.343
G3 X12.929 Y297.164 I0 J-2
G1 X6.586 Y290.821
G3 X6 Y289.42 I1.414 J-1.414
G2 X5.597 Y289.023 I-0.4 J0.003
G1 X5.197 Y289.025
X5.119 Y289.026 Z-0.742
X5.044 Z-0.72
X4.975 Y289.027 Z-0.683
X4.915 Z-0.633
X4.865 Y289.028 Z-0.572
X4.828 Z-0.503
X4.805 Z-0.428
X4.797 Z-0.35
G0 Z10
X167.304 Y228.6
Z7
G1 Z5.4 F450
G19 G2 Y228.2 Z5 J-0.4 K0 F1000
G1 Y227.8
G17 G2 X166.904 Y227.4 I-0.4 J0
G1 X14.343 Z-0.328
G3 X12.929 Y226.814 Z-0.382 I0 J-2
G1 X6.586 Y220.471 Z-0.696
G3 X6 Y219.072 Z-0.75 I1.414 J-1.414
G1 Y219.057 F1143
Y161.4
G3 X8 Y159.4 I2 J0
G1 X448
G3 X450 Y161.4 I0 J2
G1 Y200.374
Y219.057
G3 X449.414 Y220.471 I-2 J0
G1 X443.071 Y226.814
G3 X441.657 Y227.4 I-1.414 J-1.414
G1 X14.343
G3 X12.929 Y226.814 I0 J-2
G1 X6.586 Y220.471
G3 X6 Y219.072 I1.414 J-1.414
G2 X5.597 Y218.675 I-0.4 J0.003
G1 X5.197 Y218.678
X5.119 Z-0.742
X5.044 Y218.679 Z-0.72
X4.975 Z-0.683
X4.914 Y218.68 Z-0.633
X4.865 Z-0.572
X4.828 Z-0.503
X4.805 Y218.681 Z-0.428
X4.797 Z-0.35
G0 Z10
X169.925 Y158.25
Z7
G1 Z5.4 F450
G19 G2 Y157.85 Z5 J-0.4 K0 F1000
G1 Y157.45
G17 G2 X169.525 Y157.05 I-0.4 J0
G1 X8 Z-0.641
G3 X6 Y155.058 Z-0.75 I0 J-2
G1 Y155.05 F1143
Y84.7
G3 X8 Y82.7 I2 J0
G1 X448
G3 X450 Y84.7 I0 J2
G1 Y155.05
G3 X448 Y157.05 I-2 J0
G1 X8
G3 X6 Y155.058 I0 J-2
G2 X5.598 Y154.66 I-0.4 J0.002
G1 X5.198 Y154.662
X5.12 Z-0.742
X5.045 Z-0.72
X4.976 Z-0.683
X4.916 Y154.663 Z-0.633
X4.866 Z-0.572
X4.829 Z-0.503
X4.806 Z-0.428
X4.798 Z-0.35
G0 Z10
X132.461 Y4.8
Z7
G1 Z5.4 F450
G19 G3 Y5.2 Z5 J0.4 K0 F1000
G1 Y5.6
G17 G2 X132.861 Y6 I0.4 J0
G1 X297.519 Z-0.75
X448 F1143
G3 X450 Y8 I0 J2
G1 Y78.35
G3 X448 Y80.35 I-2 J0
G1 X8
G3 X6 Y78.35 I0 J-2
G1 Y8
G3 X8 Y6 I2 J0
G1 X297.519
G2 X297.919 Y5.6 I0 J-0.4
G1 Y5.2
G19 G2 Y4.8 Z-0.35 J0 K0.4
G0 Z10
X535.719 Y62.279
Z7
G1 Z5.4 F450
G2 Y61.879 Z5 J-0.4 K0 F1000
G1 Y61.479
G17 G2 X535.319 Y61.079 I-0.4 J0
G1 X483.834 Z3.202
G3 X476.703 Y59.743 Z2.947 I0 J-19.7
G1 X458.244 Y52.575 Z2.256
G3 X453.172 Y44.395 Z1.895 I2.896 J-7.458
G1 X454.215 Y32.895 Z1.492
G3 X457.316 Y27.268 Z1.261 I7.968 J0.723
G1 X477.104 Y12.105 Z0.39
G3 X480.772 Y10.545 Z0.25 I4.866 J6.35
G1 X506.889 Y6.59 Z-0.673
G3 X509.094 Y6.382 Z-0.75 I2.95 J19.478
X513.524 Y6.716 I0.744 J19.686 F1143
G1 X534.207 Y10.655
G3 X535.145 Y10.893 I-1.494 J7.859
G1 X582.429 Y25.997
G3 X587.962 Y32.895 I-2.434 J7.621
G1 X589.005 Y44.395
G3 X583.934 Y52.575 I-7.967 J0.723
G1 X565.475 Y59.743
G3 X558.344 Y61.079 I-7.131 J-18.364
G1 X483.834
G3 X476.703 Y59.743 I0 J-19.7
G1 X458.244 Y52.575
G3 X453.172 Y44.395 I2.896 J-7.458
G1 X454.215 Y32.895
G3 X457.316 Y27.268 I7.968 J0.723
G1 X477.104 Y12.105
G3 X480.772 Y10.545 I4.866 J6.35
G1 X506.889 Y6.59
G3 X509.094 Y6.382 I2.95 J19.478
G2 X509.479 Y5.967 I-0.015 J-0.4
G1 X509.464 Y5.567
X509.461 Y5.489 Z-0.742
X509.458 Y5.414 Z-0.72
X509.456 Y5.345 Z-0.683
X509.453 Y5.285 Z-0.633
X509.451 Y5.235 Z-0.572
X509.45 Y5.198 Z-0.503
X509.449 Y5.175 Z-0.428
Y5.168 Z-0.35
G0 Z10
X452.807 Y92.536
Z7
G1 Z5.4 F450
X452.815 Y92.537 Z5.322 F1000
X452.838 Y92.539 Z5.247
X452.875 Y92.543 Z5.178
X452.924 Y92.547 Z5.117
X452.985 Y92.552 Z5.067
X453.053 Y92.559 Z5.03
X453.128 Y92.566 Z5.008
X453.206 Y92.573 Z5
X453.604 Y92.609
G2 X454.039 Y92.246 I0.036 J-0.398
G1 X454.215 Y90.301 Z4.932
G3 X457.316 Y84.673 Z4.701 I7.968 J0.723
G1 X477.104 Y69.51 Z3.83
G3 X480.772 Y67.95 Z3.69 I4.866 J6.35
G1 X506.889 Y63.995 Z2.767
G3 X513.524 Y64.121 Z2.534 I2.95 J19.478
G1 X534.207 Y68.06 Z1.799
G3 X535.145 Y68.299 Z1.765 I-1.495 J7.859
G1 X582.429 Y83.403 Z0.032
G3 X587.962 Y90.301 Z-0.295 I-2.434 J7.62
G1 X589.005 Y101.8 Z-0.698
G3 X589.002 Y103.274 Z-0.75 I-7.967 J0.723
X583.934 Y109.98 I-7.964 J-0.751 F1143
G1 X565.475 Y117.148
G3 X558.344 Y118.485 I-7.133 J-18.363
G1 X483.834
G3 X476.703 Y117.148 I0.002 J-19.7
G1 X458.244 Y109.98
G3 X453.172 Y101.8 I2.896 J-7.458
G1 X454.215 Y90.301
G3 X457.316 Y84.673 I7.968 J0.723
G1 X477.104 Y69.51
G3 X480.772 Y67.95 I4.866 J6.35
G1 X506.889 Y63.995
G3 X513.524 Y64.121 I2.95 J19.478
G1 X534.207 Y68.06
G3 X535.145 Y68.299 I-1.495 J7.859
G1 X582.429 Y83.403
G3 X587.962 Y90.301 I-2.434 J7.62
G1 X589.005 Y101.8
G3 X589.002 Y103.274 I-7.967 J0.723
G2 X589.363 Y103.71 I0.398 J0.038
G1 X589.761 Y103.747
X589.839 Y103.755 Z-0.742
X589.914 Y103.762 Z-0.72
X589.982 Y103.768 Z-0.683
X590.043 Y103.774 Z-0.633
X590.092 Y103.779 Z-0.572
X590.129 Y103.782 Z-0.503
X590.152 Y103.784 Z-0.428
X590.159 Y103.785 Z-0.35
G0 Z10
X462.926 Y148.801
Z7
G1 Z5.4 F450
X462.932 Y148.795 Z5.322 F1000
X462.948 Y148.78 Z5.247
X462.975 Y148.754 Z5.178
X463.012 Y148.72 Z5.117
X463.056 Y148.679 Z5.067
X463.106 Y148.631 Z5.03
X463.16 Y148.58 Z5.008
X463.217 Y148.526 Z5
X463.508 Y148.251
G2 X463.524 Y147.686 I-0.275 J-0.291
G1 X459.635 Y143.568 Z4.802
G3 X471.053 Y120.011 Z3.621 I10.178 J-9.613
G1 X520.543 Y124.409 Z1.886
G2 X521.959 Y124.409 Z1.836 I0.708 J-7.969
G1 X571.449 Y120.011 Z0.101
G3 X586.642 Y135.101 Z-0.75 I1.24 J13.945
X582.867 Y143.568 I-13.953 J-1.145 F1143
G1 X546.794 Y181.762
G3 X541.705 Y183.956 I-5.089 J-4.806
G1 X535.95
G3 X506.552 Y183.956 I-14.699 J-27.86
G1 X500.797
G3 X495.708 Y181.762 I0 J-7
G1 X459.635 Y143.568
G3 X471.053 Y120.011 I10.178 J-9.613
G1 X520.543 Y124.409
G2 X521.959 Y124.409 I0.708 J-7.969
G1 X571.449 Y120.011
G3 X586.642 Y135.101 I1.24 J13.945
G2 X587.008 Y135.532 I0.399 J0.033
G1 X587.406 Y135.565
X587.484 Y135.571 Z-0.742
X587.559 Y135.577 Z-0.72
X587.628 Y135.583 Z-0.683
X587.688 Y135.588 Z-0.633
X587.738 Y135.592 Z-0.572
X587.775 Y135.595 Z-0.503
X587.797 Y135.597 Z-0.428
X587.805 Z-0.35
G0 Z10
X452.807 Y92.536
Z7
G1 Z4.65 F450
X452.815 Y92.537 Z4.572 F1000
X452.838 Y92.539 Z4.497
X452.875 Y92.543 Z4.428
X452.924 Y92.547 Z4.367
X452.985 Y92.552 Z4.317
X453.053 Y92.559 Z4.28
X453.128 Y92.566 Z4.258
X453.206 Y92.573 Z4.25
X453.604 Y92.609
G2 X454.039 Y92.246 I0.036 J-0.398
G1 X454.215 Y90.301 Z4.182
G3 X457.316 Y84.673 Z3.951 I7.968 J0.723
G1 X477.104 Y69.51 Z3.08
G3 X480.772 Y67.95 Z2.94 I4.866 J6.35
G1 X506.889 Y63.995 Z2.017
G3 X513.524 Y64.121 Z1.784 I2.95 J19.478
G1 X534.207 Y68.06 Z1.049
G3 X535.145 Y68.299 Z1.015 I-1.495 J7.859
G1 X582.429 Y83.403 Z-0.718
G3 X587.962 Y90.301 Z-1.045 I-2.434 J7.62
G1 X589.005 Y101.8 Z-1.448
G3 X589.002 Y103.274 Z-1.5 I-7.967 J0.723
X583.934 Y109.98 I-7.964 J-0.751 F1143
G1 X565.475 Y117.148
G3 X558.344 Y118.485 I-7.133 J-18.363
G1 X483.834
G3 X476.703 Y117.148 I0.002 J-19.7
G1 X458.244 Y109.98
G3 X453.172 Y101.8 I2.896 J-7.458
G1 X454.215 Y90.301
G3 X457.316 Y84.673 I7.968 J0.723
G1 X477.104 Y69.51
G3 X480.772 Y67.95 I4.866 J6.35
G1 X506.889 Y63.995
G3 X513.524 Y64.121 I2.95 J19.478
G1 X534.207 Y68.06
G3 X535.145 Y68.299 I-1.495 J7.859
G1 X582.429 Y83.403
G3 X587.962 Y90.301 I-2.434 J7.62
G1 X589.005 Y101.8
G3 X589.002 Y103.274 I-7.967 J0.723
G2 X589.363 Y103.71 I0.398 J0.038
G1 X589.761 Y103.747
X589.839 Y103.755 Z-1.492
X589.914 Y103.762 Z-1.47
X589.982 Y103.768 Z-1.433
X590.043 Y103.774 Z-1.383
X590.092 Y103.779 Z-1.322
X590.129 Y103.782 Z-1.253
X590.152 Y103.784 Z-1.178
X590.159 Y103.785 Z-1.1
G0 Z10
X535.719 Y62.279
Z7
G1 Z4.65 F450
G19 G2 Y61.879 Z4.25 J-0.4 K0 F1000
G1 Y61.479
G17 G2 X535.319 Y61.079 I-0.4 J0
G1 X483.834 Z2.452
G3 X476.703 Y59.743 Z2.197 I0 J-19.7
G1 X458.244 Y52.575 Z1.506
G3 X453.172 Y44.395 Z1.145 I2.896 J-7.458
G1 X454.215 Y32.895 Z0.742
G3 X457.316 Y27.268 Z0.511 I7.968 J0.723
G1 X477.104 Y12.105 Z-0.36
G3 X480.772 Y10.545 Z-0.5 I4.866 J6.35
G1 X506.889 Y6.59 Z-1.423
G3 X509.094 Y6.382 Z-1.5 I2.95 J19.478
X513.524 Y6.716 I0.744 J19.686 F1143
G1 X534.207 Y10.655
G3 X535.145 Y10.893 I-1.494 J7.859
G1 X582.429 Y25.997
G3 X587.962 Y32.895 I-2.434 J7.621
G1 X589.005 Y44.395
G3 X583.934 Y52.575 I-7.967 J0.723
G1 X565.475 Y59.743
G3 X558.344 Y61.079 I-7.131 J-18.364
G1 X483.834
G3 X476.703 Y59.743 I0 J-19.7
G1 X458.244 Y52.575
G3 X453.172 Y44.395 I2.896 J-7.458
G1 X454.215 Y32.895
G3 X457.316 Y27.268 I7.968 J0.723
G1 X477.104 Y12.105
G3 X480.772 Y10.545 I4.866 J6.35
G1 X506.889 Y6.59
G3 X509.094 Y6.382 I2.95 J19.478
G2 X509.479 Y5.967 I-0.015 J-0.4
G1 X509.464 Y5.567
X509.461 Y5.489 Z-1.492
X509.458 Y5.414 Z-1.47
X509.456 Y5.345 Z-1.433
X509.453 Y5.285 Z-1.383
X509.451 Y5.235 Z-1.322
X509.45 Y5.198 Z-1.253
X509.449 Y5.175 Z-1.178
Y5.168 Z-1.1
G0 Z10
X132.461 Y4.8
Z7
G1 Z4.65 F450
G19 G3 Y5.2 Z4.25 J0.4 K0 F1000
G1 Y5.6
G17 G2 X132.861 Y6 I0.4 J0
G1 X297.519 Z-1.5
X448 F1143
G3 X450 Y8 I0 J2
G1 Y78.35
G3 X448 Y80.35 I-2 J0
G1 X8
G3 X6 Y78.35 I0 J-2
G1 Y8
G3 X8 Y6 I2 J0
G1 X297.519
G2 X297.919 Y5.6 I0 J-0.4
G1 Y5.2
G19 G2 Y4.8 Z-1.1 J0 K0.4
G0 Z10
X169.925 Y158.25
Z7
G1 Z4.65 F450
G2 Y157.85 Z4.25 J-0.4 K0 F1000
G1 Y157.45
G17 G2 X169.525 Y157.05 I-0.4 J0
G1 X8 Z-1.391
G3 X6 Y155.058 Z-1.5 I0 J-2
G1 Y155.05 F1143
Y84.7
G3 X8 Y82.7 I2 J0
G1 X448
G3 X450 Y84.7 I0 J2
G1 Y155.05
G3 X448 Y157.05 I-2 J0
G1 X8
G3 X6 Y155.058 I0 J-2
G2 X5.598 Y154.66 I-0.4 J0.002
G1 X5.198 Y154.662
X5.12 Z-1.492
X5.045 Z-1.47
X4.976 Z-1.433
X4.916 Y154.663 Z-1.383
X4.866 Z-1.322
X4.829 Z-1.253
X4.806 Z-1.178
X4.798 Z-1.1
G0 Z10
X132.461 Y4.8
Z7
G1 Z3.9 F450
G19 G3 Y5.2 Z3.5 J0.4 K0 F1000
G1 Y5.6
G17 G2 X132.861 Y6 I0.4 J0
G1 X297.519 Z-2.25
X448 F1143
G3 X450 Y8 I0 J2
G1 Y78.35
G3 X448 Y80.35 I-2 J0
G1 X8
G3 X6 Y78.35 I0 J-2
G1 Y8
G3 X8 Y6 I2 J0
G1 X297.519
G2 X297.919 Y5.6 I0 J-0.4
G1 Y5.2
G19 G2 Y4.8 Z-1.85 J0 K0.4
G0 Z10
X535.719 Y62.279
Z7
G1 Z3.9 F450
G2 Y61.879 Z3.5 J-0.4 K0 F1000
G1 Y61.479
G17 G2 X535.319 Y61.079 I-0.4 J0
G1 X483.834 Z1.702
G3 X476.703 Y59.743 Z1.447 I0 J-19.7
G1 X458.244 Y52.575 Z0.756
G3 X453.172 Y44.395 Z0.395 I2.896 J-7.458
G1 X454.215 Y32.895 Z-0.008
G3 X457.316 Y27.268 Z-0.239 I7.968 J0.723
G1 X477.104 Y12.105 Z-1.11
G3 X480.772 Y10.545 Z-1.25 I4.866 J6.35
G1 X506.889 Y6.59 Z-2.173
G3 X509.094 Y6.382 Z-2.25 I2.95 J19.478
X513.524 Y6.716 I0.744 J19.686 F1143
G1 X534.207 Y10.655
G3 X535.145 Y10.893 I-1.494 J7.859
G1 X582.429 Y25.997
G3 X587.962 Y32.895 I-2.434 J7.621
G1 X589.005 Y44.395
G3 X583.934 Y52.575 I-7.967 J0.723
G1 X565.475 Y59.743
G3 X558.344 Y61.079 I-7.131 J-18.364
G1 X483.834
G3 X476.703 Y59.743 I0 J-19.7
G1 X458.244 Y52.575
G3 X453.172 Y44.395 I2.896 J-7.458
G1 X454.215 Y32.895
G3 X457.316 Y27.268 I7.968 J0.723
G1 X477.104 Y12.105
G3 X480.772 Y10.545 I4.866 J6.35
G1 X506.889 Y6.59
G3 X509.094 Y6.382 I2.95 J19.478
G2 X509.479 Y5.967 I-0.015 J-0.4
G1 X509.464 Y5.567
X509.461 Y5.489 Z-2.242
X509.458 Y5.414 Z-2.22
X509.456 Y5.345 Z-2.183
X509.453 Y5.285 Z-2.133
X509.451 Y5.235 Z-2.072
X509.45 Y5.198 Z-2.003
X509.449 Y5.175 Z-1.928
Y5.168 Z-1.85
G0 Z10
X460.546 Y215.786
Z7
G1 Z5.4 F450
X460.551 Y215.781 Z5.322 F1000
X460.568 Y215.765 Z5.247
X460.595 Y215.74 Z5.178
X460.631 Y215.706 Z5.117
X460.675 Y215.664 Z5.067
X460.725 Y215.616 Z5.03
X460.78 Y215.565 Z5.008
X460.836 Y215.511 Z5
X461.127 Y215.237
G2 X461.143 Y214.671 I-0.275 J-0.291
G1 X456.828 Y210.102 Z4.781
G3 X468.246 Y186.545 Z3.599 I10.178 J-9.613
G1 X517.736 Y190.943 Z1.864
G2 X519.152 Y190.943 Z1.815 I0.708 J-7.969
G1 X568.642 Y186.545 Z0.08
G3 X583.871 Y201.016 Z-0.75 I1.239 J13.945
X580.059 Y210.102 I-13.99 J-0.526 F1143
G1 X543.987 Y248.296
G3 X538.898 Y250.49 I-5.089 J-4.806
G1 X533.143
G3 X503.744 Y250.49 I-14.699 J-27.86
G1 X497.99
G3 X492.901 Y248.296 I0 J-7
G1 X456.828 Y210.102
G3 X468.246 Y186.545 I10.178 J-9.613
G1 X499.655 Y189.336
X517.736 Y190.943
G2 X519.152 Y190.943 I0.708 J-7.969
G1 X568.642 Y186.545
G3 X583.871 Y201.016 I1.239 J13.945
G2 X584.255 Y201.431 I0.4 J0.015
G1 X584.655 Y201.446
X584.733 Y201.449 Z-0.742
X584.808 Y201.452 Z-0.72
X584.877 Y201.454 Z-0.683
X584.938 Y201.457 Z-0.633
X584.988 Y201.459 Z-0.572
X585.025 Y201.46 Z-0.503
X585.047 Y201.461 Z-0.428
X585.055 Z-0.35
G0 Z10
X462.926 Y148.801
Z7
G1 Z4.65 F450
X462.932 Y148.795 Z4.572 F1000
X462.948 Y148.78 Z4.497
X462.975 Y148.754 Z4.428
X463.012 Y148.72 Z4.367
X463.056 Y148.679 Z4.317
X463.106 Y148.631 Z4.28
X463.16 Y148.58 Z4.258
X463.217 Y148.526 Z4.25
X463.508 Y148.251
G2 X463.524 Y147.686 I-0.275 J-0.291
G1 X459.635 Y143.568 Z4.052
G3 X471.053 Y120.011 Z2.871 I10.178 J-9.613
G1 X520.543 Y124.409 Z1.136
G2 X521.959 Y124.409 Z1.086 I0.708 J-7.969
G1 X571.449 Y120.011 Z-0.649
G3 X586.642 Y135.101 Z-1.5 I1.24 J13.945
X582.867 Y143.568 I-13.953 J-1.145 F1143
G1 X546.794 Y181.762
G3 X541.705 Y183.956 I-5.089 J-4.806
G1 X535.95
G3 X506.552 Y183.956 I-14.699 J-27.86
G1 X500.797
G3 X495.708 Y181.762 I0 J-7
G1 X459.635 Y143.568
G3 X471.053 Y120.011 I10.178 J-9.613
G1 X520.543 Y124.409
G2 X521.959 Y124.409 I0.708 J-7.969
G1 X571.449 Y120.011
G3 X586.642 Y135.101 I1.24 J13.945
G2 X587.008 Y135.532 I0.399 J0.033
G1 X587.406 Y135.565
X587.484 Y135.571 Z-1.492
X587.559 Y135.577 Z-1.47
X587.628 Y135.583 Z-1.433
X587.688 Y135.588 Z-1.383
X587.738 Y135.592 Z-1.322
X587.775 Y135.595 Z-1.253
X587.797 Y135.597 Z-1.178
X587.805 Z-1.1
G0 Z10
X452.807 Y92.536
Z7
G1 Z3.9 F450
X452.815 Y92.537 Z3.822 F1000
X452.838 Y92.539 Z3.747
X452.875 Y92.543 Z3.678
X452.924 Y92.547 Z3.617
X452.985 Y92.552 Z3.567
X453.053 Y92.559 Z3.53
X453.128 Y92.566 Z3.508
X453.206 Y92.573 Z3.5
X453.604 Y92.609
G2 X454.039 Y92.246 I0.036 J-0.398
G1 X454.215 Y90.301 Z3.432
G3 X457.316 Y84.673 Z3.201 I7.968 J0.723
G1 X477.104 Y69.51 Z2.33
G3 X480.772 Y67.95 Z2.19 I4.866 J6.35
G1 X506.889 Y63.995 Z1.267
G3 X513.524 Y64.121 Z1.034 I2.95 J19.478
G1 X534.207 Y68.06 Z0.299
G3 X535.145 Y68.299 Z0.265 I-1.495 J7.859
G1 X582.429 Y83.403 Z-1.468
G3 X587.962 Y90.301 Z-1.795 I-2.434 J7.62
G1 X589.005 Y101.8 Z-2.198
G3 X589.002 Y103.274 Z-2.25 I-7.967 J0.723
X583.934 Y109.98 I-7.964 J-0.751 F1143
G1 X565.475 Y117.148
G3 X558.344 Y118.485 I-7.133 J-18.363
G1 X483.834
G3 X476.703 Y117.148 I0.002 J-19.7
G1 X458.244 Y109.98
G3 X453.172 Y101.8 I2.896 J-7.458
G1 X454.215 Y90.301
G3 X457.316 Y84.673 I7.968 J0.723
G1 X477.104 Y69.51
G3 X480.772 Y67.95 I4.866 J6.35
G1 X506.889 Y63.995
G3 X513.524 Y64.121 I2.95 J19.478
G1 X534.207 Y68.06
G3 X535.145 Y68.299 I-1.495 J7.859
G1 X582.429 Y83.403
G3 X587.962 Y90.301 I-2.434 J7.62
G1 X589.005 Y101.8
G3 X589.002 Y103.274 I-7.967 J0.723
G2 X589.363 Y103.71 I0.398 J0.038
G1 X589.761 Y103.747
X589.839 Y103.755 Z-2.242
X589.914 Y103.762 Z-2.22
X589.982 Y103.768 Z-2.183
X590.043 Y103.774 Z-2.133
X590.092 Y103.779 Z-2.072
X590.129 Y103.782 Z-2.003
X590.152 Y103.784 Z-1.928
X590.159 Y103.785 Z-1.85
G0 Z10
X535.719 Y62.279
Z7
G1 Z3.15 F450
G19 G2 Y61.879 Z2.75 J-0.4 K0 F1000
G1 Y61.479
G17 G2 X535.319 Y61.079 I-0.4 J0
G1 X483.834 Z0.952
G3 X476.703 Y59.743 Z0.697 I0 J-19.7
G1 X458.244 Y52.575 Z0.006
G3 X453.172 Y44.395 Z-0.355 I2.896 J-7.458
G1 X454.215 Y32.895 Z-0.758
G3 X457.316 Y27.268 Z-0.989 I7.968 J0.723
G1 X477.104 Y12.105 Z-1.86
G3 X480.772 Y10.545 Z-2 I4.866 J6.35
G1 X506.889 Y6.59 Z-2.923
G3 X509.094 Y6.382 Z-3 I2.95 J19.478
X513.524 Y6.716 I0.744 J19.686 F1143
G1 X534.207 Y10.655
G3 X535.145 Y10.893 I-1.494 J7.859
G1 X582.429 Y25.997
G3 X587.962 Y32.895 I-2.434 J7.621
G1 X589.005 Y44.395
G3 X583.934 Y52.575 I-7.967 J0.723
G1 X565.475 Y59.743
G3 X558.344 Y61.079 I-7.131 J-18.364
G1 X483.834
G3 X476.703 Y59.743 I0 J-19.7
G1 X458.244 Y52.575
G3 X453.172 Y44.395 I2.896 J-7.458
G1 X454.215 Y32.895
G3 X457.316 Y27.268 I7.968 J0.723
G1 X477.104 Y12.105
G3 X480.772 Y10.545 I4.866 J6.35
G1 X506.889 Y6.59
G3 X509.094 Y6.382 I2.95 J19.478
G2 X509.479 Y5.967 I-0.015 J-0.4
G1 X509.464 Y5.567
X509.461 Y5.489 Z-2.992
X509.458 Y5.414 Z-2.97
X509.456 Y5.345 Z-2.933
X509.453 Y5.285 Z-2.883
X509.451 Y5.235 Z-2.822
X509.45 Y5.198 Z-2.753
X509.449 Y5.175 Z-2.678
Y5.168 Z-2.6
G0 Z10
X167.304 Y228.6
Z7
G1 Z4.65 F450
G19 G2 Y228.2 Z4.25 J-0.4 K0 F1000
G1 Y227.8
G17 G2 X166.904 Y227.4 I-0.4 J0
G1 X14.343 Z-1.078
G3 X12.929 Y226.814 Z-1.132 I0 J-2
G1 X6.586 Y220.471 Z-1.446
G3 X6 Y219.072 Z-1.5 I1.414 J-1.414
G1 Y219.057 F1143
Y161.4
G3 X8 Y159.4 I2 J0
G1 X448
G3 X450 Y161.4 I0 J2
G1 Y200.374
Y219.057
G3 X449.414 Y220.471 I-2 J0
G1 X443.071 Y226.814
G3 X441.657 Y227.4 I-1.414 J-1.414
G1 X14.343
G3 X12.929 Y226.814 I0 J-2
G1 X6.586 Y220.471
G3 X6 Y219.072 I1.414 J-1.414
G2 X5.597 Y218.675 I-0.4 J0.003
G1 X5.197 Y218.678
X5.119 Z-1.492
X5.044 Y218.679 Z-1.47
X4.975 Z-1.433
X4.914 Y218.68 Z-1.383
X4.865 Z-1.322
X4.828 Z-1.253
X4.805 Y218.681 Z-1.178
X4.797 Z-1.1
G0 Z10
X169.925 Y158.25
Z7
G1 Z3.9 F450
G19 G2 Y157.85 Z3.5 J-0.4 K0 F1000
G1 Y157.45
G17 G2 X169.525 Y157.05 I-0.4 J0
G1 X8 Z-2.141
G3 X6 Y155.058 Z-2.25 I0 J-2
G1 Y155.05 F1143
Y84.7
G3 X8 Y82.7 I2 J0
G1 X448
G3 X450 Y84.7 I0 J2
G1 Y155.05
G3 X448 Y157.05 I-2 J0
G1 X8
G3 X6 Y155.058 I0 J-2
G2 X5.598 Y154.66 I-0.4 J0.002
G1 X5.198 Y154.662
X5.12 Z-2.242
X5.045 Z-2.22
X4.976 Z-2.183
X4.916 Y154.663 Z-2.133
X4.866 Z-2.072
X4.829 Z-2.003
X4.806 Z-1.928
X4.798 Z-1.85
G0 Z10
X132.461 Y4.8
Z7
G1 Z3.15 F450
G19 G3 Y5.2 Z2.75 J0.4 K0 F1000
G1 Y5.6
G17 G2 X132.861 Y6 I0.4 J0
G1 X297.519 Z-3
X448 F1143
G3 X450 Y8 I0 J2
G1 Y78.35
G3 X448 Y80.35 I-2 J0
G1 X8
G3 X6 Y78.35 I0 J-2
G1 Y8
G3 X8 Y6 I2 J0
G1 X297.519
G2 X297.919 Y5.6 I0 J-0.4
G1 Y5.2
G19 G2 Y4.8 Z-2.6 J0 K0.4
G0 Z10
X460.58 Y282.116
Z7
G1 Z5.4 F450
X460.585 Y282.111 Z5.322 F1000
X460.602 Y282.095 Z5.247
X460.629 Y282.07 Z5.178
X460.665 Y282.036 Z5.117
X460.709 Y281.994 Z5.067
X460.759 Y281.946 Z5.03
X460.814 Y281.895 Z5.008
X460.87 Y281.841 Z5
X461.161 Y281.567
G17 G2 X461.177 Y281.001 I-0.275 J-0.291
G1 X456.828 Y276.396 Z4.779
G3 X468.246 Y252.838 Z3.597 I10.178 J-9.613
G1 X517.736 Y257.236 Z1.862
G2 X519.152 Y257.236 Z1.813 I0.708 J-7.969
G1 X568.642 Y252.838 Z0.078
G3 X583.873 Y267.258 Z-0.75 I1.239 J13.945
X580.059 Y276.396 I-13.992 J-0.475 F1143
G1 X543.987 Y314.589
G3 X538.898 Y316.783 I-5.089 J-4.806
G1 X533.143
G3 X503.744 Y316.783 I-14.699 J-27.86
G1 X497.99
G3 X492.901 Y314.589 I0 J-7
G1 X456.828 Y276.396
G3 X468.246 Y252.838 I10.178 J-9.613
G1 X517.736 Y257.236
G2 X519.152 Y257.236 I0.708 J-7.969
G1 X568.642 Y252.838
G3 X583.873 Y267.258 I1.239 J13.945
G2 X584.259 Y267.671 I0.4 J0.014
G1 X584.659 Y267.685
X584.737 Y267.687 Z-0.742
X584.812 Y267.69 Z-0.72
X584.881 Y267.692 Z-0.683
X584.942 Y267.694 Z-0.633
X584.992 Y267.696 Z-0.572
X585.028 Y267.697 Z-0.503
X585.051 Y267.698 Z-0.428
X585.059 Z-0.35
G0 Z10
X460.546 Y215.786
Z7
G1 Z4.65 F450
X460.551 Y215.781 Z4.572 F1000
X460.568 Y215.765 Z4.497
X460.595 Y215.74 Z4.428
X460.631 Y215.706 Z4.367
X460.675 Y215.664 Z4.317
X460.725 Y215.616 Z4.28
X460.78 Y215.565 Z4.258
X460.836 Y215.511 Z4.25
X461.127 Y215.237
G2 X461.143 Y214.671 I-0.275 J-0.291
G1 X456.828 Y210.102 Z4.031
G3 X468.246 Y186.545 Z2.849 I10.178 J-9.613
G1 X517.736 Y190.943 Z1.114
G2 X519.152 Y190.943 Z1.065 I0.708 J-7.969
G1 X568.642 Y186.545 Z-0.67
G3 X583.871 Y201.016 Z-1.5 I1.239 J13.945
X580.059 Y210.102 I-13.99 J-0.526 F1143
G1 X543.987 Y248.296
G3 X538.898 Y250.49 I-5.089 J-4.806
G1 X533.143
G3 X503.744 Y250.49 I-14.699 J-27.86
G1 X497.99
G3 X492.901 Y248.296 I0 J-7
G1 X456.828 Y210.102
G3 X468.246 Y186.545 I10.178 J-9.613
G1 X499.655 Y189.336
X517.736 Y190.943
G2 X519.152 Y190.943 I0.708 J-7.969
G1 X568.642 Y186.545
G3 X583.871 Y201.016 I1.239 J13.945
G2 X584.255 Y201.431 I0.4 J0.015
G1 X584.655 Y201.446
X584.733 Y201.449 Z-1.492
X584.808 Y201.452 Z-1.47
X584.877 Y201.454 Z-1.433
X584.938 Y201.457 Z-1.383
X584.988 Y201.459 Z-1.322
X585.025 Y201.46 Z-1.253
X585.047 Y201.461 Z-1.178
X585.055 Z-1.1
G0 Z10
X462.926 Y148.801
Z7
G1 Z3.9 F450
X462.932 Y148.795 Z3.822 F1000
X462.948 Y148.78 Z3.747
X462.975 Y148.754 Z3.678
X463.012 Y148.72 Z3.617
X463.056 Y148.679 Z3.567
X463.106 Y148.631 Z3.53
X463.16 Y148.58 Z3.508
X463.217 Y148.526 Z3.5
X463.508 Y148.251
G2 X463.524 Y147.686 I-0.275 J-0.291
G1 X459.635 Y143.568 Z3.302
G3 X471.053 Y120.011 Z2.121 I10.178 J-9.613
G1 X520.543 Y124.409 Z0.386
G2 X521.959 Y124.409 Z0.336 I0.708 J-7.969
G1 X571.449 Y120.011 Z-1.399
G3 X586.642 Y135.101 Z-2.25 I1.24 J13.945
X582.867 Y143.568 I-13.953 J-1.145 F1143
G1 X546.794 Y181.762
G3 X541.705 Y183.956 I-5.089 J-4.806
G1 X535.95
G3 X506.552 Y183.956 I-14.699 J-27.86
G1 X500.797
G3 X495.708 Y181.762 I0 J-7
G1 X459.635 Y143.568
G3 X471.053 Y120.011 I10.178 J-9.613
G1 X520.543 Y124.409
G2 X521.959 Y124.409 I0.708 J-7.969
G1 X571.449 Y120.011
G3 X586.642 Y135.101 I1.24 J13.945
G2 X587.008 Y135.532 I0.399 J0.033
G1 X587.406 Y135.565
X587.484 Y135.571 Z-2.242
X587.559 Y135.577 Z-2.22
X587.628 Y135.583 Z-2.183
X587.688 Y135.588 Z-2.133
X587.738 Y135.592 Z-2.072
X587.775 Y135.595 Z-2.003
X587.797 Y135.597 Z-1.928
X587.805 Z-1.85
G0 Z10
X452.807 Y92.536
Z7
G1 Z3.15 F450
X452.815 Y92.537 Z3.072 F1000
X452.838 Y92.539 Z2.997
X452.875 Y92.543 Z2.928
X452.924 Y92.547 Z2.867
X452.985 Y92.552 Z2.817
X453.053 Y92.559 Z2.78
X453.128 Y92.566 Z2.758
X453.206 Y92.573 Z2.75
X453.604 Y92.609
G2 X454.039 Y92.246 I0.036 J-0.398
G1 X454.215 Y90.301 Z2.682
G3 X457.316 Y84.673 Z2.451 I7.968 J0.723
G1 X477.104 Y69.51 Z1.58
G3 X480.772 Y67.95 Z1.44 I4.866 J6.35
G1 X506.889 Y63.995 Z0.517
G3 X513.524 Y64.121 Z0.284 I2.95 J19.478
G1 X534.207 Y68.06 Z-0.451
G3 X535.145 Y68.299 Z-0.485 I-1.495 J7.859
G1 X582.429 Y83.403 Z-2.218
G3 X587.962 Y90.301 Z-2.545 I-2.434 J7.62
G1 X589.005 Y101.8 Z-2.948
G3 X589.002 Y103.274 Z-3 I-7.967 J0.723
X583.934 Y109.98 I-7.964 J-0.751 F1143
G1 X565.475 Y117.148
G3 X558.344 Y118.485 I-7.133 J-18.363
G1 X483.834
G3 X476.703 Y117.148 I0.002 J-19.7
G1 X458.244 Y109.98
G3 X453.172 Y101.8 I2.896 J-7.458
G1 X454.215 Y90.301
G3 X457.316 Y84.673 I7.968 J0.723
G1 X477.104 Y69.51
G3 X480.772 Y67.95 I4.866 J6.35
G1 X506.889 Y63.995
G3 X513.524 Y64.121 I2.95 J19.478
G1 X534.207 Y68.06
G3 X535.145 Y68.299 I-1.495 J7.859
G1 X582.429 Y83.403
G3 X587.962 Y90.301 I-2.434 J7.62
G1 X589.005 Y101.8
G3 X589.002 Y103.274 I-7.967 J0.723
G2 X589.363 Y103.71 I0.398 J0.038
G1 X589.761 Y103.747
X589.839 Y103.755 Z-2.992
X589.914 Y103.762 Z-2.97
X589.982 Y103.768 Z-2.933
X590.043 Y103.774 Z-2.883
X590.092 Y103.779 Z-2.822
X590.129 Y103.782 Z-2.753
X590.152 Y103.784 Z-2.678
X590.159 Y103.785 Z-2.6
G0 Z10
X167.303 Y298.95
Z7
G1 Z4.65 F450
G19 G2 Y298.55 Z4.25 J-0.4 K0 F1000
G1 Y298.15
G17 G2 X166.903 Y297.75 I-0.4 J0
G1 X14.343 Z-1.077
G3 X12.929 Y297.164 Z-1.132 I0 J-2
G1 X6.586 Y290.821 Z-1.446
G3 X6 Y289.42 Z-1.5 I1.414 J-1.414
G1 Y289.407 F1143
Y231.75
G3 X8 Y229.75 I2 J0
G1 X448
G3 X450 Y231.75 I0 J2
G1 Y289.407
G3 X449.414 Y290.821 I-2 J0
G1 X443.071 Y297.164
G3 X441.657 Y297.75 I-1.414 J-1.414
G1 X14.343
G3 X12.929 Y297.164 I0 J-2
G1 X6.586 Y290.821
G3 X6 Y289.42 I1.414 J-1.414
G2 X5.597 Y289.023 I-0.4 J0.003
G1 X5.197 Y289.025
X5.119 Y289.026 Z-1.492
X5.044 Z-1.47
X4.975 Y289.027 Z-1.433
X4.915 Z-1.383
X4.865 Y289.028 Z-1.322
X4.828 Z-1.253
X4.805 Z-1.178
X4.797 Z-1.1
G0 Z10
X167.304 Y228.6
Z7
G1 Z3.9 F450
G19 G2 Y228.2 Z3.5 J-0.4 K0 F1000
G1 Y227.8
G17 G2 X166.904 Y227.4 I-0.4 J0
G1 X14.343 Z-1.828
G3 X12.929 Y226.814 Z-1.882 I0 J-2
G1 X6.586 Y220.471 Z-2.196
G3 X6 Y219.072 Z-2.25 I1.414 J-1.414
G1 Y219.057 F1143
Y161.4
G3 X8 Y159.4 I2 J0
G1 X448
G3 X450 Y161.4 I0 J2
G1 Y200.374
Y219.057
G3 X449.414 Y220.471 I-2 J0
G1 X443.071 Y226.814
G3 X441.657 Y227.4 I-1.414 J-1.414
G1 X14.343
G3 X12.929 Y226.814 I0 J-2
G1 X6.586 Y220.471
G3 X6 Y219.072 I1.414 J-1.414
G2 X5.597 Y218.675 I-0.4 J0.003
G1 X5.197 Y218.678
X5.119 Z-2.242
X5.044 Y218.679 Z-2.22
X4.975 Z-2.183
X4.914 Y218.68 Z-2.133
X4.865 Z-2.072
X4.828 Z-2.003
X4.805 Y218.681 Z-1.928
X4.797 Z-1.85
G0 Z10
X169.925 Y158.25
Z7
G1 Z3.15 F450
G19 G2 Y157.85 Z2.75 J-0.4 K0 F1000
G1 Y157.45
G17 G2 X169.525 Y157.05 I-0.4 J0
G1 X8 Z-2.891
G3 X6 Y155.058 Z-3 I0 J-2
G1 Y155.05 F1143
Y84.7
G3 X8 Y82.7 I2 J0
G1 X448
G3 X450 Y84.7 I0 J2
G1 Y155.05
G3 X448 Y157.05 I-2 J0
G1 X8
G3 X6 Y155.058 I0 J-2
G2 X5.598 Y154.66 I-0.4 J0.002
G1 X5.198 Y154.662
X5.12 Z-2.992
X5.045 Z-2.97
X4.976 Z-2.933
X4.916 Y154.663 Z-2.883
X4.866 Z-2.822
X4.829 Z-2.753
X4.806 Z-2.678
X4.798 Z-2.6
G0 Z10
X109.618 Y439.65
Z7
G1 Z5.4 F450
G19 G2 Y439.25 Z5 J-0.4 K0 F1000
G1 Y438.85
G17 G2 X109.218 Y438.45 I-0.4 J0
G1 X14.343 Z1.687
G3 X12.929 Y437.864 Z1.632 I0 J-2
G1 X6.586 Y431.521 Z1.319
G3 X6 Y430.107 Z1.264 I1.414 J-1.414
G1 Y372.45 Z-0.749
Y372.436 Z-0.75
G3 X8 Y370.45 I2 J0.014 F1143
G1 X448
G3 X450 Y372.45 I0 J2
G1 Y430.107
G3 X449.414 Y431.521 I-2 J0
G1 X443.071 Y437.864
G3 X441.657 Y438.45 I-1.414 J-1.414
G1 X14.343
G3 X12.929 Y437.864 I0 J-2
G1 X6.586 Y431.521
G3 X6 Y430.107 I1.414 J-1.414
G1 Y372.45
Y372.436
G2 X5.603 Y372.033 I-0.4 J-0.003
G1 X5.203 Y372.03
X5.125 Y372.029 Z-0.742
X5.05 Z-0.72
X4.981 Y372.028 Z-0.683
X4.92 Z-0.633
X4.87 Z-0.572
X4.833 Y372.027 Z-0.503
X4.811 Z-0.428
X4.803 Z-0.35
G0 Z10
X129.966 Y475.412
Z7
G1 Z5.4 F450
X129.96 Y475.417 Z5.322 F1000
X129.943 Y475.433 Z5.247
X129.917 Y475.458 Z5.178
X129.88 Y475.493 Z5.117
X129.836 Y475.534 Z5.067
X129.786 Y475.582 Z5.03
X129.732 Y475.633 Z5.008
X129.675 Y475.687 Z5
X129.384 Y475.962
G2 X129.368 Y476.527 I0.275 J0.291
G1 X133.769 Y481.187 Z4.776
G3 X122.351 Y504.745 Z3.595 I-10.179 J9.613
G1 X72.861 Y500.347 Z1.86
G2 X71.445 Y500.347 Z1.81 I-0.708 J7.969
G1 X21.955 Y504.745 Z0.075
G3 X6.721 Y490.4 Z-0.75 I-1.239 J-13.945
X10.537 Y481.187 I13.994 J0.4 F1143
G1 X46.61 Y442.994
G3 X51.699 Y440.8 I5.089 J4.806
G1 X92.607
G3 X97.696 Y442.994 I0 J7
G1 X119.75 Y466.344
X133.769 Y481.187
G3 X122.351 Y504.745 I-10.179 J9.613
G1 X72.861 Y500.347
G2 X71.445 Y500.347 I-0.708 J7.969
G1 X21.955 Y504.745
G3 X6.721 Y490.4 I-1.239 J-13.945
G2 X6.332 Y489.989 I-0.4 J-0.011
G1 X5.933 Y489.978
X5.855 Y489.975 Z-0.742
X5.78 Y489.973 Z-0.72
X5.711 Y489.971 Z-0.683
X5.65 Y489.97 Z-0.633
X5.6 Y489.968 Z-0.572
X5.563 Y489.967 Z-0.503
X5.54 Y489.966 Z-0.428
X5.533 Z-0.35
G0 Z10
X130.135 Y539.754
Z7
G1 Z5.4 F450
X130.13 Y539.759 Z5.322 F1000
X130.113 Y539.775 Z5.247
X130.086 Y539.8 Z5.178
X130.05 Y539.834 Z5.117
X130.006 Y539.876 Z5.067
X129.956 Y539.923 Z5.03
X129.901 Y539.975 Z5.008
X129.844 Y540.028 Z5
X129.554 Y540.303
G2 X129.537 Y540.868 I0.275 J0.291
G1 X133.768 Y545.348 Z4.785
G3 X122.351 Y568.906 Z3.604 I-10.178 J9.613
G1 X72.861 Y564.508 Z1.868
G2 X71.445 Y564.508 Z1.819 I-0.708 J7.969
G1 X21.955 Y568.906 Z0.084
G3 X6.73 Y554.313 Z-0.75 I-1.239 J-13.945
X10.537 Y545.348 I13.985 J0.648 F1143
G1 X46.61 Y507.155
G3 X51.699 Y504.961 I5.089 J4.806
G1 X92.607
G3 X97.696 Y507.155 I0 J7
G1 X133.768 Y545.348
G3 X122.351 Y568.906 I-10.178 J9.613
G1 X72.861 Y564.508
G2 X71.445 Y564.508 I-0.708 J7.969
G1 X21.955 Y568.906
G3 X6.73 Y554.313 I-1.239 J-13.945
X10.537 Y545.348 Z-1.097 I13.985 J0.648 F1000
G1 X18.454 Y536.966 Z-1.5
X46.61 Y507.155 F1143
G3 X51.699 Y504.961 I5.089 J4.806
G1 X92.607
G3 X97.696 Y507.155 I0 J7
G1 X133.768 Y545.348
G3 X122.351 Y568.906 I-10.178 J9.613
G1 X72.861 Y564.508
G2 X71.445 Y564.508 I-0.708 J7.969
G1 X21.955 Y568.906
G3 X10.537 Y545.348 I-1.239 J-13.945
G1 X18.454 Y536.966
G2 X18.437 Y536.401 I-0.291 J-0.275
G1 X18.147 Y536.126
X18.09 Y536.072 Z-1.492
X18.035 Y536.021 Z-1.47
X17.985 Y535.973 Z-1.433
X17.941 Y535.932 Z-1.383
X17.905 Y535.898 Z-1.322
X17.878 Y535.872 Z-1.253
X17.861 Y535.857 Z-1.178
X17.856 Y535.851 Z-1.1
G0 Z10
X147.496 Y506.417
Z7
G1 Z5.4 F450
X147.498 Y506.425 Z5.322 F1000
X147.505 Y506.446 Z5.247
X147.516 Y506.482 Z5.178
X147.53 Y506.529 Z5.117
X147.548 Y506.587 Z5.067
X147.568 Y506.653 Z5.03
X147.59 Y506.725 Z5.008
X147.612 Y506.8 Z5
X147.729 Y507.183
G2 X148.228 Y507.449 I0.383 J-0.116
G3 X159.257 Y507.446 Z4.609 I5.52 J18.18
G1 X159.895 Y507.639 Z4.586
X179.87 Y513.691 Z3.857
G2 X187.66 Y511.872 Z3.565 I2.32 J-7.656
G3 X200.922 Y515.889 Z2.979 I5.471 J5.837
G2 X206.392 Y521.727 Z2.687 I7.791 J-1.818
G1 X216.1 Y524.668 Z2.333
G3 X231.149 Y566.026 Z0.551 I-7.974 J26.319
G1 X216.498 Y588.455 Z-0.385
G3 X207.582 Y592.971 Z-0.75 I-8.372 J-5.469
X199.754 Y588.455 I0.544 J-9.985 F1143
G1 X189.177 Y572.263
G2 X188.746 Y571.664 I-6.703 J4.367
X183.098 Y572.264 I-2.033 J7.737
G3 X171.496 Y564.688 I-3.614 J-7.137
G2 X167.882 Y557.551 I-7.988 J-0.439
G1 X159.986 Y552.395
G2 X151.997 Y551.955 I-4.374 J6.698
G3 X140.476 Y543.598 I-3.614 J-7.137
G2 X138.845 Y537.416 I-7.906 J-1.22
G3 X159.257 Y507.446 I14.902 J-11.786
G1 X159.895 Y507.639
X179.87 Y513.691
G2 X187.66 Y511.872 I2.32 J-7.656
G3 X200.922 Y515.889 I5.471 J5.837
G2 X206.392 Y521.727 I7.791 J-1.818
G1 X216.1 Y524.668
G3 X231.149 Y566.026 I-7.974 J26.319
G1 X216.498 Y588.455
G3 X207.582 Y592.971 I-8.372 J-5.469
G2 X207.161 Y593.349 I-0.022 J0.399
G1 X207.139 Y593.748
X207.135 Y593.826 Z-0.742
X207.131 Y593.901 Z-0.72
X207.127 Y593.97 Z-0.683
X207.124 Y594.031 Z-0.633
X207.121 Y594.081 Z-0.572
X207.119 Y594.117 Z-0.503
X207.118 Y594.14 Z-0.428
X207.117 Y594.148 Z-0.35
G0 Z10
X297.172 Y504.909
Z7
G1 Z5.4 F450
Y504.917 Z5.322 F1000
X297.173 Y504.939 Z5.247
Y504.976 Z5.178
X297.174 Y505.026 Z5.117
X297.176 Y505.087 Z5.067
X297.177 Y505.156 Z5.03
X297.178 Y505.231 Z5.008
X297.18 Y505.309 Z5
X297.188 Y505.709
G2 X297.595 Y506.101 I0.4 J-0.008
X312.435 Y505.35 Z4.481 I-4.588 J-237.539
G3 X318.321 Y516.882 Z3.904 I0.572 J6.976
G2 X318.321 Y587.769 Z1.208 I41.341 J35.444
G3 X312.436 Y599.302 Z0.631 I-5.314 J4.556
G2 X273.58 Y599.302 Z-0.727 I-19.428 J236.788
G3 X272.93 Y599.325 Z-0.75 I-0.573 J-6.976
X266.085 Y591.282 I0.077 J-6.999 F1143
G2 X266.085 Y513.37 I-258.245 J-38.956
G3 X273.58 Y505.35 I6.922 J-1.044
G2 X312.435 Y505.35 I19.428 J-236.788
G3 X318.321 Y516.882 I0.572 J6.976
G2 X318.321 Y587.769 I41.341 J35.444
G3 X312.436 Y599.302 I-5.314 J4.556
G2 X273.58 Y599.302 I-19.428 J236.788
G3 X272.93 Y599.325 I-0.573 J-6.976
G2 X272.525 Y599.721 I-0.004 J0.4
G1 X272.521 Y600.121
X272.52 Y600.199 Z-0.742
X272.519 Y600.274 Z-0.72
Y600.343 Z-0.683
X272.518 Y600.404 Z-0.633
X272.517 Y600.453 Z-0.572
Y600.49 Z-0.503
Y600.513 Z-0.428
Y600.521 Z-0.35
G0 Z10
X354.983 Y507.406
Z7
G1 Z5.4 F450
Y507.414 Z5.322 F1000
X354.984 Y507.436 Z5.247
X354.985 Y507.473 Z5.178
X354.986 Y507.523 Z5.117
X354.987 Y507.584 Z5.067
X354.988 Y507.653 Z5.03
X354.99 Y507.728 Z5.008
X354.991 Y507.806 Z5
X354.999 Y508.206
G2 X355.407 Y508.598 I0.4 J-0.008
X370.078 Y507.85 Z4.487 I-4.757 J-237.536
G3 X375.964 Y519.382 Z3.91 I0.572 J6.976
G2 X375.964 Y590.269 Z1.214 I41.34 J35.444
G3 X370.079 Y601.802 Z0.637 I-5.314 J4.556
G2 X331.223 Y601.802 Z-0.721 I-19.428 J236.787
G3 X330.404 Y601.821 Z-0.75 I-0.573 J-6.976
X323.728 Y593.782 I0.246 J-6.996 F1143
G2 X323.728 Y515.87 I-258.245 J-38.956
G3 X331.223 Y507.85 I6.922 J-1.044
G2 X370.078 Y507.85 I19.428 J-236.788
G3 X375.964 Y519.382 I0.572 J6.976
G2 X375.964 Y590.269 I41.34 J35.444
G3 X370.079 Y601.802 I-5.314 J4.556
G2 X331.223 Y601.802 I-19.428 J236.787
G3 X330.404 Y601.821 I-0.573 J-6.976
G2 X329.99 Y602.207 I-0.014 J0.4
G1 X329.976 Y602.607
X329.973 Y602.685 Z-0.742
X329.971 Y602.76 Z-0.72
X329.968 Y602.829 Z-0.683
X329.966 Y602.89 Z-0.633
X329.964 Y602.939 Z-0.572
X329.963 Y602.976 Z-0.503
X329.962 Y602.999 Z-0.428
Y603.007 Z-0.35
G0 Z10
X384.541 Y507.513
Z7
G1 Z5.4 F450
X384.544 Y507.519 Z5.322 F1000
X384.555 Y507.54 Z5.247
X384.571 Y507.573 Z5.178
X384.593 Y507.618 Z5.117
X384.62 Y507.672 Z5.067
X384.65 Y507.734 Z5.03
X384.684 Y507.801 Z5.008
X384.718 Y507.871 Z5
X384.896 Y508.23
G2 X385.431 Y508.411 I0.359 J-0.177
G3 X394.634 Y509.926 Z4.652 I3.546 J7.172
G1 X401.95 Y517.243 Z4.291
G2 X407.736 Y519.585 Z4.067 I5.657 J-5.657
G3 X408.218 Y519.585 Z4.05 I0.241 J14.998
G2 X414.004 Y517.243 Z3.826 I0.128 J-7.999
G1 X421.32 Y509.926 Z3.465
G3 X432.634 Y509.926 Z3.026 I5.657 J5.657
X432.634 Y521.24 Z2.587 I-5.657 J5.657
G1 X425.317 Y528.556 Z2.226
G2 X422.975 Y534.342 Z2.002 I5.657 J5.657
G3 X422.975 Y534.824 Z1.985 I-14.998 J0.241
G2 X425.317 Y540.61 Z1.761 I7.999 J0.128
G1 X432.634 Y547.926 Z1.4
G3 X432.634 Y559.24 Z0.961 I-5.657 J5.657
X421.32 Y559.24 Z0.522 I-5.657 J-5.657
G1 X414.004 Y551.923 Z0.161
G2 X408.218 Y549.581 Z-0.063 I-5.657 J5.657
G3 X407.736 Y549.581 Z-0.08 I-0.241 J-14.998
G2 X401.95 Y551.923 Z-0.304 I-0.128 J7.999
G1 X394.634 Y559.24 Z-0.665
G3 X392.683 Y560.674 Z-0.75 I-5.657 J-5.657
X383.32 Y547.926 I-3.706 J-7.091 F1143
G1 X390.637 Y540.61
G2 X392.979 Y534.824 I-5.657 J-5.657
G3 X392.979 Y534.342 I14.998 J-0.241
G2 X390.637 Y528.556 I-7.999 J-0.128
G1 X383.32 Y521.24
G3 X383.32 Y509.926 I5.657 J-5.657
X394.634 Y509.926 I5.657 J5.657
G1 X401.95 Y517.243
G2 X407.736 Y519.585 I5.657 J-5.657
G3 X408.218 Y519.585 I0.241 J14.998
G2 X414.004 Y517.243 I0.128 J-7.999
G1 X421.32 Y509.926
G3 X432.634 Y509.926 I5.657 J5.657
X432.634 Y521.24 I-5.657 J5.657
G1 X425.317 Y528.556
G2 X422.975 Y534.342 I5.657 J5.657
G3 X422.975 Y534.824 I-14.998 J0.241
G2 X425.317 Y540.61 I7.999 J0.128
G1 X432.634 Y547.926
G3 X432.634 Y559.24 I-5.657 J5.657
X421.32 Y559.24 I-5.657 J-5.657
G1 X414.004 Y551.923
G2 X408.218 Y549.581 I-5.657 J5.657
G3 X407.736 Y549.581 I-0.241 J-14.998
G2 X401.95 Y551.923 I-0.128 J7.999
G1 X394.634 Y559.24
G3 X392.683 Y560.674 I-5.657 J-5.657
G2 X392.513 Y561.213 I0.185 J0.354
G1 X392.699 Y561.568
X392.735 Y561.637 Z-0.742
X392.77 Y561.704 Z-0.72
X392.802 Y561.765 Z-0.683
X392.83 Y561.819 Z-0.633
X392.853 Y561.863 Z-0.572
X392.87 Y561.895 Z-0.503
X392.88 Y561.916 Z-0.428
X392.884 Y561.922 Z-0.35
G0 Z10
X438.715 Y520.542
Z7
G1 Z5.4 F450
X438.714 Y520.549 Z5.322 F1000
Y520.572 Z5.247
X438.712 Y520.609 Z5.178
X438.71 Y520.659 Z5.117
X438.708 Y520.719 Z5.067
X438.705 Y520.788 Z5.03
X438.702 Y520.863 Z5.008
X438.699 Y520.941 Z5
X438.684 Y521.341
G2 X439.068 Y521.756 I0.4 J0.015
G3 X444.417 Y524.094 Z4.791 I-0.308 J7.994
G1 X451.734 Y531.411 Z4.43
G2 X457.519 Y533.752 Z4.206 I5.656 J-5.657
G3 X458.001 Y533.752 Z4.189 I0.241 J14.999
G2 X463.787 Y531.411 Z3.965 I0.13 J-7.999
G1 X471.104 Y524.094 Z3.604
G3 X482.417 Y535.407 Z2.726 I5.656 J5.657
G1 X475.1 Y542.724 Z2.365
G2 X472.759 Y548.51 Z2.141 I5.657 J5.656
G3 X472.759 Y548.992 Z2.124 I-14.999 J0.241
G2 X475.1 Y554.777 Z1.9 I7.999 J0.129
G1 X482.417 Y562.094 Z1.539
G3 X471.104 Y573.407 Z0.662 I-5.657 J5.656
G1 X463.787 Y566.091 Z0.3
G2 X458.001 Y563.749 Z0.076 I-5.657 J5.656
G3 X457.519 Y563.749 Z0.059 I-0.241 J-14.998
G2 X451.734 Y566.091 Z-0.164 I-0.128 J7.999
G1 X444.417 Y573.407 Z-0.526
G3 X438.623 Y575.75 Z-0.75 I-5.657 J-5.656
X433.104 Y562.094 I0.137 J-7.999 F1143
G1 X440.42 Y554.777
G2 X442.762 Y548.992 I-5.656 J-5.657
G3 X442.762 Y548.51 I14.998 J-0.241
G2 X440.42 Y542.724 I-7.999 J-0.128
G1 X433.104 Y535.407
G3 X433.103 Y524.093 I5.656 J-5.657
X444.417 Y524.094 I5.657 J5.657
G1 X451.734 Y531.411
G2 X457.519 Y533.752 I5.656 J-5.657
G3 X458.001 Y533.752 I0.241 J14.999
G2 X463.787 Y531.411 I0.13 J-7.999
G1 X471.104 Y524.094
G3 X482.417 Y535.407 I5.656 J5.657
G1 X475.1 Y542.724
G2 X472.759 Y548.51 I5.657 J5.656
G3 X472.759 Y548.992 I-14.999 J0.241
G2 X475.1 Y554.777 I7.999 J0.129
G1 X482.417 Y562.094
G3 X471.104 Y573.407 I-5.657 J5.656
G1 X463.787 Y566.091
G2 X458.001 Y563.749 I-5.657 J5.656
G3 X457.519 Y563.749 I-0.241 J-14.998
G2 X451.734 Y566.091 I-0.128 J7.999
G1 X444.417 Y573.407
G3 X438.623 Y575.75 I-5.657 J-5.656
G2 X438.216 Y576.143 I-0.007 J0.4
G1 X438.209 Y576.543
X438.208 Y576.621 Z-0.742
X438.206 Y576.696 Z-0.72
X438.205 Y576.765 Z-0.683
X438.204 Y576.825 Z-0.633
X438.203 Y576.875 Z-0.572
Y576.912 Z-0.503
X438.202 Y576.935 Z-0.428
Y576.943 Z-0.35
G0 Z10
X488.406 Y535.135
Z7
G1 Z5.4 F450
Y535.143 Z5.322 F1000
Y535.166 Z5.247
X488.405 Y535.203 Z5.178
Y535.252 Z5.117
X488.404 Y535.313 Z5.067
X488.403 Y535.382 Z5.03
X488.402 Y535.457 Z5.008
Y535.535 Z5
X488.397 Y535.935
G2 X488.792 Y536.34 I0.4 J0.005
G3 X494.357 Y538.683 Z4.784 I-0.092 J7.999
G1 X501.674 Y545.999 Z4.422
G2 X507.46 Y548.341 Z4.199 I5.657 J-5.657
G3 X507.942 Y548.341 Z4.182 I0.241 J14.998
G2 X513.727 Y545.999 Z3.958 I0.128 J-7.999
G1 X521.044 Y538.683 Z3.596
G3 X532.358 Y538.682 Z3.158 I5.657 J5.656
X532.357 Y549.996 Z2.719 I-5.657 J5.657
G1 X525.041 Y557.313 Z2.357
G2 X522.699 Y563.098 Z2.134 I5.656 J5.657
G3 X522.699 Y563.58 Z2.117 I-14.998 J0.241
G2 X525.041 Y569.366 Z1.893 I7.999 J0.128
G1 X532.357 Y576.683 Z1.532
G3 X532.358 Y587.997 Z1.093 I-5.656 J5.657
X521.044 Y587.996 Z0.654 I-5.657 J-5.657
G1 X513.727 Y580.679 Z0.292
G2 X507.942 Y578.338 Z0.069 I-5.656 J5.657
G3 X507.46 Y578.338 Z0.052 I-0.241 J-14.999
G2 X501.674 Y580.679 Z-0.172 I-0.13 J7.999
G1 X494.357 Y587.996 Z-0.533
G3 X488.783 Y590.338 Z-0.75 I-5.656 J-5.657
X483.044 Y576.683 I-0.082 J-7.999 F1143
G1 X490.361 Y569.366
G2 X492.702 Y563.58 I-5.657 J-5.656
G3 X492.702 Y563.098 I14.999 J-0.241
G2 X490.361 Y557.313 I-7.999 J-0.129
G1 X483.044 Y549.996
G3 X483.043 Y538.682 I5.656 J-5.657
X494.357 Y538.683 I5.657 J5.657
G1 X501.674 Y545.999
G2 X507.46 Y548.341 I5.657 J-5.657
G3 X507.942 Y548.341 I0.241 J14.998
G2 X513.727 Y545.999 I0.128 J-7.999
G1 X521.044 Y538.683
G3 X532.358 Y538.682 I5.657 J5.656
X532.357 Y549.996 I-5.657 J5.657
G1 X525.041 Y557.313
G2 X522.699 Y563.098 I5.656 J5.657
G3 X522.699 Y563.58 I-14.998 J0.241
G2 X525.041 Y569.366 I7.999 J0.128
G1 X532.357 Y576.683
G3 X532.358 Y587.997 I-5.656 J5.657
X521.044 Y587.996 I-5.657 J-5.657
G1 X513.727 Y580.679
G2 X507.942 Y578.338 I-5.656 J5.657
G3 X507.46 Y578.338 I-0.241 J-14.999
G2 X501.674 Y580.679 I-0.13 J7.999
G1 X494.357 Y587.996
G3 X488.783 Y590.338 I-5.656 J-5.657
G2 X488.387 Y590.742 I0.004 J0.4
G1 X488.391 Y591.142
X488.392 Y591.22 Z-0.742
X488.393 Y591.296 Z-0.72
X488.394 Y591.365 Z-0.683
Y591.425 Z-0.633
X488.395 Y591.475 Z-0.572
Y591.512 Z-0.503
Y591.535 Z-0.428
X488.396 Y591.542 Z-0.35
G0 Z10
X457.608 Y485.83
Z7
G1 Z5.4 F450
X457.616 Y485.832 Z5.322 F1000
X457.638 Y485.836 Z5.247
X457.674 Y485.844 Z5.178
X457.723 Y485.854 Z5.117
X457.782 Y485.866 Z5.067
X457.85 Y485.88 Z5.03
X457.923 Y485.896 Z5.008
X458 Y485.912 Z5
X458.391 Y485.993
G2 X458.864 Y485.683 I0.082 J-0.392
G3 X462.764 Y476.25 Z4.641 I26.923 J5.606
G1 X477.415 Y453.82 Z3.706
G3 X494.158 Y453.82 Z3.013 I8.372 J5.469
G1 X504.736 Y470.013 Z2.338
X504.737 Y470.014
G2 X505.167 Y470.613 Z2.312 I6.705 J-4.365
X510.815 Y470.012 Z2.109 I2.033 J-7.737
G3 X522.417 Y477.588 Z1.524 I3.614 J7.137
G2 X526.031 Y484.725 Z1.231 I7.988 J0.44
G1 X533.927 Y489.881 Z0.902
G2 X541.915 Y490.321 Z0.609 I4.375 J-6.698
G3 X553.436 Y498.678 Z-0.003 I3.615 J7.136
G2 X555.068 Y504.86 Z-0.233 I7.906 J1.219
G3 X559.05 Y518.739 Z-0.75 I-14.902 J11.786
X534.656 Y534.83 I-18.884 J-2.092 F1143
G1 X514.043 Y528.585
G2 X506.253 Y530.404 I-2.32 J7.656
G3 X492.991 Y526.387 I-5.471 J-5.837
G2 X487.52 Y520.549 I-7.791 J1.819
G1 X477.813 Y517.608
G3 X462.764 Y476.25 I7.974 J-26.319
G1 X477.415 Y453.82
G3 X494.158 Y453.82 I8.372 J5.469
G1 X504.736 Y470.013
X504.737 Y470.014
G2 X505.167 Y470.613 I6.705 J-4.365
X510.815 Y470.012 I2.033 J-7.737
G3 X522.417 Y477.588 I3.614 J7.137
G2 X526.031 Y484.725 I7.988 J0.44
G1 X533.927 Y489.881
G2 X541.915 Y490.321 I4.375 J-6.698
G3 X553.436 Y498.678 I3.615 J7.136
G2 X555.068 Y504.86 I7.906 J1.219
G3 X559.05 Y518.739 I-14.902 J11.786
G2 X559.403 Y519.18 I0.398 J0.044
G1 X559.801 Y519.224
X559.878 Y519.233 Z-0.742
X559.953 Y519.241 Z-0.72
X560.022 Y519.249 Z-0.683
X560.082 Y519.256 Z-0.633
X560.131 Y519.261 Z-0.572
X560.168 Y519.265 Z-0.503
X560.191 Y519.268 Z-0.428
X560.198 Z-0.35
G0 Z10
X488.406 Y535.135
Z7
G1 Z4.65 F450
Y535.143 Z4.572 F1000
Y535.166 Z4.497
X488.405 Y535.203 Z4.428
Y535.252 Z4.367
X488.404 Y535.313 Z4.317
X488.403 Y535.382 Z4.28
X488.402 Y535.457 Z4.258
Y535.535 Z4.25
X488.397 Y535.935
G2 X488.792 Y536.34 I0.4 J0.005
G3 X494.357 Y538.683 Z4.034 I-0.092 J7.999
G1 X501.674 Y545.999 Z3.672
G2 X507.46 Y548.341 Z3.449 I5.657 J-5.657
G3 X507.942 Y548.341 Z3.432 I0.241 J14.998
G2 X513.727 Y545.999 Z3.208 I0.128 J-7.999
G1 X521.044 Y538.683 Z2.846
G3 X532.358 Y538.682 Z2.408 I5.657 J5.656
X532.357 Y549.996 Z1.969 I-5.657 J5.657
G1 X525.041 Y557.313 Z1.607
G2 X522.699 Y563.098 Z1.384 I5.656 J5.657
G3 X522.699 Y563.58 Z1.367 I-14.998 J0.241
G2 X525.041 Y569.366 Z1.143 I7.999 J0.128
G1 X532.357 Y576.683 Z0.782
G3 X532.358 Y587.997 Z0.343 I-5.656 J5.657
X521.044 Y587.996 Z-0.096 I-5.657 J-5.657
G1 X513.727 Y580.679 Z-0.458
G2 X507.942 Y578.338 Z-0.681 I-5.656 J5.657
G3 X507.46 Y578.338 Z-0.698 I-0.241 J-14.999
G2 X501.674 Y580.679 Z-0.922 I-0.13 J7.999
G1 X494.357 Y587.996 Z-1.283
G3 X488.783 Y590.338 Z-1.5 I-5.656 J-5.657
X483.044 Y576.683 I-0.082 J-7.999 F1143
G1 X490.361 Y569.366
G2 X492.702 Y563.58 I-5.657 J-5.656
G3 X492.702 Y563.098 I14.999 J-0.241
G2 X490.361 Y557.313 I-7.999 J-0.129
G1 X483.044 Y549.996
G3 X483.043 Y538.682 I5.656 J-5.657
X494.357 Y538.683 I5.657 J5.657
G1 X501.674 Y545.999
G2 X507.46 Y548.341 I5.657 J-5.657
G3 X507.942 Y548.341 I0.241 J14.998
G2 X513.727 Y545.999 I0.128 J-7.999
G1 X521.044 Y538.683
G3 X532.358 Y538.682 I5.657 J5.656
X532.357 Y549.996 I-5.657 J5.657
G1 X525.041 Y557.313
G2 X522.699 Y563.098 I5.656 J5.657
G3 X522.699 Y563.58 I-14.998 J0.241
G2 X525.041 Y569.366 I7.999 J0.128
G1 X532.357 Y576.683
G3 X532.358 Y587.997 I-5.656 J5.657
X521.044 Y587.996 I-5.657 J-5.657
G1 X513.727 Y580.679
G2 X507.942 Y578.338 I-5.656 J5.657
G3 X507.46 Y578.338 I-0.241 J-14.999
G2 X501.674 Y580.679 I-0.13 J7.999
G1 X494.357 Y587.996
G3 X488.783 Y590.338 I-5.656 J-5.657
G2 X488.387 Y590.742 I0.004 J0.4
G1 X488.391 Y591.142
X488.392 Y591.22 Z-1.492
X488.393 Y591.296 Z-1.47
X488.394 Y591.365 Z-1.433
Y591.425 Z-1.383
X488.395 Y591.475 Z-1.322
Y591.512 Z-1.253
Y591.535 Z-1.178
X488.396 Y591.542 Z-1.1
G0 Z10
X438.715 Y520.542
Z7
G1 Z4.65 F450
X438.714 Y520.549 Z4.572 F1000
Y520.572 Z4.497
X438.712 Y520.609 Z4.428
X438.71 Y520.659 Z4.367
X438.708 Y520.719 Z4.317
X438.705 Y520.788 Z4.28
X438.702 Y520.863 Z4.258
X438.699 Y520.941 Z4.25
X438.684 Y521.341
G2 X439.068 Y521.756 I0.4 J0.015
G3 X444.417 Y524.094 Z4.041 I-0.308 J7.994
G1 X451.734 Y531.411 Z3.68
G2 X457.519 Y533.752 Z3.456 I5.656 J-5.657
G3 X458.001 Y533.752 Z3.439 I0.241 J14.999
G2 X463.787 Y531.411 Z3.215 I0.13 J-7.999
G1 X471.104 Y524.094 Z2.854
G3 X482.417 Y535.407 Z1.976 I5.656 J5.657
G1 X475.1 Y542.724 Z1.615
G2 X472.759 Y548.51 Z1.391 I5.657 J5.656
G3 X472.759 Y548.992 Z1.374 I-14.999 J0.241
G2 X475.1 Y554.777 Z1.15 I7.999 J0.129
G1 X482.417 Y562.094 Z0.789
G3 X471.104 Y573.407 Z-0.088 I-5.657 J5.656
G1 X463.787 Y566.091 Z-0.45
G2 X458.001 Y563.749 Z-0.674 I-5.657 J5.656
G3 X457.519 Y563.749 Z-0.691 I-0.241 J-14.998
G2 X451.734 Y566.091 Z-0.914 I-0.128 J7.999
G1 X444.417 Y573.407 Z-1.276
G3 X438.623 Y575.75 Z-1.5 I-5.657 J-5.656
X433.104 Y562.094 I0.137 J-7.999 F1143
G1 X440.42 Y554.777
G2 X442.762 Y548.992 I-5.656 J-5.657
G3 X442.762 Y548.51 I14.998 J-0.241
G2 X440.42 Y542.724 I-7.999 J-0.128
G1 X433.104 Y535.407
G3 X433.103 Y524.093 I5.656 J-5.657
X444.417 Y524.094 I5.657 J5.657
G1 X451.734 Y531.411
G2 X457.519 Y533.752 I5.656 J-5.657
G3 X458.001 Y533.752 I0.241 J14.999
G2 X463.787 Y531.411 I0.13 J-7.999
G1 X471.104 Y524.094
G3 X482.417 Y535.407 I5.656 J5.657
G1 X475.1 Y542.724
G2 X472.759 Y548.51 I5.657 J5.656
G3 X472.759 Y548.992 I-14.999 J0.241
G2 X475.1 Y554.777 I7.999 J0.129
G1 X482.417 Y562.094
G3 X471.104 Y573.407 I-5.657 J5.656
G1 X463.787 Y566.091
G2 X458.001 Y563.749 I-5.657 J5.656
G3 X457.519 Y563.749 I-0.241 J-14.998
G2 X451.734 Y566.091 I-0.128 J7.999
G1 X444.417 Y573.407
G3 X438.623 Y575.75 I-5.657 J-5.656
G2 X438.216 Y576.143 I-0.007 J0.4
G1 X438.209 Y576.543
X438.208 Y576.621 Z-1.492
X438.206 Y576.696 Z-1.47
X438.205 Y576.765 Z-1.433
X438.204 Y576.825 Z-1.383
X438.203 Y576.875 Z-1.322
Y576.912 Z-1.253
X438.202 Y576.935 Z-1.178
Y576.943 Z-1.1
G0 Z10
X367.878 Y441.249
Z7
G1 Z5.4 F450
Y441.256 Z5.322 F1000
X367.876 Y441.279 Z5.247
X367.872 Y441.316 Z5.178
X367.868 Y441.365 Z5.117
X367.863 Y441.426 Z5.067
X367.857 Y441.495 Z5.03
X367.85 Y441.569 Z5.008
X367.843 Y441.647 Z5
X367.808 Y442.046
G2 X368.171 Y442.479 I0.398 J0.035
G1 X404.252 Y445.686 Z3.735
G2 X405.669 Y445.686 Z3.685 I0.708 J-7.969
G1 X455.159 Y441.288 Z1.95
G3 X466.576 Y464.846 Z0.769 I1.239 J13.945
G1 X436.705 Y496.472 Z-0.75
X430.503 Y503.039 F1143
G3 X425.414 Y505.233 I-5.089 J-4.806
G1 X384.507
G3 X379.418 Y503.039 I0 J-7
G1 X343.345 Y464.846
G3 X354.762 Y441.288 I10.178 J-9.613
G1 X404.252 Y445.686
G2 X405.669 Y445.686 I0.708 J-7.969
G1 X455.159 Y441.288
G3 X466.576 Y464.846 I1.239 J13.945
G1 X436.705 Y496.472
G2 X436.721 Y497.038 I0.291 J0.275
G1 X437.012 Y497.313
X437.069 Y497.366 Z-0.742
X437.124 Y497.418 Z-0.72
X437.174 Y497.465 Z-0.683
X437.218 Y497.507 Z-0.633
X437.254 Y497.541 Z-0.572
X437.281 Y497.566 Z-0.503
X437.297 Y497.582 Z-0.428
X437.303 Y497.587 Z-0.35
G0 Z10
X384.541 Y507.513
Z7
G1 Z4.65 F450
X384.544 Y507.519 Z4.572 F1000
X384.555 Y507.54 Z4.497
X384.571 Y507.573 Z4.428
X384.593 Y507.618 Z4.367
X384.62 Y507.672 Z4.317
X384.65 Y507.734 Z4.28
X384.684 Y507.801 Z4.258
X384.718 Y507.871 Z4.25
X384.896 Y508.23
G2 X385.431 Y508.411 I0.359 J-0.177
G3 X394.634 Y509.926 Z3.902 I3.546 J7.172
G1 X401.95 Y517.243 Z3.541
G2 X407.736 Y519.585 Z3.317 I5.657 J-5.657
G3 X408.218 Y519.585 Z3.3 I0.241 J14.998
G2 X414.004 Y517.243 Z3.076 I0.128 J-7.999
G1 X421.32 Y509.926 Z2.715
G3 X432.634 Y509.926 Z2.276 I5.657 J5.657
X432.634 Y521.24 Z1.837 I-5.657 J5.657
G1 X425.317 Y528.556 Z1.476
G2 X422.975 Y534.342 Z1.252 I5.657 J5.657
G3 X422.975 Y534.824 Z1.235 I-14.998 J0.241
G2 X425.317 Y540.61 Z1.011 I7.999 J0.128
G1 X432.634 Y547.926 Z0.65
G3 X432.634 Y559.24 Z0.211 I-5.657 J5.657
X421.32 Y559.24 Z-0.228 I-5.657 J-5.657
G1 X414.004 Y551.923 Z-0.589
G2 X408.218 Y549.581 Z-0.813 I-5.657 J5.657
G3 X407.736 Y549.581 Z-0.83 I-0.241 J-14.998
G2 X401.95 Y551.923 Z-1.054 I-0.128 J7.999
G1 X394.634 Y559.24 Z-1.415
G3 X392.683 Y560.674 Z-1.5 I-5.657 J-5.657
X383.32 Y547.926 I-3.706 J-7.091 F1143
G1 X390.637 Y540.61
G2 X392.979 Y534.824 I-5.657 J-5.657
G3 X392.979 Y534.342 I14.998 J-0.241
G2 X390.637 Y528.556 I-7.999 J-0.128
G1 X383.32 Y521.24
G3 X383.32 Y509.926 I5.657 J-5.657
X394.634 Y509.926 I5.657 J5.657
G1 X401.95 Y517.243
G2 X407.736 Y519.585 I5.657 J-5.657
G3 X408.218 Y519.585 I0.241 J14.998
G2 X414.004 Y517.243 I0.128 J-7.999
G1 X421.32 Y509.926
G3 X432.634 Y509.926 I5.657 J5.657
X432.634 Y521.24 I-5.657 J5.657
G1 X425.317 Y528.556
G2 X422.975 Y534.342 I5.657 J5.657
G3 X422.975 Y534.824 I-14.998 J0.241
G2 X425.317 Y540.61 I7.999 J0.128
G1 X432.634 Y547.926
G3 X432.634 Y559.24 I-5.657 J5.657
X421.32 Y559.24 I-5.657 J-5.657
G1 X414.004 Y551.923
G2 X408.218 Y549.581 I-5.657 J5.657
G3 X407.736 Y549.581 I-0.241 J-14.998
G2 X401.95 Y551.923 I-0.128 J7.999
G1 X394.634 Y559.24
G3 X392.683 Y560.674 I-5.657 J-5.657
G2 X392.513 Y561.213 I0.185 J0.354
G1 X392.699 Y561.568
X392.735 Y561.637 Z-1.492
X392.77 Y561.704 Z-1.47
X392.802 Y561.765 Z-1.433
X392.83 Y561.819 Z-1.383
X392.853 Y561.863 Z-1.322
X392.87 Y561.895 Z-1.253
X392.88 Y561.916 Z-1.178
X392.884 Y561.922 Z-1.1
G0 Z10
X334.374 Y457.022
Z7
G1 Z5.4 F450
X334.368 Y457.027 Z5.322 F1000
X334.351 Y457.043 Z5.247
X334.325 Y457.068 Z5.178
X334.288 Y457.102 Z5.117
X334.244 Y457.144 Z5.067
X334.194 Y457.191 Z5.03
X334.14 Y457.243 Z5.008
X334.083 Y457.297 Z5
X333.792 Y457.571
G2 X333.776 Y458.137 I0.275 J0.291
G1 X355.685 Y481.335 Z3.886
G3 X344.268 Y504.892 Z2.704 I-10.178 J9.613
G1 X294.778 Y500.494 Z0.969
G2 X293.362 Y500.494 Z0.92 I-0.708 J7.969
G1 X245.73 Y504.727 Z-0.75
X243.872 Y504.892 F1143
G3 X232.454 Y481.335 I-1.24 J-13.945
G1 X268.527 Y443.141
G3 X273.616 Y440.947 I5.089 J4.806
G1 X314.524
G3 X319.613 Y443.141 I0 J7
G1 X355.685 Y481.335
G3 X344.268 Y504.892 I-10.178 J9.613
G1 X294.778 Y500.494
G2 X293.362 Y500.494 I-0.708 J7.969
G1 X245.73 Y504.727
G2 X245.367 Y505.161 I0.035 J0.398
G1 X245.402 Y505.559
X245.409 Y505.637 Z-0.742
X245.416 Y505.712 Z-0.72
X245.422 Y505.781 Z-0.683
X245.427 Y505.841 Z-0.633
X245.431 Y505.891 Z-0.572
X245.435 Y505.927 Z-0.503
X245.437 Y505.95 Z-0.428
Y505.958 Z-0.35
G0 Z10
X297.172 Y504.909
Z7
G1 Z4.65 F450
Y504.917 Z4.572 F1000
X297.173 Y504.939 Z4.497
Y504.976 Z4.428
X297.174 Y505.026 Z4.367
X297.176 Y505.087 Z4.317
X297.177 Y505.156 Z4.28
X297.178 Y505.231 Z4.258
X297.18 Y505.309 Z4.25
X297.188 Y505.709
G2 X297.595 Y506.101 I0.4 J-0.008
X312.435 Y505.35 Z3.731 I-4.588 J-237.539
G3 X318.321 Y516.882 Z3.154 I0.572 J6.976
G2 X318.321 Y587.769 Z0.458 I41.341 J35.444
G3 X312.436 Y599.302 Z-0.119 I-5.314 J4.556
G2 X273.58 Y599.302 Z-1.477 I-19.428 J236.788
G3 X272.93 Y599.325 Z-1.5 I-0.573 J-6.976
X266.085 Y591.282 I0.077 J-6.999 F1143
G2 X266.085 Y513.37 I-258.245 J-38.956
G3 X273.58 Y505.35 I6.922 J-1.044
G2 X312.435 Y505.35 I19.428 J-236.788
G3 X318.321 Y516.882 I0.572 J6.976
G2 X318.321 Y587.769 I41.341 J35.444
G3 X312.436 Y599.302 I-5.314 J4.556
G2 X273.58 Y599.302 I-19.428 J236.788
G3 X272.93 Y599.325 I-0.573 J-6.976
G2 X272.525 Y599.721 I-0.004 J0.4
G1 X272.521 Y600.121
X272.52 Y600.199 Z-1.492
X272.519 Y600.274 Z-1.47
Y600.343 Z-1.433
X272.518 Y600.404 Z-1.383
X272.517 Y600.453 Z-1.322
Y600.49 Z-1.253
Y600.513 Z-1.178
Y600.521 Z-1.1
G0 Z10
X354.983 Y507.406
Z7
G1 Z4.65 F450
Y507.414 Z4.572 F1000
X354.984 Y507.436 Z4.497
X354.985 Y507.473 Z4.428
X354.986 Y507.523 Z4.367
X354.987 Y507.584 Z4.317
X354.988 Y507.653 Z4.28
X354.99 Y507.728 Z4.258
X354.991 Y507.806 Z4.25
X354.999 Y508.206
G2 X355.407 Y508.598 I0.4 J-0.008
X370.078 Y507.85 Z3.737 I-4.757 J-237.536
G3 X375.964 Y519.382 Z3.16 I0.572 J6.976
G2 X375.964 Y590.269 Z0.464 I41.34 J35.444
G3 X370.079 Y601.802 Z-0.113 I-5.314 J4.556
G2 X331.223 Y601.802 Z-1.471 I-19.428 J236.787
G3 X330.404 Y601.821 Z-1.5 I-0.573 J-6.976
X323.728 Y593.782 I0.246 J-6.996 F1143
G2 X323.728 Y515.87 I-258.245 J-38.956
G3 X331.223 Y507.85 I6.922 J-1.044
G2 X370.078 Y507.85 I19.428 J-236.788
G3 X375.964 Y519.382 I0.572 J6.976
G2 X375.964 Y590.269 I41.34 J35.444
G3 X370.079 Y601.802 I-5.314 J4.556
G2 X331.223 Y601.802 I-19.428 J236.787
G3 X330.404 Y601.821 I-0.573 J-6.976
G2 X329.99 Y602.207 I-0.014 J0.4
G1 X329.976 Y602.607
X329.973 Y602.685 Z-1.492
X329.971 Y602.76 Z-1.47
X329.968 Y602.829 Z-1.433
X329.966 Y602.89 Z-1.383
X329.964 Y602.939 Z-1.322
X329.963 Y602.976 Z-1.253
X329.962 Y602.999 Z-1.178
Y603.007 Z-1.1
G0 Z10
X367.878 Y441.249
Z7
G1 Z4.65 F450
Y441.256 Z4.572 F1000
X367.876 Y441.279 Z4.497
X367.872 Y441.316 Z4.428
X367.868 Y441.365 Z4.367
X367.863 Y441.426 Z4.317
X367.857 Y441.495 Z4.28
X367.85 Y441.569 Z4.258
X367.843 Y441.647 Z4.25
X367.808 Y442.046
G2 X368.171 Y442.479 I0.398 J0.035
G1 X404.252 Y445.686 Z2.985
G2 X405.669 Y445.686 Z2.935 I0.708 J-7.969
G1 X455.159 Y441.288 Z1.2
G3 X466.576 Y464.846 Z0.019 I1.239 J13.945
G1 X436.705 Y496.472 Z-1.5
X430.503 Y503.039 F1143
G3 X425.414 Y505.233 I-5.089 J-4.806
G1 X384.507
G3 X379.418 Y503.039 I0 J-7
G1 X343.345 Y464.846
G3 X354.762 Y441.288 I10.178 J-9.613
G1 X404.252 Y445.686
G2 X405.669 Y445.686 I0.708 J-7.969
G1 X455.159 Y441.288
G3 X466.576 Y464.846 I1.239 J13.945
G1 X436.705 Y496.472
G2 X436.721 Y497.038 I0.291 J0.275
G1 X437.012 Y497.313
X437.069 Y497.366 Z-1.492
X437.124 Y497.418 Z-1.47
X437.174 Y497.465 Z-1.433
X437.218 Y497.507 Z-1.383
X437.254 Y497.541 Z-1.322
X437.281 Y497.566 Z-1.253
X437.297 Y497.582 Z-1.178
X437.303 Y497.587 Z-1.1
G0 Z10
X384.541 Y507.513
Z7
G1 Z3.9 F450
X384.544 Y507.519 Z3.822 F1000
X384.555 Y507.54 Z3.747
X384.571 Y507.573 Z3.678
X384.593 Y507.618 Z3.617
X384.62 Y507.672 Z3.567
X384.65 Y507.734 Z3.53
X384.684 Y507.801 Z3.508
X384.718 Y507.871 Z3.5
X384.896 Y508.23
G2 X385.431 Y508.411 I0.359 J-0.177
G3 X394.634 Y509.926 Z3.152 I3.546 J7.172
G1 X401.95 Y517.243 Z2.791
G2 X407.736 Y519.585 Z2.567 I5.657 J-5.657
G3 X408.218 Y519.585 Z2.55 I0.241 J14.998
G2 X414.004 Y517.243 Z2.326 I0.128 J-7.999
G1 X421.32 Y509.926 Z1.965
G3 X432.634 Y509.926 Z1.526 I5.657 J5.657
X432.634 Y521.24 Z1.087 I-5.657 J5.657
G1 X425.317 Y528.556 Z0.726
G2 X422.975 Y534.342 Z0.502 I5.657 J5.657
G3 X422.975 Y534.824 Z0.485 I-14.998 J0.241
G2 X425.317 Y540.61 Z0.261 I7.999 J0.128
G1 X432.634 Y547.926 Z-0.1
G3 X432.634 Y559.24 Z-0.539 I-5.657 J5.657
X421.32 Y559.24 Z-0.978 I-5.657 J-5.657
G1 X414.004 Y551.923 Z-1.339
G2 X408.218 Y549.581 Z-1.563 I-5.657 J5.657
G3 X407.736 Y549.581 Z-1.58 I-0.241 J-14.998
G2 X401.95 Y551.923 Z-1.804 I-0.128 J7.999
G1 X394.634 Y559.24 Z-2.165
G3 X392.683 Y560.674 Z-2.25 I-5.657 J-5.657
X383.32 Y547.926 I-3.706 J-7.091 F1143
G1 X390.637 Y540.61
G2 X392.979 Y534.824 I-5.657 J-5.657
G3 X392.979 Y534.342 I14.998 J-0.241
G2 X390.637 Y528.556 I-7.999 J-0.128
G1 X383.32 Y521.24
G3 X383.32 Y509.926 I5.657 J-5.657
X394.634 Y509.926 I5.657 J5.657
G1 X401.95 Y517.243
G2 X407.736 Y519.585 I5.657 J-5.657
G3 X408.218 Y519.585 I0.241 J14.998
G2 X414.004 Y517.243 I0.128 J-7.999
G1 X421.32 Y509.926
G3 X432.634 Y509.926 I5.657 J5.657
X432.634 Y521.24 I-5.657 J5.657
G1 X425.317 Y528.556
G2 X422.975 Y534.342 I5.657 J5.657
G3 X422.975 Y534.824 I-14.998 J0.241
G2 X425.317 Y540.61 I7.999 J0.128
G1 X432.634 Y547.926
G3 X432.634 Y559.24 I-5.657 J5.657
X421.32 Y559.24 I-5.657 J-5.657
G1 X414.004 Y551.923
G2 X408.218 Y549.581 I-5.657 J5.657
G3 X407.736 Y549.581 I-0.241 J-14.998
G2 X401.95 Y551.923 I-0.128 J7.999
G1 X394.634 Y559.24
G3 X392.683 Y560.674 I-5.657 J-5.657
G2 X392.513 Y561.213 I0.185 J0.354
G1 X392.699 Y561.568
X392.735 Y561.637 Z-2.242
X392.77 Y561.704 Z-2.22
X392.802 Y561.765 Z-2.183
X392.83 Y561.819 Z-2.133
X392.853 Y561.863 Z-2.072
X392.87 Y561.895 Z-2.003
X392.88 Y561.916 Z-1.928
X392.884 Y561.922 Z-1.85
G0 Z10
X461.264 Y415.427
Z7
G1 Z5.4 F450
X461.27 Y415.422 Z5.322 F1000
X461.286 Y415.406 Z5.247
X461.313 Y415.381 Z5.178
X461.349 Y415.346 Z5.117
X461.393 Y415.305 Z5.067
X461.444 Y415.257 Z5.03
X461.498 Y415.206 Z5.008
X461.555 Y415.152 Z5
X461.846 Y414.878
G2 X461.862 Y414.312 I-0.275 J-0.291
G1 X456.828 Y408.982 Z4.744
G3 X468.246 Y385.425 Z3.563 I10.178 J-9.613
G1 X517.736 Y389.823 Z1.828
G2 X519.152 Y389.823 Z1.778 I0.708 J-7.969
G1 X568.642 Y385.425 Z0.043
G3 X583.871 Y398.85 Z-0.75 I1.239 J13.945
X580.059 Y408.982 I-13.99 J0.52 F1143
G1 X543.987 Y447.176
G3 X538.898 Y449.37 I-5.089 J-4.806
G1 X533.143
G3 X503.744 Y449.37 I-14.699 J-27.86
G1 X497.99
G3 X492.901 Y447.176 I0 J-7
G1 X456.828 Y408.982
G3 X468.246 Y385.425 I10.178 J-9.613
G1 X517.736 Y389.823
G2 X519.152 Y389.823 I0.708 J-7.969
G1 X568.642 Y385.425
G3 X583.871 Y398.85 I1.239 J13.945
G2 X584.286 Y399.235 I0.4 J-0.015
G1 X584.685 Y399.22
X584.763 Y399.217 Z-0.742
X584.838 Y399.214 Z-0.72
X584.907 Y399.212 Z-0.683
X584.968 Y399.209 Z-0.633
X585.018 Y399.207 Z-0.572
X585.055 Y399.206 Z-0.503
X585.077 Y399.205 Z-0.428
X585.085 Z-0.35
G0 Z10
X461.191 Y349.056
Z7
G1 Z5.4 F450
X461.196 Y349.051 Z5.322 F1000
X461.213 Y349.035 Z5.247
X461.24 Y349.01 Z5.178
X461.276 Y348.976 Z5.117
X461.32 Y348.934 Z5.067
X461.37 Y348.886 Z5.03
X461.425 Y348.835 Z5.008
X461.482 Y348.781 Z5
X461.772 Y348.507
G2 X461.788 Y347.941 I-0.275 J-0.291
G1 X456.828 Y342.689 Z4.748
G3 X468.246 Y319.131 Z3.566 I10.178 J-9.613
G1 X517.736 Y323.529 Z1.831
G2 X519.152 Y323.529 Z1.782 I0.708 J-7.968
G1 X568.642 Y319.131 Z0.047
G3 X583.875 Y332.661 Z-0.75 I1.239 J13.945
X580.059 Y342.689 I-13.994 J0.415 F1143
G1 X543.987 Y380.882
G3 X538.898 Y383.076 I-5.089 J-4.806
G1 X533.143
G3 X503.744 Y383.076 I-14.699 J-27.86
G1 X497.99
G3 X492.901 Y380.882 I0 J-7
G1 X456.828 Y342.689
G3 X468.246 Y319.131 I10.178 J-9.613
G1 X517.736 Y323.529
G2 X519.152 Y323.529 I0.708 J-7.968
G1 X568.642 Y319.131
G3 X583.875 Y332.661 I1.239 J13.945
G2 X584.287 Y333.049 I0.4 J-0.012
G1 X584.687 Y333.037
X584.765 Y333.035 Z-0.742
X584.84 Y333.033 Z-0.72
X584.909 Y333.03 Z-0.683
X584.969 Y333.029 Z-0.633
X585.019 Y333.027 Z-0.572
X585.056 Y333.026 Z-0.503
X585.079 Y333.025 Z-0.428
X585.086 Z-0.35
G0 Z10
X461.191 Y349.056
Z7
G1 Z4.65 F450
X461.196 Y349.051 Z4.572 F1000
X461.213 Y349.035 Z4.497
X461.24 Y349.01 Z4.428
X461.276 Y348.976 Z4.367
X461.32 Y348.934 Z4.317
X461.37 Y348.886 Z4.28
X461.425 Y348.835 Z4.258
X461.482 Y348.781 Z4.25
X461.772 Y348.507
G2 X461.788 Y347.941 I-0.275 J-0.291
G1 X456.828 Y342.689 Z3.998
G3 X468.246 Y319.131 Z2.816 I10.178 J-9.613
G1 X517.736 Y323.529 Z1.081
G2 X519.152 Y323.529 Z1.032 I0.708 J-7.968
G1 X568.642 Y319.131 Z-0.703
G3 X583.875 Y332.661 Z-1.5 I1.239 J13.945
X580.059 Y342.689 I-13.994 J0.415 F1143
G1 X543.987 Y380.882
G3 X538.898 Y383.076 I-5.089 J-4.806
G1 X533.143
G3 X503.744 Y383.076 I-14.699 J-27.86
G1 X497.99
G3 X492.901 Y380.882 I0 J-7
G1 X456.828 Y342.689
G3 X468.246 Y319.131 I10.178 J-9.613
G1 X517.736 Y323.529
G2 X519.152 Y323.529 I0.708 J-7.968
G1 X568.642 Y319.131
G3 X583.875 Y332.661 I1.239 J13.945
G2 X584.287 Y333.049 I0.4 J-0.012
G1 X584.687 Y333.037
X584.765 Y333.035 Z-1.492
X584.84 Y333.033 Z-1.47
X584.909 Y333.03 Z-1.433
X584.969 Y333.029 Z-1.383
X585.019 Y333.027 Z-1.322
X585.056 Y333.026 Z-1.253
X585.079 Y333.025 Z-1.178
X585.086 Z-1.1
G0 Z10
X460.58 Y282.116
Z7
G1 Z4.65 F450
X460.585 Y282.111 Z4.572 F1000
X460.602 Y282.095 Z4.497
X460.629 Y282.07 Z4.428
X460.665 Y282.036 Z4.367
X460.709 Y281.994 Z4.317
X460.759 Y281.946 Z4.28
X460.814 Y281.895 Z4.258
X460.87 Y281.841 Z4.25
X461.161 Y281.567
G2 X461.177 Y281.001 I-0.275 J-0.291
G1 X456.828 Y276.396 Z4.029
G3 X468.246 Y252.838 Z2.847 I10.178 J-9.613
G1 X517.736 Y257.236 Z1.112
G2 X519.152 Y257.236 Z1.063 I0.708 J-7.969
G1 X568.642 Y252.838 Z-0.672
G3 X583.873 Y267.258 Z-1.5 I1.239 J13.945
X580.059 Y276.396 I-13.992 J-0.475 F1143
G1 X543.987 Y314.589
G3 X538.898 Y316.783 I-5.089 J-4.806
G1 X533.143
G3 X503.744 Y316.783 I-14.699 J-27.86
G1 X497.99
G3 X492.901 Y314.589 I0 J-7
G1 X456.828 Y276.396
G3 X468.246 Y252.838 I10.178 J-9.613
G1 X517.736 Y257.236
G2 X519.152 Y257.236 I0.708 J-7.969
G1 X568.642 Y252.838
G3 X583.873 Y267.258 I1.239 J13.945
X580.059 Y276.396 Z-1.853 I-13.992 J-0.475 F1000
G1 X572.262 Y284.652 Z-2.25
X543.987 Y314.589 F1143
G3 X538.898 Y316.783 I-5.089 J-4.806
G1 X533.143
G3 X503.744 Y316.783 I-14.699 J-27.86
G1 X497.99
G3 X492.901 Y314.589 I0 J-7
G1 X456.828 Y276.396
G3 X468.246 Y252.838 I10.178 J-9.613
G1 X517.736 Y257.236
G2 X519.152 Y257.236 I0.708 J-7.969
G1 X568.642 Y252.838
G3 X580.059 Y276.396 I1.239 J13.945
G1 X572.262 Y284.652
G2 X572.278 Y285.217 I0.291 J0.275
G1 X572.569 Y285.492
X572.626 Y285.546 Z-2.242
X572.68 Y285.597 Z-2.22
X572.73 Y285.645 Z-2.183
X572.774 Y285.686 Z-2.133
X572.811 Y285.72 Z-2.072
X572.837 Y285.746 Z-2.003
X572.854 Y285.761 Z-1.928
X572.86 Y285.767 Z-1.85
G0 Z10
X460.546 Y215.786
Z7
G1 Z3.9 F450
X460.551 Y215.781 Z3.822 F1000
X460.568 Y215.765 Z3.747
X460.595 Y215.74 Z3.678
X460.631 Y215.706 Z3.617
X460.675 Y215.664 Z3.567
X460.725 Y215.616 Z3.53
X460.78 Y215.565 Z3.508
X460.836 Y215.511 Z3.5
X461.127 Y215.237
G2 X461.143 Y214.671 I-0.275 J-0.291
G1 X456.828 Y210.102 Z3.281
G3 X468.246 Y186.545 Z2.099 I10.178 J-9.613
G1 X517.736 Y190.943 Z0.364
G2 X519.152 Y190.943 Z0.315 I0.708 J-7.969
G1 X568.642 Y186.545 Z-1.42
G3 X583.871 Y201.016 Z-2.25 I1.239 J13.945
X580.059 Y210.102 I-13.99 J-0.526 F1143
G1 X543.987 Y248.296
G3 X538.898 Y250.49 I-5.089 J-4.806
G1 X533.143
G3 X503.744 Y250.49 I-14.699 J-27.86
G1 X497.99
G3 X492.901 Y248.296 I0 J-7
G1 X456.828 Y210.102
G3 X468.246 Y186.545 I10.178 J-9.613
G1 X499.655 Y189.336
X517.736 Y190.943
G2 X519.152 Y190.943 I0.708 J-7.969
G1 X568.642 Y186.545
G3 X583.871 Y201.016 I1.239 J13.945
G2 X584.255 Y201.431 I0.4 J0.015
G1 X584.655 Y201.446
X584.733 Y201.449 Z-2.242
X584.808 Y201.452 Z-2.22
X584.877 Y201.454 Z-2.183
X584.938 Y201.457 Z-2.133
X584.988 Y201.459 Z-2.072
X585.025 Y201.46 Z-2.003
X585.047 Y201.461 Z-1.928
X585.055 Z-1.85
G0 Z10
X460.546 Y215.786
Z7
G1 Z3.15 F450
X460.551 Y215.781 Z3.072 F1000
X460.568 Y215.765 Z2.997
X460.595 Y215.74 Z2.928
X460.631 Y215.706 Z2.867
X460.675 Y215.664 Z2.817
X460.725 Y215.616 Z2.78
X460.78 Y215.565 Z2.758
X460.836 Y215.511 Z2.75
X461.127 Y215.237
G2 X461.143 Y214.671 I-0.275 J-0.291
G1 X456.828 Y210.102 Z2.531
G3 X468.246 Y186.545 Z1.349 I10.178 J-9.613
G1 X517.736 Y190.943 Z-0.386
G2 X519.152 Y190.943 Z-0.435 I0.708 J-7.969
G1 X568.642 Y186.545 Z-2.17
G3 X583.871 Y201.016 Z-3 I1.239 J13.945
X580.059 Y210.102 I-13.99 J-0.526 F1143
G1 X543.987 Y248.296
G3 X538.898 Y250.49 I-5.089 J-4.806
G1 X533.143
G3 X503.744 Y250.49 I-14.699 J-27.86
G1 X497.99
G3 X492.901 Y248.296 I0 J-7
G1 X456.828 Y210.102
G3 X468.246 Y186.545 I10.178 J-9.613
G1 X499.655 Y189.336
X517.736 Y190.943
G2 X519.152 Y190.943 I0.708 J-7.969
G1 X568.642 Y186.545
G3 X583.871 Y201.016 I1.239 J13.945
G2 X584.255 Y201.431 I0.4 J0.015
G1 X584.655 Y201.446
X584.733 Y201.449 Z-2.992
X584.808 Y201.452 Z-2.97
X584.877 Y201.454 Z-2.933
X584.938 Y201.457 Z-2.883
X584.988 Y201.459 Z-2.822
X585.025 Y201.46 Z-2.753
X585.047 Y201.461 Z-2.678
X585.055 Z-2.6
G0 Z10
X462.926 Y148.801
Z7
G1 Z3.15 F450
X462.932 Y148.795 Z3.072 F1000
X462.948 Y148.78 Z2.997
X462.975 Y148.754 Z2.928
X463.012 Y148.72 Z2.867
X463.056 Y148.679 Z2.817
X463.106 Y148.631 Z2.78
X463.16 Y148.58 Z2.758
X463.217 Y148.526 Z2.75
X463.508 Y148.251
G2 X463.524 Y147.686 I-0.275 J-0.291
G1 X459.635 Y143.568 Z2.552
G3 X471.053 Y120.011 Z1.371 I10.178 J-9.613
G1 X520.543 Y124.409 Z-0.364
G2 X521.959 Y124.409 Z-0.414 I0.708 J-7.969
G1 X571.449 Y120.011 Z-2.149
G3 X586.642 Y135.101 Z-3 I1.24 J13.945
X582.867 Y143.568 I-13.953 J-1.145 F1143
G1 X546.794 Y181.762
G3 X541.705 Y183.956 I-5.089 J-4.806
G1 X535.95
G3 X506.552 Y183.956 I-14.699 J-27.86
G1 X500.797
G3 X495.708 Y181.762 I0 J-7
G1 X459.635 Y143.568
G3 X471.053 Y120.011 I10.178 J-9.613
G1 X520.543 Y124.409
G2 X521.959 Y124.409 I0.708 J-7.969
G1 X571.449 Y120.011
G3 X586.642 Y135.101 I1.24 J13.945
G2 X587.008 Y135.532 I0.399 J0.033
G1 X587.406 Y135.565
X587.484 Y135.571 Z-2.992
X587.559 Y135.577 Z-2.97
X587.628 Y135.583 Z-2.933
X587.688 Y135.588 Z-2.883
X587.738 Y135.592 Z-2.822
X587.775 Y135.595 Z-2.753
X587.797 Y135.597 Z-2.678
X587.805 Z-2.6
G0 Z10
X111.446 Y369.3
Z7
G1 Z4.65 F450
G19 G2 Y368.9 Z4.25 J-0.4 K0 F1000
G1 Y368.5
G17 G2 X111.046 Y368.1 I-0.4 J0
G1 X14.343 Z0.873
G3 X12.929 Y367.514 Z0.818 I0 J-2
G1 X6.586 Y361.171 Z0.505
G3 X6 Y359.757 Z0.45 I1.414 J-1.414
G1 Y303.913 Z-1.5
Y302.1 F1143
G3 X8 Y300.1 I2 J0
G1 X448
G3 X450 Y302.1 I0 J2
G1 Y359.757
G3 X449.414 Y361.171 I-2 J0
G1 X443.071 Y367.514
G3 X441.657 Y368.1 I-1.414 J-1.414
G1 X14.343
G3 X12.929 Y367.514 I0 J-2
G1 X6.586 Y361.171
G3 X6 Y359.757 I1.414 J-1.414
G1 Y303.913
G2 X5.6 Y303.513 I-0.4 J0
G1 X5.2
G18 G3 X4.8 Z-1.1 I0 K0.4
G0 Z10
X167.303 Y298.95
Z7
G1 Z3.9 F450
G19 G2 Y298.55 Z3.5 J-0.4 K0 F1000
G1 Y298.15
G17 G2 X166.903 Y297.75 I-0.4 J0
G1 X14.343 Z-1.827
G3 X12.929 Y297.164 Z-1.882 I0 J-2
G1 X6.586 Y290.821 Z-2.196
G3 X6 Y289.42 Z-2.25 I1.414 J-1.414
G1 Y289.407 F1143
Y231.75
G3 X8 Y229.75 I2 J0
G1 X448
G3 X450 Y231.75 I0 J2
G1 Y289.407
G3 X449.414 Y290.821 I-2 J0
G1 X443.071 Y297.164
G3 X441.657 Y297.75 I-1.414 J-1.414
G1 X14.343
G3 X12.929 Y297.164 I0 J-2
G1 X6.586 Y290.821
G3 X6 Y289.42 I1.414 J-1.414
G2 X5.597 Y289.023 I-0.4 J0.003
G1 X5.197 Y289.025
X5.119 Y289.026 Z-2.242
X5.044 Z-2.22
X4.975 Y289.027 Z-2.183
X4.915 Z-2.133
X4.865 Y289.028 Z-2.072
X4.828 Z-2.003
X4.805 Z-1.928
X4.797 Z-1.85
G0 Z10
X167.304 Y228.6
Z7
G1 Z3.15 F450
G19 G2 Y228.2 Z2.75 J-0.4 K0 F1000
G1 Y227.8
G17 G2 X166.904 Y227.4 I-0.4 J0
G1 X14.343 Z-2.578
G3 X12.929 Y226.814 Z-2.632 I0 J-2
G1 X6.586 Y220.471 Z-2.946
G3 X6 Y219.072 Z-3 I1.414 J-1.414
G1 Y219.057 F1143
Y161.4
G3 X8 Y159.4 I2 J0
G1 X448
G3 X450 Y161.4 I0 J2
G1 Y200.374
Y219.057
G3 X449.414 Y220.471 I-2 J0
G1 X443.071 Y226.814
G3 X441.657 Y227.4 I-1.414 J-1.414
G1 X14.343
G3 X12.929 Y226.814 I0 J-2
G1 X6.586 Y220.471
G3 X6 Y219.072 I1.414 J-1.414
G2 X5.597 Y218.675 I-0.4 J0.003
G1 X5.197 Y218.678
X5.119 Z-2.992
X5.044 Y218.679 Z-2.97
X4.975 Z-2.933
X4.914 Y218.68 Z-2.883
X4.865 Z-2.822
X4.828 Z-2.753
X4.805 Y218.681 Z-2.678
X4.797 Z-2.6
G0 Z10
X151.861 Y441.759
Z7
G1 Z5.4 F450
X151.86 Y441.766 Z5.322 F1000
X151.858 Y441.789 Z5.247
X151.855 Y441.826 Z5.178
X151.85 Y441.875 Z5.117
X151.845 Y441.936 Z5.067
X151.839 Y442.005 Z5.03
X151.832 Y442.079 Z5.008
X151.825 Y442.157 Z5
X151.79 Y442.556
G2 X152.153 Y442.989 I0.398 J0.035
G1 X182.473 Y445.684 Z3.937
G2 X183.889 Y445.684 Z3.888 I0.708 J-7.969
G1 X233.379 Y441.286 Z2.152
G3 X244.797 Y464.844 Z0.971 I1.24 J13.945
G1 X210.955 Y500.675 Z-0.75
X208.724 Y503.037 F1143
G3 X203.635 Y505.231 I-5.089 J-4.806
G1 X193.132
X162.727
G3 X157.638 Y503.037 I0 J-7
G1 X121.565 Y464.844
G3 X132.983 Y441.286 I10.178 J-9.613
G1 X182.473 Y445.684
G2 X183.889 Y445.684 I0.708 J-7.969
G1 X233.379 Y441.286
G3 X244.797 Y464.844 I1.24 J13.945
G1 X210.955 Y500.675
X208.724 Y503.037 Z-0.863 F1000
G3 X203.635 Y505.231 Z-1.062 I-5.089 J-4.806
G1 X193.132 Z-1.429
X191.104 Z-1.5
X162.727 F1143
G3 X157.638 Y503.037 I0 J-7
G1 X121.565 Y464.844
G3 X132.983 Y441.286 I10.178 J-9.613
G1 X182.473 Y445.684
G2 X183.889 Y445.684 I0.708 J-7.969
G1 X233.379 Y441.286
G3 X244.797 Y464.844 I1.24 J13.945
G1 X210.955 Y500.675
X208.724 Y503.037
G3 X203.635 Y505.231 I-5.089 J-4.806
G1 X193.132
X191.104
G2 X190.704 Y505.631 I0 J0.4
G1 Y506.031
G19 G3 Y506.431 Z-1.1 J0 K0.4
G0 Z10
X147.496 Y506.417
Z7
G1 Z4.65 F450
X147.498 Y506.425 Z4.572 F1000
X147.505 Y506.446 Z4.497
X147.516 Y506.482 Z4.428
X147.53 Y506.529 Z4.367
X147.548 Y506.587 Z4.317
X147.568 Y506.653 Z4.28
X147.59 Y506.725 Z4.258
X147.612 Y506.8 Z4.25
X147.729 Y507.183
G17 G2 X148.228 Y507.449 I0.383 J-0.116
G3 X159.257 Y507.446 Z3.859 I5.52 J18.18
G1 X159.895 Y507.639 Z3.836
X179.87 Y513.691 Z3.107
G2 X187.66 Y511.872 Z2.815 I2.32 J-7.656
G3 X200.922 Y515.889 Z2.229 I5.471 J5.837
G2 X206.392 Y521.727 Z1.937 I7.791 J-1.818
G1 X216.1 Y524.668 Z1.583
G3 X231.149 Y566.026 Z-0.199 I-7.974 J26.319
G1 X216.498 Y588.455 Z-1.135
G3 X207.582 Y592.971 Z-1.5 I-8.372 J-5.469
X199.754 Y588.455 I0.544 J-9.985 F1143
G1 X189.177 Y572.263
G2 X188.746 Y571.664 I-6.703 J4.367
X183.098 Y572.264 I-2.033 J7.737
G3 X171.496 Y564.688 I-3.614 J-7.137
G2 X167.882 Y557.551 I-7.988 J-0.439
G1 X159.986 Y552.395
G2 X151.997 Y551.955 I-4.374 J6.698
G3 X140.476 Y543.598 I-3.614 J-7.137
G2 X138.845 Y537.416 I-7.906 J-1.22
G3 X159.257 Y507.446 I14.902 J-11.786
G1 X159.895 Y507.639
X179.87 Y513.691
G2 X187.66 Y511.872 I2.32 J-7.656
G3 X200.922 Y515.889 I5.471 J5.837
G2 X206.392 Y521.727 I7.791 J-1.818
G1 X216.1 Y524.668
G3 X231.149 Y566.026 I-7.974 J26.319
G1 X216.498 Y588.455
G3 X207.582 Y592.971 I-8.372 J-5.469
X199.754 Y588.455 Z-1.827 I0.544 J-9.985 F1000
G1 X193.137 Y578.325 Z-2.25
X189.177 Y572.263 F1143
G2 X188.746 Y571.664 I-6.703 J4.367
X183.098 Y572.264 I-2.033 J7.737
G3 X171.496 Y564.688 I-3.614 J-7.137
G2 X167.882 Y557.551 I-7.988 J-0.439
G1 X159.986 Y552.395
G2 X151.997 Y551.955 I-4.374 J6.698
G3 X140.476 Y543.598 I-3.614 J-7.137
G2 X138.845 Y537.416 I-7.906 J-1.22
G3 X159.257 Y507.446 I14.902 J-11.786
G1 X159.895 Y507.639
X179.87 Y513.691
G2 X187.66 Y511.872 I2.32 J-7.656
G3 X200.922 Y515.889 I5.471 J5.837
G2 X206.392 Y521.727 I7.791 J-1.818
G1 X216.1 Y524.668
G3 X231.149 Y566.026 I-7.974 J26.319
G1 X216.498 Y588.455
G3 X199.754 Y588.455 I-8.372 J-5.469
G1 X193.137 Y578.325
G2 X192.583 Y578.209 I-0.335 J0.219
G1 X192.248 Y578.428
X192.183 Y578.47 Z-2.242
X192.12 Y578.512 Z-2.22
X192.062 Y578.549 Z-2.183
X192.011 Y578.582 Z-2.133
X191.97 Y578.61 Z-2.072
X191.939 Y578.63 Z-2.003
X191.92 Y578.642 Z-1.928
X191.913 Y578.647 Z-1.85
G0 Z10
X334.374 Y457.022
Z7
G1 Z4.65 F450
X334.368 Y457.027 Z4.572 F1000
X334.351 Y457.043 Z4.497
X334.325 Y457.068 Z4.428
X334.288 Y457.102 Z4.367
X334.244 Y457.144 Z4.317
X334.194 Y457.191 Z4.28
X334.14 Y457.243 Z4.258
X334.083 Y457.297 Z4.25
X333.792 Y457.571
G2 X333.776 Y458.137 I0.275 J0.291
G1 X355.685 Y481.335 Z3.136
G3 X344.268 Y504.892 Z1.954 I-10.178 J9.613
G1 X294.778 Y500.494 Z0.219
G2 X293.362 Y500.494 Z0.17 I-0.708 J7.969
G1 X245.73 Y504.727 Z-1.5
X243.872 Y504.892 F1143
G3 X232.454 Y481.335 I-1.24 J-13.945
G1 X268.527 Y443.141
G3 X273.616 Y440.947 I5.089 J4.806
G1 X314.524
G3 X319.613 Y443.141 I0 J7
G1 X355.685 Y481.335
G3 X344.268 Y504.892 I-10.178 J9.613
G1 X294.778 Y500.494
G2 X293.362 Y500.494 I-0.708 J7.969
G1 X245.73 Y504.727
G2 X245.367 Y505.161 I0.035 J0.398
G1 X245.402 Y505.559
X245.409 Y505.637 Z-1.492
X245.416 Y505.712 Z-1.47
X245.422 Y505.781 Z-1.433
X245.427 Y505.841 Z-1.383
X245.431 Y505.891 Z-1.322
X245.435 Y505.927 Z-1.253
X245.437 Y505.95 Z-1.178
Y505.958 Z-1.1
G0 Z10
X297.172 Y504.909
Z7
G1 Z3.9 F450
Y504.917 Z3.822 F1000
X297.173 Y504.939 Z3.747
Y504.976 Z3.678
X297.174 Y505.026 Z3.617
X297.176 Y505.087 Z3.567
X297.177 Y505.156 Z3.53
X297.178 Y505.231 Z3.508
X297.18 Y505.309 Z3.5
X297.188 Y505.709
G2 X297.595 Y506.101 I0.4 J-0.008
X312.435 Y505.35 Z2.981 I-4.588 J-237.539
G3 X318.321 Y516.882 Z2.404 I0.572 J6.976
G2 X318.321 Y587.769 Z-0.292 I41.341 J35.444
G3 X312.436 Y599.302 Z-0.869 I-5.314 J4.556
G2 X273.58 Y599.302 Z-2.227 I-19.428 J236.788
G3 X272.93 Y599.325 Z-2.25 I-0.573 J-6.976
X266.085 Y591.282 I0.077 J-6.999 F1143
G2 X266.085 Y513.37 I-258.245 J-38.956
G3 X273.58 Y505.35 I6.922 J-1.044
G2 X312.435 Y505.35 I19.428 J-236.788
G3 X318.321 Y516.882 I0.572 J6.976
G2 X318.321 Y587.769 I41.341 J35.444
G3 X312.436 Y599.302 I-5.314 J4.556
G2 X273.58 Y599.302 I-19.428 J236.788
G3 X272.93 Y599.325 I-0.573 J-6.976
G2 X272.525 Y599.721 I-0.004 J0.4
G1 X272.521 Y600.121
X272.52 Y600.199 Z-2.242
X272.519 Y600.274 Z-2.22
Y600.343 Z-2.183
X272.518 Y600.404 Z-2.133
X272.517 Y600.453 Z-2.072
Y600.49 Z-2.003
Y600.513 Z-1.928
Y600.521 Z-1.85
G0 Z10
X354.983 Y507.406
Z7
G1 Z3.9 F450
Y507.414 Z3.822 F1000
X354.984 Y507.436 Z3.747
X354.985 Y507.473 Z3.678
X354.986 Y507.523 Z3.617
X354.987 Y507.584 Z3.567
X354.988 Y507.653 Z3.53
X354.99 Y507.728 Z3.508
X354.991 Y507.806 Z3.5
X354.999 Y508.206
G2 X355.407 Y508.598 I0.4 J-0.008
X370.078 Y507.85 Z2.987 I-4.757 J-237.536
G3 X375.964 Y519.382 Z2.41 I0.572 J6.976
G2 X375.964 Y590.269 Z-0.286 I41.34 J35.444
G3 X370.079 Y601.802 Z-0.863 I-5.314 J4.556
G2 X331.223 Y601.802 Z-2.221 I-19.428 J236.787
G3 X330.404 Y601.821 Z-2.25 I-0.573 J-6.976
X323.728 Y593.782 I0.246 J-6.996 F1143
G2 X323.728 Y515.87 I-258.245 J-38.956
G3 X331.223 Y507.85 I6.922 J-1.044
G2 X370.078 Y507.85 I19.428 J-236.788
G3 X375.964 Y519.382 I0.572 J6.976
G2 X375.964 Y590.269 I41.34 J35.444
G3 X370.079 Y601.802 I-5.314 J4.556
G2 X331.223 Y601.802 I-19.428 J236.787
G3 X330.404 Y601.821 I-0.573 J-6.976
G2 X329.99 Y602.207 I-0.014 J0.4
G1 X329.976 Y602.607
X329.973 Y602.685 Z-2.242
X329.971 Y602.76 Z-2.22
X329.968 Y602.829 Z-2.183
X329.966 Y602.89 Z-2.133
X329.964 Y602.939 Z-2.072
X329.963 Y602.976 Z-2.003
X329.962 Y602.999 Z-1.928
Y603.007 Z-1.85
G0 Z10
X457.608 Y485.83
Z7
G1 Z4.65 F450
X457.616 Y485.832 Z4.572 F1000
X457.638 Y485.836 Z4.497
X457.674 Y485.844 Z4.428
X457.723 Y485.854 Z4.367
X457.782 Y485.866 Z4.317
X457.85 Y485.88 Z4.28
X457.923 Y485.896 Z4.258
X458 Y485.912 Z4.25
X458.391 Y485.993
G2 X458.864 Y485.683 I0.082 J-0.392
G3 X462.764 Y476.25 Z3.891 I26.923 J5.606
G1 X477.415 Y453.82 Z2.956
G3 X494.158 Y453.82 Z2.263 I8.372 J5.469
G1 X504.736 Y470.013 Z1.588
X504.737 Y470.014
G2 X505.167 Y470.613 Z1.562 I6.705 J-4.365
X510.815 Y470.012 Z1.359 I2.033 J-7.737
G3 X522.417 Y477.588 Z0.774 I3.614 J7.137
G2 X526.031 Y484.725 Z0.481 I7.988 J0.44
G1 X533.927 Y489.881 Z0.152
G2 X541.915 Y490.321 Z-0.141 I4.375 J-6.698
G3 X553.436 Y498.678 Z-0.753 I3.615 J7.136
G2 X555.068 Y504.86 Z-0.983 I7.906 J1.219
G3 X559.05 Y518.739 Z-1.5 I-14.902 J11.786
X534.656 Y534.83 I-18.884 J-2.092 F1143
G1 X514.043 Y528.585
G2 X506.253 Y530.404 I-2.32 J7.656
G3 X492.991 Y526.387 I-5.471 J-5.837
G2 X487.52 Y520.549 I-7.791 J1.819
G1 X477.813 Y517.608
G3 X462.764 Y476.25 I7.974 J-26.319
G1 X477.415 Y453.82
G3 X494.158 Y453.82 I8.372 J5.469
G1 X504.736 Y470.013
X504.737 Y470.014
G2 X505.167 Y470.613 I6.705 J-4.365
X510.815 Y470.012 I2.033 J-7.737
G3 X522.417 Y477.588 I3.614 J7.137
G2 X526.031 Y484.725 I7.988 J0.44
G1 X533.927 Y489.881
G2 X541.915 Y490.321 I4.375 J-6.698
G3 X553.436 Y498.678 I3.615 J7.136
G2 X555.068 Y504.86 I7.906 J1.219
G3 X559.05 Y518.739 I-14.902 J11.786
G2 X559.403 Y519.18 I0.398 J0.044
G1 X559.801 Y519.224
X559.878 Y519.233 Z-1.492
X559.953 Y519.241 Z-1.47
X560.022 Y519.249 Z-1.433
X560.082 Y519.256 Z-1.383
X560.131 Y519.261 Z-1.322
X560.168 Y519.265 Z-1.253
X560.191 Y519.268 Z-1.178
X560.198 Z-1.1
G0 Z10
X488.406 Y535.135
Z7
G1 Z3.9 F450
Y535.143 Z3.822 F1000
Y535.166 Z3.747
X488.405 Y535.203 Z3.678
Y535.252 Z3.617
X488.404 Y535.313 Z3.567
X488.403 Y535.382 Z3.53
X488.402 Y535.457 Z3.508
Y535.535 Z3.5
X488.397 Y535.935
G2 X488.792 Y536.34 I0.4 J0.005
G3 X494.357 Y538.683 Z3.284 I-0.092 J7.999
G1 X501.674 Y545.999 Z2.922
G2 X507.46 Y548.341 Z2.699 I5.657 J-5.657
G3 X507.942 Y548.341 Z2.682 I0.241 J14.998
G2 X513.727 Y545.999 Z2.458 I0.128 J-7.999
G1 X521.044 Y538.683 Z2.096
G3 X532.358 Y538.682 Z1.658 I5.657 J5.656
X532.357 Y549.996 Z1.219 I-5.657 J5.657
G1 X525.041 Y557.313 Z0.857
G2 X522.699 Y563.098 Z0.634 I5.656 J5.657
G3 X522.699 Y563.58 Z0.617 I-14.998 J0.241
G2 X525.041 Y569.366 Z0.393 I7.999 J0.128
G1 X532.357 Y576.683 Z0.032
G3 X532.358 Y587.997 Z-0.407 I-5.656 J5.657
X521.044 Y587.996 Z-0.846 I-5.657 J-5.657
G1 X513.727 Y580.679 Z-1.208
G2 X507.942 Y578.338 Z-1.431 I-5.656 J5.657
G3 X507.46 Y578.338 Z-1.448 I-0.241 J-14.999
G2 X501.674 Y580.679 Z-1.672 I-0.13 J7.999
G1 X494.357 Y587.996 Z-2.033
G3 X488.783 Y590.338 Z-2.25 I-5.656 J-5.657
X483.044 Y576.683 I-0.082 J-7.999 F1143
G1 X490.361 Y569.366
G2 X492.702 Y563.58 I-5.657 J-5.656
G3 X492.702 Y563.098 I14.999 J-0.241
G2 X490.361 Y557.313 I-7.999 J-0.129
G1 X483.044 Y549.996
G3 X483.043 Y538.682 I5.656 J-5.657
X494.357 Y538.683 I5.657 J5.657
G1 X501.674 Y545.999
G2 X507.46 Y548.341 I5.657 J-5.657
G3 X507.942 Y548.341 I0.241 J14.998
G2 X513.727 Y545.999 I0.128 J-7.999
G1 X521.044 Y538.683
G3 X532.358 Y538.682 I5.657 J5.656
X532.357 Y549.996 I-5.657 J5.657
G1 X525.041 Y557.313
G2 X522.699 Y563.098 I5.656 J5.657
G3 X522.699 Y563.58 I-14.998 J0.241
G2 X525.041 Y569.366 I7.999 J0.128
G1 X532.357 Y576.683
G3 X532.358 Y587.997 I-5.656 J5.657
X521.044 Y587.996 I-5.657 J-5.657
G1 X513.727 Y580.679
G2 X507.942 Y578.338 I-5.656 J5.657
G3 X507.46 Y578.338 I-0.241 J-14.999
G2 X501.674 Y580.679 I-0.13 J7.999
G1 X494.357 Y587.996
G3 X488.783 Y590.338 I-5.656 J-5.657
G2 X488.387 Y590.742 I0.004 J0.4
G1 X488.391 Y591.142
X488.392 Y591.22 Z-2.242
X488.393 Y591.296 Z-2.22
X488.394 Y591.365 Z-2.183
Y591.425 Z-2.133
X488.395 Y591.475 Z-2.072
Y591.512 Z-2.003
Y591.535 Z-1.928
X488.396 Y591.542 Z-1.85
G0 Z10
X438.715 Y520.542
Z7
G1 Z3.9 F450
X438.714 Y520.549 Z3.822 F1000
Y520.572 Z3.747
X438.712 Y520.609 Z3.678
X438.71 Y520.659 Z3.617
X438.708 Y520.719 Z3.567
X438.705 Y520.788 Z3.53
X438.702 Y520.863 Z3.508
X438.699 Y520.941 Z3.5
X438.684 Y521.341
G2 X439.068 Y521.756 I0.4 J0.015
G3 X444.417 Y524.094 Z3.291 I-0.308 J7.994
G1 X451.734 Y531.411 Z2.93
G2 X457.519 Y533.752 Z2.706 I5.656 J-5.657
G3 X458.001 Y533.752 Z2.689 I0.241 J14.999
G2 X463.787 Y531.411 Z2.465 I0.13 J-7.999
G1 X471.104 Y524.094 Z2.104
G3 X482.417 Y535.407 Z1.226 I5.656 J5.657
G1 X475.1 Y542.724 Z0.865
G2 X472.759 Y548.51 Z0.641 I5.657 J5.656
G3 X472.759 Y548.992 Z0.624 I-14.999 J0.241
G2 X475.1 Y554.777 Z0.4 I7.999 J0.129
G1 X482.417 Y562.094 Z0.039
G3 X471.104 Y573.407 Z-0.838 I-5.657 J5.656
G1 X463.787 Y566.091 Z-1.2
G2 X458.001 Y563.749 Z-1.424 I-5.657 J5.656
G3 X457.519 Y563.749 Z-1.441 I-0.241 J-14.998
G2 X451.734 Y566.091 Z-1.664 I-0.128 J7.999
G1 X444.417 Y573.407 Z-2.026
G3 X438.623 Y575.75 Z-2.25 I-5.657 J-5.656
X433.104 Y562.094 I0.137 J-7.999 F1143
G1 X440.42 Y554.777
G2 X442.762 Y548.992 I-5.656 J-5.657
G3 X442.762 Y548.51 I14.998 J-0.241
G2 X440.42 Y542.724 I-7.999 J-0.128
G1 X433.104 Y535.407
G3 X433.103 Y524.093 I5.656 J-5.657
X444.417 Y524.094 I5.657 J5.657
G1 X451.734 Y531.411
G2 X457.519 Y533.752 I5.656 J-5.657
G3 X458.001 Y533.752 I0.241 J14.999
G2 X463.787 Y531.411 I0.13 J-7.999
G1 X471.104 Y524.094
G3 X482.417 Y535.407 I5.656 J5.657
G1 X475.1 Y542.724
G2 X472.759 Y548.51 I5.657 J5.656
G3 X472.759 Y548.992 I-14.999 J0.241
G2 X475.1 Y554.777 I7.999 J0.129
G1 X482.417 Y562.094
G3 X471.104 Y573.407 I-5.657 J5.656
G1 X463.787 Y566.091
G2 X458.001 Y563.749 I-5.657 J5.656
G3 X457.519 Y563.749 I-0.241 J-14.998
G2 X451.734 Y566.091 I-0.128 J7.999
G1 X444.417 Y573.407
G3 X438.623 Y575.75 I-5.657 J-5.656
G2 X438.216 Y576.143 I-0.007 J0.4
G1 X438.209 Y576.543
X438.208 Y576.621 Z-2.242
X438.206 Y576.696 Z-2.22
X438.205 Y576.765 Z-2.183
X438.204 Y576.825 Z-2.133
X438.203 Y576.875 Z-2.072
Y576.912 Z-2.003
X438.202 Y576.935 Z-1.928
Y576.943 Z-1.85
G0 Z10
X109.618 Y439.65
Z7
G1 Z4.65 F450
G19 G2 Y439.25 Z4.25 J-0.4 K0 F1000
G1 Y438.85
G17 G2 X109.218 Y438.45 I-0.4 J0
G1 X14.343 Z0.937
G3 X12.929 Y437.864 Z0.882 I0 J-2
G1 X6.586 Y431.521 Z0.569
G3 X6 Y430.107 Z0.514 I1.414 J-1.414
G1 Y372.45 Z-1.499
Y372.436 Z-1.5
G3 X8 Y370.45 I2 J0.014 F1143
G1 X448
G3 X450 Y372.45 I0 J2
G1 Y430.107
G3 X449.414 Y431.521 I-2 J0
G1 X443.071 Y437.864
G3 X441.657 Y438.45 I-1.414 J-1.414
G1 X14.343
G3 X12.929 Y437.864 I0 J-2
G1 X6.586 Y431.521
G3 X6 Y430.107 I1.414 J-1.414
G1 Y372.45
Y372.436
G2 X5.603 Y372.033 I-0.4 J-0.003
G1 X5.203 Y372.03
X5.125 Y372.029 Z-1.492
X5.05 Z-1.47
X4.981 Y372.028 Z-1.433
X4.92 Z-1.383
X4.87 Z-1.322
X4.833 Y372.027 Z-1.253
X4.811 Z-1.178
X4.803 Z-1.1
G0 Z10
X111.446 Y369.3
Z7
G1 Z3.9 F450
G19 G2 Y368.9 Z3.5 J-0.4 K0 F1000
G1 Y368.5
G17 G2 X111.046 Y368.1 I-0.4 J0
G1 X14.343 Z0.123
G3 X12.929 Y367.514 Z0.068 I0 J-2
G1 X6.586 Y361.171 Z-0.245
G3 X6 Y359.757 Z-0.3 I1.414 J-1.414
G1 Y303.913 Z-2.25
Y302.1 F1143
G3 X8 Y300.1 I2 J0
G1 X448
G3 X450 Y302.1 I0 J2
G1 Y359.757
G3 X449.414 Y361.171 I-2 J0
G1 X443.071 Y367.514
G3 X441.657 Y368.1 I-1.414 J-1.414
G1 X14.343
G3 X12.929 Y367.514 I0 J-2
G1 X6.586 Y361.171
G3 X6 Y359.757 I1.414 J-1.414
G1 Y303.913
G2 X5.6 Y303.513 I-0.4 J0
G1 X5.2
G18 G3 X4.8 Z-1.85 I0 K0.4
G0 Z10
X167.303 Y298.95
Z7
G1 Z3.15 F450
G19 G2 Y298.55 Z2.75 J-0.4 K0 F1000
G1 Y298.15
G17 G2 X166.903 Y297.75 I-0.4 J0
G1 X14.343 Z-2.577
G3 X12.929 Y297.164 Z-2.632 I0 J-2
G1 X6.586 Y290.821 Z-2.946
G3 X6 Y289.42 Z-3 I1.414 J-1.414
G1 Y289.407 F1143
Y231.75
G3 X8 Y229.75 I2 J0
G1 X448
G3 X450 Y231.75 I0 J2
G1 Y289.407
G3 X449.414 Y290.821 I-2 J0
G1 X443.071 Y297.164
G3 X441.657 Y297.75 I-1.414 J-1.414
G1 X14.343
G3 X12.929 Y297.164 I0 J-2
G1 X6.586 Y290.821
G3 X6 Y289.42 I1.414 J-1.414
G2 X5.597 Y289.023 I-0.4 J0.003
G1 X5.197 Y289.025
X5.119 Y289.026 Z-2.992
X5.044 Z-2.97
X4.975 Y289.027 Z-2.933
X4.915 Z-2.883
X4.865 Y289.028 Z-2.822
X4.828 Z-2.753
X4.805 Z-2.678
X4.797 Z-2.6
G0 Z10
X129.966 Y475.412
Z7
G1 Z4.65 F450
X129.96 Y475.417 Z4.572 F1000
X129.943 Y475.433 Z4.497
X129.917 Y475.458 Z4.428
X129.88 Y475.493 Z4.367
X129.836 Y475.534 Z4.317
X129.786 Y475.582 Z4.28
X129.732 Y475.633 Z4.258
X129.675 Y475.687 Z4.25
X129.384 Y475.962
G2 X129.368 Y476.527 I0.275 J0.291
G1 X133.769 Y481.187 Z4.026
G3 X122.351 Y504.745 Z2.845 I-10.179 J9.613
G1 X72.861 Y500.347 Z1.11
G2 X71.445 Y500.347 Z1.06 I-0.708 J7.969
G1 X21.955 Y504.745 Z-0.675
G3 X6.721 Y490.4 Z-1.5 I-1.239 J-13.945
X10.537 Y481.187 I13.994 J0.4 F1143
G1 X46.61 Y442.994
G3 X51.699 Y440.8 I5.089 J4.806
G1 X92.607
G3 X97.696 Y442.994 I0 J7
G1 X119.75 Y466.344
X133.769 Y481.187
G3 X122.351 Y504.745 I-10.179 J9.613
G1 X72.861 Y500.347
G2 X71.445 Y500.347 I-0.708 J7.969
G1 X21.955 Y504.745
G3 X6.721 Y490.4 I-1.239 J-13.945
G2 X6.332 Y489.989 I-0.4 J-0.011
G1 X5.933 Y489.978
X5.855 Y489.975 Z-1.492
X5.78 Y489.973 Z-1.47
X5.711 Y489.971 Z-1.433
X5.65 Y489.97 Z-1.383
X5.6 Y489.968 Z-1.322
X5.563 Y489.967 Z-1.253
X5.54 Y489.966 Z-1.178
X5.533 Z-1.1
G0 Z10
X129.966 Y475.412
Z7
G1 Z3.9 F450
X129.96 Y475.417 Z3.822 F1000
X129.943 Y475.433 Z3.747
X129.917 Y475.458 Z3.678
X129.88 Y475.493 Z3.617
X129.836 Y475.534 Z3.567
X129.786 Y475.582 Z3.53
X129.732 Y475.633 Z3.508
X129.675 Y475.687 Z3.5
X129.384 Y475.962
G2 X129.368 Y476.527 I0.275 J0.291
G1 X133.769 Y481.187 Z3.276
G3 X122.351 Y504.745 Z2.095 I-10.179 J9.613
G1 X72.861 Y500.347 Z0.36
G2 X71.445 Y500.347 Z0.31 I-0.708 J7.969
G1 X21.955 Y504.745 Z-1.425
G3 X6.721 Y490.4 Z-2.25 I-1.239 J-13.945
X10.537 Y481.187 I13.994 J0.4 F1143
G1 X46.61 Y442.994
G3 X51.699 Y440.8 I5.089 J4.806
G1 X92.607
G3 X97.696 Y442.994 I0 J7
G1 X119.75 Y466.344
X133.769 Y481.187
G3 X122.351 Y504.745 I-10.179 J9.613
G1 X72.861 Y500.347
G2 X71.445 Y500.347 I-0.708 J7.969
G1 X21.955 Y504.745
G3 X6.721 Y490.4 I-1.239 J-13.945
G2 X6.332 Y489.989 I-0.4 J-0.011
G1 X5.933 Y489.978
X5.855 Y489.975 Z-2.242
X5.78 Y489.973 Z-2.22
X5.711 Y489.971 Z-2.183
X5.65 Y489.97 Z-2.133
X5.6 Y489.968 Z-2.072
X5.563 Y489.967 Z-2.003
X5.54 Y489.966 Z-1.928
X5.533 Z-1.85
G0 Z10
X130.135 Y539.754
Z7
G1 Z3.9 F450
X130.13 Y539.759 Z3.822 F1000
X130.113 Y539.775 Z3.747
X130.086 Y539.8 Z3.678
X130.05 Y539.834 Z3.617
X130.006 Y539.876 Z3.567
X129.956 Y539.923 Z3.53
X129.901 Y539.975 Z3.508
X129.844 Y540.028 Z3.5
X129.554 Y540.303
G2 X129.537 Y540.868 I0.275 J0.291
G1 X133.768 Y545.348 Z3.285
G3 X122.351 Y568.906 Z2.104 I-10.178 J9.613
G1 X72.861 Y564.508 Z0.368
G2 X71.445 Y564.508 Z0.319 I-0.708 J7.969
G1 X21.955 Y568.906 Z-1.416
G3 X6.73 Y554.313 Z-2.25 I-1.239 J-13.945
X10.537 Y545.348 I13.985 J0.648 F1143
G1 X46.61 Y507.155
G3 X51.699 Y504.961 I5.089 J4.806
G1 X92.607
G3 X97.696 Y507.155 I0 J7
G1 X133.768 Y545.348
G3 X122.351 Y568.906 I-10.178 J9.613
G1 X72.861 Y564.508
G2 X71.445 Y564.508 I-0.708 J7.969
G1 X21.955 Y568.906
G3 X6.73 Y554.313 I-1.239 J-13.945
X10.537 Y545.348 Z-2.597 I13.985 J0.648 F1000
G1 X18.454 Y536.966 Z-3
X46.61 Y507.155 F1143
G3 X51.699 Y504.961 I5.089 J4.806
G1 X92.607
G3 X97.696 Y507.155 I0 J7
G1 X133.768 Y545.348
G3 X122.351 Y568.906 I-10.178 J9.613
G1 X72.861 Y564.508
G2 X71.445 Y564.508 I-0.708 J7.969
G1 X21.955 Y568.906
G3 X10.537 Y545.348 I-1.239 J-13.945
G1 X18.454 Y536.966
G2 X18.437 Y536.401 I-0.291 J-0.275
G1 X18.147 Y536.126
X18.09 Y536.072 Z-2.992
X18.035 Y536.021 Z-2.97
X17.985 Y535.973 Z-2.933
X17.941 Y535.932 Z-2.883
X17.905 Y535.898 Z-2.822
X17.878 Y535.872 Z-2.753
X17.861 Y535.857 Z-2.678
X17.856 Y535.851 Z-2.6
G0 Z10
X151.861 Y441.759
Z7
G1 Z3.9 F450
X151.86 Y441.766 Z3.822 F1000
X151.858 Y441.789 Z3.747
X151.855 Y441.826 Z3.678
X151.85 Y441.875 Z3.617
X151.845 Y441.936 Z3.567
X151.839 Y442.005 Z3.53
X151.832 Y442.079 Z3.508
X151.825 Y442.157 Z3.5
X151.79 Y442.556
G2 X152.153 Y442.989 I0.398 J0.035
G1 X182.473 Y445.684 Z2.437
G2 X183.889 Y445.684 Z2.388 I0.708 J-7.969
G1 X233.379 Y441.286 Z0.652
G3 X244.797 Y464.844 Z-0.529 I1.24 J13.945
G1 X210.955 Y500.675 Z-2.25
X208.724 Y503.037 F1143
G3 X203.635 Y505.231 I-5.089 J-4.806
G1 X193.132
X162.727
G3 X157.638 Y503.037 I0 J-7
G1 X121.565 Y464.844
G3 X132.983 Y441.286 I10.178 J-9.613
G1 X182.473 Y445.684
G2 X183.889 Y445.684 I0.708 J-7.969
G1 X233.379 Y441.286
G3 X244.797 Y464.844 I1.24 J13.945
G1 X210.955 Y500.675
G2 X210.971 Y501.241 I0.291 J0.275
G1 X211.262 Y501.515
X211.319 Y501.569 Z-2.242
X211.373 Y501.62 Z-2.22
X211.423 Y501.668 Z-2.183
X211.467 Y501.71 Z-2.133
X211.504 Y501.744 Z-2.072
X211.53 Y501.769 Z-2.003
X211.547 Y501.785 Z-1.928
X211.553 Y501.79 Z-1.85
G0 Z10
X147.496 Y506.417
Z7
G1 Z3.15 F450
X147.498 Y506.425 Z3.072 F1000
X147.505 Y506.446 Z2.997
X147.516 Y506.482 Z2.928
X147.53 Y506.529 Z2.867
X147.548 Y506.587 Z2.817
X147.568 Y506.653 Z2.78
X147.59 Y506.725 Z2.758
X147.612 Y506.8 Z2.75
X147.729 Y507.183
G2 X148.228 Y507.449 I0.383 J-0.116
G3 X159.257 Y507.446 Z2.359 I5.52 J18.18
G1 X159.895 Y507.639 Z2.336
X179.87 Y513.691 Z1.607
G2 X187.66 Y511.872 Z1.315 I2.32 J-7.656
G3 X200.922 Y515.889 Z0.729 I5.471 J5.837
G2 X206.392 Y521.727 Z0.437 I7.791 J-1.818
G1 X216.1 Y524.668 Z0.083
G3 X231.149 Y566.026 Z-1.699 I-7.974 J26.319
G1 X216.498 Y588.455 Z-2.635
G3 X207.582 Y592.971 Z-3 I-8.372 J-5.469
X199.754 Y588.455 I0.544 J-9.985 F1143
G1 X189.177 Y572.263
G2 X188.746 Y571.664 I-6.703 J4.367
X183.098 Y572.264 I-2.033 J7.737
G3 X171.496 Y564.688 I-3.614 J-7.137
G2 X167.882 Y557.551 I-7.988 J-0.439
G1 X159.986 Y552.395
G2 X151.997 Y551.955 I-4.374 J6.698
G3 X140.476 Y543.598 I-3.614 J-7.137
G2 X138.845 Y537.416 I-7.906 J-1.22
G3 X159.257 Y507.446 I14.902 J-11.786
G1 X159.895 Y507.639
X179.87 Y513.691
G2 X187.66 Y511.872 I2.32 J-7.656
G3 X200.922 Y515.889 I5.471 J5.837
G2 X206.392 Y521.727 I7.791 J-1.818
G1 X216.1 Y524.668
G3 X231.149 Y566.026 I-7.974 J26.319
G1 X216.498 Y588.455
G3 X207.582 Y592.971 I-8.372 J-5.469
G2 X207.161 Y593.349 I-0.022 J0.399
G1 X207.139 Y593.748
X207.135 Y593.826 Z-2.992
X207.131 Y593.901 Z-2.97
X207.127 Y593.97 Z-2.933
X207.124 Y594.031 Z-2.883
X207.121 Y594.081 Z-2.822
X207.119 Y594.117 Z-2.753
X207.118 Y594.14 Z-2.678
X207.117 Y594.148 Z-2.6
G0 Z10
X334.374 Y457.022
Z7
G1 Z3.9 F450
X334.368 Y457.027 Z3.822 F1000
X334.351 Y457.043 Z3.747
X334.325 Y457.068 Z3.678
X334.288 Y457.102 Z3.617
X334.244 Y457.144 Z3.567
X334.194 Y457.191 Z3.53
X334.14 Y457.243 Z3.508
X334.083 Y457.297 Z3.5
X333.792 Y457.571
G2 X333.776 Y458.137 I0.275 J0.291
G1 X355.685 Y481.335 Z2.386
G3 X344.268 Y504.892 Z1.204 I-10.178 J9.613
G1 X294.778 Y500.494 Z-0.531
G2 X293.362 Y500.494 Z-0.58 I-0.708 J7.969
G1 X245.73 Y504.727 Z-2.25
X243.872 Y504.892 F1143
G3 X232.454 Y481.335 I-1.24 J-13.945
G1 X268.527 Y443.141
G3 X273.616 Y440.947 I5.089 J4.806
G1 X314.524
G3 X319.613 Y443.141 I0 J7
G1 X355.685 Y481.335
G3 X344.268 Y504.892 I-10.178 J9.613
G1 X294.778 Y500.494
G2 X293.362 Y500.494 I-0.708 J7.969
G1 X245.73 Y504.727
G2 X245.367 Y505.161 I0.035 J0.398
G1 X245.402 Y505.559
X245.409 Y505.637 Z-2.242
X245.416 Y505.712 Z-2.22
X245.422 Y505.781 Z-2.183
X245.427 Y505.841 Z-2.133
X245.431 Y505.891 Z-2.072
X245.435 Y505.927 Z-2.003
X245.437 Y505.95 Z-1.928
Y505.958 Z-1.85
G0 Z10
X297.172 Y504.909
Z7
G1 Z3.15 F450
Y504.917 Z3.072 F1000
X297.173 Y504.939 Z2.997
Y504.976 Z2.928
X297.174 Y505.026 Z2.867
X297.176 Y505.087 Z2.817
X297.177 Y505.156 Z2.78
X297.178 Y505.231 Z2.758
X297.18 Y505.309 Z2.75
X297.188 Y505.709
G2 X297.595 Y506.101 I0.4 J-0.008
X312.435 Y505.35 Z2.231 I-4.588 J-237.539
G3 X318.321 Y516.882 Z1.654 I0.572 J6.976
G2 X318.321 Y587.769 Z-1.042 I41.341 J35.444
G3 X312.436 Y599.302 Z-1.619 I-5.314 J4.556
G2 X273.58 Y599.302 Z-2.977 I-19.428 J236.788
G3 X272.93 Y599.325 Z-3 I-0.573 J-6.976
X266.085 Y591.282 I0.077 J-6.999 F1143
G2 X266.085 Y513.37 I-258.245 J-38.956
G3 X273.58 Y505.35 I6.922 J-1.044
G2 X312.435 Y505.35 I19.428 J-236.788
G3 X318.321 Y516.882 I0.572 J6.976
G2 X318.321 Y587.769 I41.341 J35.444
G3 X312.436 Y599.302 I-5.314 J4.556
G2 X273.58 Y599.302 I-19.428 J236.788
G3 X272.93 Y599.325 I-0.573 J-6.976
G2 X272.525 Y599.721 I-0.004 J0.4
G1 X272.521 Y600.121
X272.52 Y600.199 Z-2.992
X272.519 Y600.274 Z-2.97
Y600.343 Z-2.933
X272.518 Y600.404 Z-2.883
X272.517 Y600.453 Z-2.822
Y600.49 Z-2.753
Y600.513 Z-2.678
Y600.521 Z-2.6
G0 Z10
X354.983 Y507.406
Z7
G1 Z3.15 F450
Y507.414 Z3.072 F1000
X354.984 Y507.436 Z2.997
X354.985 Y507.473 Z2.928
X354.986 Y507.523 Z2.867
X354.987 Y507.584 Z2.817
X354.988 Y507.653 Z2.78
X354.99 Y507.728 Z2.758
X354.991 Y507.806 Z2.75
X354.999 Y508.206
G2 X355.407 Y508.598 I0.4 J-0.008
X370.078 Y507.85 Z2.237 I-4.757 J-237.536
G3 X375.964 Y519.382 Z1.66 I0.572 J6.976
G2 X375.964 Y590.269 Z-1.036 I41.34 J35.444
G3 X370.079 Y601.802 Z-1.613 I-5.314 J4.556
G2 X331.223 Y601.802 Z-2.971 I-19.428 J236.787
G3 X330.404 Y601.821 Z-3 I-0.573 J-6.976
X323.728 Y593.782 I0.246 J-6.996 F1143
G2 X323.728 Y515.87 I-258.245 J-38.956
G3 X331.223 Y507.85 I6.922 J-1.044
G2 X370.078 Y507.85 I19.428 J-236.788
G3 X375.964 Y519.382 I0.572 J6.976
G2 X375.964 Y590.269 I41.34 J35.444
G3 X370.079 Y601.802 I-5.314 J4.556
G2 X331.223 Y601.802 I-19.428 J236.787
G3 X330.404 Y601.821 I-0.573 J-6.976
G2 X329.99 Y602.207 I-0.014 J0.4
G1 X329.976 Y602.607
X329.973 Y602.685 Z-2.992
X329.971 Y602.76 Z-2.97
X329.968 Y602.829 Z-2.933
X329.966 Y602.89 Z-2.883
X329.964 Y602.939 Z-2.822
X329.963 Y602.976 Z-2.753
X329.962 Y602.999 Z-2.678
Y603.007 Z-2.6
G0 Z10
X367.878 Y441.249
Z7
G1 Z3.9 F450
Y441.256 Z3.822 F1000
X367.876 Y441.279 Z3.747
X367.872 Y441.316 Z3.678
X367.868 Y441.365 Z3.617
X367.863 Y441.426 Z3.567
X367.857 Y441.495 Z3.53
X367.85 Y441.569 Z3.508
X367.843 Y441.647 Z3.5
X367.808 Y442.046
G2 X368.171 Y442.479 I0.398 J0.035
G1 X404.252 Y445.686 Z2.235
G2 X405.669 Y445.686 Z2.185 I0.708 J-7.969
G1 X455.159 Y441.288 Z0.45
G3 X466.576 Y464.846 Z-0.731 I1.239 J13.945
G1 X436.705 Y496.472 Z-2.25
X430.503 Y503.039 F1143
G3 X425.414 Y505.233 I-5.089 J-4.806
G1 X384.507
G3 X379.418 Y503.039 I0 J-7
G1 X343.345 Y464.846
G3 X354.762 Y441.288 I10.178 J-9.613
G1 X404.252 Y445.686
G2 X405.669 Y445.686 I0.708 J-7.969
G1 X455.159 Y441.288
G3 X466.576 Y464.846 I1.239 J13.945
G1 X436.705 Y496.472
G2 X436.721 Y497.038 I0.291 J0.275
G1 X437.012 Y497.313
X437.069 Y497.366 Z-2.242
X437.124 Y497.418 Z-2.22
X437.174 Y497.465 Z-2.183
X437.218 Y497.507 Z-2.133
X437.254 Y497.541 Z-2.072
X437.281 Y497.566 Z-2.003
X437.297 Y497.582 Z-1.928
X437.303 Y497.587 Z-1.85
G0 Z10
X384.541 Y507.513
Z7
G1 Z3.15 F450
X384.544 Y507.519 Z3.072 F1000
X384.555 Y507.54 Z2.997
X384.571 Y507.573 Z2.928
X384.593 Y507.618 Z2.867
X384.62 Y507.672 Z2.817
X384.65 Y507.734 Z2.78
X384.684 Y507.801 Z2.758
X384.718 Y507.871 Z2.75
X384.896 Y508.23
G2 X385.431 Y508.411 I0.359 J-0.177
G3 X394.634 Y509.926 Z2.402 I3.546 J7.172
G1 X401.95 Y517.243 Z2.041
G2 X407.736 Y519.585 Z1.817 I5.657 J-5.657
G3 X408.218 Y519.585 Z1.8 I0.241 J14.998
G2 X414.004 Y517.243 Z1.576 I0.128 J-7.999
G1 X421.32 Y509.926 Z1.215
G3 X432.634 Y509.926 Z0.776 I5.657 J5.657
X432.634 Y521.24 Z0.337 I-5.657 J5.657
G1 X425.317 Y528.556 Z-0.024
G2 X422.975 Y534.342 Z-0.248 I5.657 J5.657
G3 X422.975 Y534.824 Z-0.265 I-14.998 J0.241
G2 X425.317 Y540.61 Z-0.489 I7.999 J0.128
G1 X432.634 Y547.926 Z-0.85
G3 X432.634 Y559.24 Z-1.289 I-5.657 J5.657
X421.32 Y559.24 Z-1.728 I-5.657 J-5.657
G1 X414.004 Y551.923 Z-2.089
G2 X408.218 Y549.581 Z-2.313 I-5.657 J5.657
G3 X407.736 Y549.581 Z-2.33 I-0.241 J-14.998
G2 X401.95 Y551.923 Z-2.554 I-0.128 J7.999
G1 X394.634 Y559.24 Z-2.915
G3 X392.683 Y560.674 Z-3 I-5.657 J-5.657
X383.32 Y547.926 I-3.706 J-7.091 F1143
G1 X390.637 Y540.61
G2 X392.979 Y534.824 I-5.657 J-5.657
G3 X392.979 Y534.342 I14.998 J-0.241
G2 X390.637 Y528.556 I-7.999 J-0.128
G1 X383.32 Y521.24
G3 X383.32 Y509.926 I5.657 J-5.657
X394.634 Y509.926 I5.657 J5.657
G1 X401.95 Y517.243
G2 X407.736 Y519.585 I5.657 J-5.657
G3 X408.218 Y519.585 I0.241 J14.998
G2 X414.004 Y517.243 I0.128 J-7.999
G1 X421.32 Y509.926
G3 X432.634 Y509.926 I5.657 J5.657
X432.634 Y521.24 I-5.657 J5.657
G1 X425.317 Y528.556
G2 X422.975 Y534.342 I5.657 J5.657
G3 X422.975 Y534.824 I-14.998 J0.241
G2 X425.317 Y540.61 I7.999 J0.128
G1 X432.634 Y547.926
G3 X432.634 Y559.24 I-5.657 J5.657
X421.32 Y559.24 I-5.657 J-5.657
G1 X414.004 Y551.923
G2 X408.218 Y549.581 I-5.657 J5.657
G3 X407.736 Y549.581 I-0.241 J-14.998
G2 X401.95 Y551.923 I-0.128 J7.999
G1 X394.634 Y559.24
G3 X392.683 Y560.674 I-5.657 J-5.657
G2 X392.513 Y561.213 I0.185 J0.354
G1 X392.699 Y561.568
X392.735 Y561.637 Z-2.992
X392.77 Y561.704 Z-2.97
X392.802 Y561.765 Z-2.933
X392.83 Y561.819 Z-2.883
X392.853 Y561.863 Z-2.822
X392.87 Y561.895 Z-2.753
X392.88 Y561.916 Z-2.678
X392.884 Y561.922 Z-2.6
G0 Z10
X461.264 Y415.427
Z7
G1 Z4.65 F450
X461.27 Y415.422 Z4.572 F1000
X461.286 Y415.406 Z4.497
X461.313 Y415.381 Z4.428
X461.349 Y415.346 Z4.367
X461.393 Y415.305 Z4.317
X461.444 Y415.257 Z4.28
X461.498 Y415.206 Z4.258
X461.555 Y415.152 Z4.25
X461.846 Y414.878
G2 X461.862 Y414.312 I-0.275 J-0.291
G1 X456.828 Y408.982 Z3.994
G3 X468.246 Y385.425 Z2.813 I10.178 J-9.613
G1 X517.736 Y389.823 Z1.078
G2 X519.152 Y389.823 Z1.028 I0.708 J-7.969
G1 X568.642 Y385.425 Z-0.707
G3 X583.871 Y398.85 Z-1.5 I1.239 J13.945
X580.059 Y408.982 I-13.99 J0.52 F1143
G1 X543.987 Y447.176
G3 X538.898 Y449.37 I-5.089 J-4.806
G1 X533.143
G3 X503.744 Y449.37 I-14.699 J-27.86
G1 X497.99
G3 X492.901 Y447.176 I0 J-7
G1 X456.828 Y408.982
G3 X468.246 Y385.425 I10.178 J-9.613
G1 X517.736 Y389.823
G2 X519.152 Y389.823 I0.708 J-7.969
G1 X568.642 Y385.425
G3 X583.871 Y398.85 I1.239 J13.945
X580.059 Y408.982 Z-1.888 I-13.99 J0.52 F1000
G1 X572.944 Y416.515 Z-2.25
X543.987 Y447.176 F1143
G3 X538.898 Y449.37 I-5.089 J-4.806
G1 X533.143
G3 X503.744 Y449.37 I-14.699 J-27.86
G1 X497.99
G3 X492.901 Y447.176 I0 J-7
G1 X456.828 Y408.982
G3 X468.246 Y385.425 I10.178 J-9.613
G1 X517.736 Y389.823
G2 X519.152 Y389.823 I0.708 J-7.969
G1 X568.642 Y385.425
G3 X580.059 Y408.982 I1.239 J13.945
G1 X572.944 Y416.515
G2 X572.961 Y417.081 I0.291 J0.275
G1 X573.251 Y417.355
X573.308 Y417.409 Z-2.242
X573.363 Y417.461 Z-2.22
X573.413 Y417.508 Z-2.183
X573.457 Y417.55 Z-2.133
X573.493 Y417.584 Z-2.072
X573.52 Y417.609 Z-2.003
X573.537 Y417.625 Z-1.928
X573.542 Y417.63 Z-1.85
G0 Z10
X461.191 Y349.056
Z7
G1 Z3.9 F450
X461.196 Y349.051 Z3.822 F1000
X461.213 Y349.035 Z3.747
X461.24 Y349.01 Z3.678
X461.276 Y348.976 Z3.617
X461.32 Y348.934 Z3.567
X461.37 Y348.886 Z3.53
X461.425 Y348.835 Z3.508
X461.482 Y348.781 Z3.5
X461.772 Y348.507
G2 X461.788 Y347.941 I-0.275 J-0.291
G1 X456.828 Y342.689 Z3.248
G3 X468.246 Y319.131 Z2.066 I10.178 J-9.613
G1 X517.736 Y323.529 Z0.331
G2 X519.152 Y323.529 Z0.282 I0.708 J-7.968
G1 X568.642 Y319.131 Z-1.453
G3 X583.875 Y332.661 Z-2.25 I1.239 J13.945
X580.059 Y342.689 I-13.994 J0.415 F1143
G1 X543.987 Y380.882
G3 X538.898 Y383.076 I-5.089 J-4.806
G1 X533.143
G3 X503.744 Y383.076 I-14.699 J-27.86
G1 X497.99
G3 X492.901 Y380.882 I0 J-7
G1 X456.828 Y342.689
G3 X468.246 Y319.131 I10.178 J-9.613
G1 X517.736 Y323.529
G2 X519.152 Y323.529 I0.708 J-7.968
G1 X568.642 Y319.131
G3 X583.875 Y332.661 I1.239 J13.945
G2 X584.287 Y333.049 I0.4 J-0.012
G1 X584.687 Y333.037
X584.765 Y333.035 Z-2.242
X584.84 Y333.033 Z-2.22
X584.909 Y333.03 Z-2.183
X584.969 Y333.029 Z-2.133
X585.019 Y333.027 Z-2.072
X585.056 Y333.026 Z-2.003
X585.079 Y333.025 Z-1.928
X585.086 Z-1.85
G0 Z10
X461.191 Y349.056
Z7
G1 Z3.15 F450
X461.196 Y349.051 Z3.072 F1000
X461.213 Y349.035 Z2.997
X461.24 Y349.01 Z2.928
X461.276 Y348.976 Z2.867
X461.32 Y348.934 Z2.817
X461.37 Y348.886 Z2.78
X461.425 Y348.835 Z2.758
X461.482 Y348.781 Z2.75
X461.772 Y348.507
G2 X461.788 Y347.941 I-0.275 J-0.291
G1 X456.828 Y342.689 Z2.498
G3 X468.246 Y319.131 Z1.316 I10.178 J-9.613
G1 X517.736 Y323.529 Z-0.419
G2 X519.152 Y323.529 Z-0.468 I0.708 J-7.968
G1 X568.642 Y319.131 Z-2.203
G3 X583.875 Y332.661 Z-3 I1.239 J13.945
X580.059 Y342.689 I-13.994 J0.415 F1143
G1 X543.987 Y380.882
G3 X538.898 Y383.076 I-5.089 J-4.806
G1 X533.143
G3 X503.744 Y383.076 I-14.699 J-27.86
G1 X497.99
G3 X492.901 Y380.882 I0 J-7
G1 X456.828 Y342.689
G3 X468.246 Y319.131 I10.178 J-9.613
G1 X517.736 Y323.529
G2 X519.152 Y323.529 I0.708 J-7.968
G1 X568.642 Y319.131
G3 X583.875 Y332.661 I1.239 J13.945
G2 X584.287 Y333.049 I0.4 J-0.012
G1 X584.687 Y333.037
X584.765 Y333.035 Z-2.992
X584.84 Y333.033 Z-2.97
X584.909 Y333.03 Z-2.933
X584.969 Y333.029 Z-2.883
X585.019 Y333.027 Z-2.822
X585.056 Y333.026 Z-2.753
X585.079 Y333.025 Z-2.678
X585.086 Z-2.6
G0 Z10
X460.58 Y282.116
Z7
G1 Z3.15 F450
X460.585 Y282.111 Z3.072 F1000
X460.602 Y282.095 Z2.997
X460.629 Y282.07 Z2.928
X460.665 Y282.036 Z2.867
X460.709 Y281.994 Z2.817
X460.759 Y281.946 Z2.78
X460.814 Y281.895 Z2.758
X460.87 Y281.841 Z2.75
X461.161 Y281.567
G2 X461.177 Y281.001 I-0.275 J-0.291
G1 X456.828 Y276.396 Z2.529
G3 X468.246 Y252.838 Z1.347 I10.178 J-9.613
G1 X517.736 Y257.236 Z-0.388
G2 X519.152 Y257.236 Z-0.437 I0.708 J-7.969
G1 X568.642 Y252.838 Z-2.172
G3 X583.873 Y267.258 Z-3 I1.239 J13.945
X580.059 Y276.396 I-13.992 J-0.475 F1143
G1 X543.987 Y314.589
G3 X538.898 Y316.783 I-5.089 J-4.806
G1 X533.143
G3 X503.744 Y316.783 I-14.699 J-27.86
G1 X497.99
G3 X492.901 Y314.589 I0 J-7
G1 X456.828 Y276.396
G3 X468.246 Y252.838 I10.178 J-9.613
G1 X517.736 Y257.236
G2 X519.152 Y257.236 I0.708 J-7.969
G1 X568.642 Y252.838
G3 X583.873 Y267.258 I1.239 J13.945
G2 X584.259 Y267.671 I0.4 J0.014
G1 X584.659 Y267.685
X584.737 Y267.687 Z-2.992
X584.812 Y267.69 Z-2.97
X584.881 Y267.692 Z-2.933
X584.942 Y267.694 Z-2.883
X584.992 Y267.696 Z-2.822
X585.028 Y267.697 Z-2.753
X585.051 Y267.698 Z-2.678
X585.059 Z-2.6
G0 Z10
X109.618 Y439.65
Z7
G1 Z3.9 F450
G19 G2 Y439.25 Z3.5 J-0.4 K0 F1000
G1 Y438.85
G17 G2 X109.218 Y438.45 I-0.4 J0
G1 X14.343 Z0.187
G3 X12.929 Y437.864 Z0.132 I0 J-2
G1 X6.586 Y431.521 Z-0.181
G3 X6 Y430.107 Z-0.236 I1.414 J-1.414
G1 Y372.45 Z-2.249
Y372.436 Z-2.25
G3 X8 Y370.45 I2 J0.014 F1143
G1 X448
G3 X450 Y372.45 I0 J2
G1 Y430.107
G3 X449.414 Y431.521 I-2 J0
G1 X443.071 Y437.864
G3 X441.657 Y438.45 I-1.414 J-1.414
G1 X14.343
G3 X12.929 Y437.864 I0 J-2
G1 X6.586 Y431.521
G3 X6 Y430.107 I1.414 J-1.414
G1 Y372.45
Y372.436
G2 X5.603 Y372.033 I-0.4 J-0.003
G1 X5.203 Y372.03
X5.125 Y372.029 Z-2.242
X5.05 Z-2.22
X4.981 Y372.028 Z-2.183
X4.92 Z-2.133
X4.87 Z-2.072
X4.833 Y372.027 Z-2.003
X4.811 Z-1.928
X4.803 Z-1.85
G0 Z10
X109.618 Y439.65
Z7
G1 Z3.15 F450
G19 G2 Y439.25 Z2.75 J-0.4 K0 F1000
G1 Y438.85
G17 G2 X109.218 Y438.45 I-0.4 J0
G1 X14.343 Z-0.563
G3 X12.929 Y437.864 Z-0.618 I0 J-2
G1 X6.586 Y431.521 Z-0.931
G3 X6 Y430.107 Z-0.986 I1.414 J-1.414
G1 Y372.45 Z-2.999
Y372.436 Z-3
G3 X8 Y370.45 I2 J0.014 F1143
G1 X448
G3 X450 Y372.45 I0 J2
G1 Y430.107
G3 X449.414 Y431.521 I-2 J0
G1 X443.071 Y437.864
G3 X441.657 Y438.45 I-1.414 J-1.414
G1 X14.343
G3 X12.929 Y437.864 I0 J-2
G1 X6.586 Y431.521
G3 X6 Y430.107 I1.414 J-1.414
G1 Y372.45
Y372.436
G2 X5.603 Y372.033 I-0.4 J-0.003
G1 X5.203 Y372.03
X5.125 Y372.029 Z-2.992
X5.05 Z-2.97
X4.981 Y372.028 Z-2.933
X4.92 Z-2.883
X4.87 Z-2.822
X4.833 Y372.027 Z-2.753
X4.811 Z-2.678
X4.803 Z-2.6
G0 Z10
X111.446 Y369.3
Z7
G1 Z3.15 F450
G19 G2 Y368.9 Z2.75 J-0.4 K0 F1000
G1 Y368.5
G17 G2 X111.046 Y368.1 I-0.4 J0
G1 X14.343 Z-0.627
G3 X12.929 Y367.514 Z-0.682 I0 J-2
G1 X6.586 Y361.171 Z-0.995
G3 X6 Y359.757 Z-1.05 I1.414 J-1.414
G1 Y303.913 Z-3
Y302.1 F1143
G3 X8 Y300.1 I2 J0
G1 X448
G3 X450 Y302.1 I0 J2
G1 Y359.757
G3 X449.414 Y361.171 I-2 J0
G1 X443.071 Y367.514
G3 X441.657 Y368.1 I-1.414 J-1.414
G1 X14.343
G3 X12.929 Y367.514 I0 J-2
G1 X6.586 Y361.171
G3 X6 Y359.757 I1.414 J-1.414
G1 Y303.913
G2 X5.6 Y303.513 I-0.4 J0
G1 X5.2
G18 G3 X4.8 Z-2.6 I0 K0.4
G0 Z10
X129.966 Y475.412
Z7
G1 Z3.15 F450
X129.96 Y475.417 Z3.072 F1000
X129.943 Y475.433 Z2.997
X129.917 Y475.458 Z2.928
X129.88 Y475.493 Z2.867
X129.836 Y475.534 Z2.817
X129.786 Y475.582 Z2.78
X129.732 Y475.633 Z2.758
X129.675 Y475.687 Z2.75
X129.384 Y475.962
G17 G2 X129.368 Y476.527 I0.275 J0.291
G1 X133.769 Y481.187 Z2.526
G3 X122.351 Y504.745 Z1.345 I-10.179 J9.613
G1 X72.861 Y500.347 Z-0.39
G2 X71.445 Y500.347 Z-0.44 I-0.708 J7.969
G1 X21.955 Y504.745 Z-2.175
G3 X6.721 Y490.4 Z-3 I-1.239 J-13.945
X10.537 Y481.187 I13.994 J0.4 F1143
G1 X46.61 Y442.994
G3 X51.699 Y440.8 I5.089 J4.806
G1 X92.607
G3 X97.696 Y442.994 I0 J7
G1 X119.75 Y466.344
X133.769 Y481.187
G3 X122.351 Y504.745 I-10.179 J9.613
G1 X72.861 Y500.347
G2 X71.445 Y500.347 I-0.708 J7.969
G1 X21.955 Y504.745
G3 X6.721 Y490.4 I-1.239 J-13.945
G2 X6.332 Y489.989 I-0.4 J-0.011
G1 X5.933 Y489.978
X5.855 Y489.975 Z-2.992
X5.78 Y489.973 Z-2.97
X5.711 Y489.971 Z-2.933
X5.65 Y489.97 Z-2.883
X5.6 Y489.968 Z-2.822
X5.563 Y489.967 Z-2.753
X5.54 Y489.966 Z-2.678
X5.533 Z-2.6
G0 Z10
X151.861 Y441.759
Z7
G1 Z3.15 F450
X151.86 Y441.766 Z3.072 F1000
X151.858 Y441.789 Z2.997
X151.855 Y441.826 Z2.928
X151.85 Y441.875 Z2.867
X151.845 Y441.936 Z2.817
X151.839 Y442.005 Z2.78
X151.832 Y442.079 Z2.758
X151.825 Y442.157 Z2.75
X151.79 Y442.556
G2 X152.153 Y442.989 I0.398 J0.035
G1 X182.473 Y445.684 Z1.687
G2 X183.889 Y445.684 Z1.638 I0.708 J-7.969
G1 X233.379 Y441.286 Z-0.098
G3 X244.797 Y464.844 Z-1.279 I1.24 J13.945
G1 X210.955 Y500.675 Z-3
X208.724 Y503.037 F1143
G3 X203.635 Y505.231 I-5.089 J-4.806
G1 X193.132
X162.727
G3 X157.638 Y503.037 I0 J-7
G1 X121.565 Y464.844
G3 X132.983 Y441.286 I10.178 J-9.613
G1 X182.473 Y445.684
G2 X183.889 Y445.684 I0.708 J-7.969
G1 X233.379 Y441.286
G3 X244.797 Y464.844 I1.24 J13.945
G1 X210.955 Y500.675
G2 X210.971 Y501.241 I0.291 J0.275
G1 X211.262 Y501.515
X211.319 Y501.569 Z-2.992
X211.373 Y501.62 Z-2.97
X211.423 Y501.668 Z-2.933
X211.467 Y501.71 Z-2.883
X211.504 Y501.744 Z-2.822
X211.53 Y501.769 Z-2.753
