(Setup 1 drilliing and boring 1)
(T1  D=4 CR=0 - ZMIN=-3 - flat end mill)
G90 G94
G17
G21
G28 G91 Z0
G90

(Drill1)
T1
S10000 M3
G54
G0 X469.813 Y133.956
Z25
Z10
Z7
G1 Z-3 F450
G0 Z10
X491.834 Y106.785
Z7
G1 Z-3 F450
G0 Z10
X475.834
Z7
G1 Z-3 F450
G0 Z10
X461.14 Y102.523
Z7
G1 Z-3 F450
G0 Z10
X462.183 Y91.023
Z7
G1 Z-3 F450
G0 Z10
X475.834 Y90.784
Z7
G1 Z-3 F450
G0 Z10
X491.834
Z7
G1 Z-3 F450
G0 Z10
X481.97 Y75.86
Z7
G1 Z-3 F450
G0 Z10
X491.834 Y49.379
Z7
G1 Z-3 F450
G0 Z10
X475.833
Z7
G1 Z-3 F450
G0 Z10
X461.14 Y45.118
Z7
G1 Z-3 F450
G0 Z10
X462.183 Y33.618
Z7
G1 Z-3 F450
G0 Z10
X475.833 Y33.379
Z7
G1 Z-3 F450
G0 Z10
X491.834
Z7
G1 Z-3 F450
G0 Z10
X481.97 Y18.455
Z7
G1 Z-3 F450
G0 Z10
X531.444 Y36.718
Z7
G1 Z-3 F450
G0 Z10
X532.711 Y18.514
Z7
G1 Z-3 F450
G0 Z10
X547.015 Y23.029
Z7
G1 Z-3 F450
G0 Z10
X550.344 Y33.379
Z7
G1 Z-3 F450
G0 Z10
X566.344
Z7
G1 Z-3 F450
G0 Z10
X579.995 Y33.618
Z7
G1 Z-3 F450
G0 Z10
X581.038 Y45.118
Z7
G1 Z-3 F450
G0 Z10
X566.344 Y49.379
Z7
G1 Z-3 F450
G0 Z10
X550.344
Z7
G1 Z-3 F450
G0 Z10
X531.444 Y94.123
Z7
G1 Z-3 F450
G0 Z10
X532.711 Y75.919
Z7
G1 Z-3 F450
G0 Z10
X547.015 Y80.435
Z7
G1 Z-3 F450
G0 Z10
X550.344 Y90.784
Z7
G1 Z-3 F450
G0 Z10
X566.344
Z7
G1 Z-3 F450
G0 Z10
X579.995 Y91.023
Z7
G1 Z-3 F450
G0 Z10
X581.038 Y102.523
Z7
G1 Z-3 F450
G0 Z10
X566.344 Y106.785
Z7
G1 Z-3 F450
G0 Z10
X550.344
Z7
G1 Z-3 F450
G0 Z10
X572.689 Y133.956
Z7
G1 Z-3 F450
G0 Z10
X569.881 Y200.49
Z7
G1 Z-3 F450
G0 Z10
X541.705 Y176.956
Z7
G1 Z-3 F450
G0 Z10
X500.797
Z7
G1 Z-3 F450
G0 Z10
X467.006 Y200.49
Z7
G1 Z-3 F450
G0 Z10
X440 Y235.75
Z7
G1 Z-3 F450
G0 Z10
X467.006 Y266.783
Z7
G1 Z-3 F450
G0 Z10
X497.99 Y243.49
Z7
G1 Z-3 F450
G0 Z10
X538.898
Z7
G1 Z-3 F450
G0 Z10
X569.881 Y266.783
Z7
G1 Z-3 F450
G0 Z10
Y333.076
Z7
G1 Z-3 F450
G0 Z10
X538.898 Y309.783
Z7
G1 Z-3 F450
G0 Z10
X497.99
Z7
G1 Z-3 F450
G0 Z10
X467.006 Y333.076
Z7
G1 Z-3 F450
G0 Z10
X440 Y306.1
Z7
G1 Z-3 F450
G0 Z10
X344
Z7
G1 Z-3 F450
G0 Z10
Y235.75
Z7
G1 Z-3 F450
G0 Z10
X208
Z7
G1 Z-3 F450
G0 Z10
X248
Z7
G1 Z-3 F450
G0 Z10
Y306.1
Z7
G1 Z-3 F450
G0 Z10
X232 Y291.75
Z7
G1 Z-3 F450
G0 Z10
X224
Z7
G1 Z-3 F450
G0 Z10
X208 Y306.1
Z7
G1 Z-3 F450
G0 Z10
X224 Y362.1
Z7
G1 Z-3 F450
G0 Z10
X232
Z7
G1 Z-3 F450
G0 Z10
X16 Y306.1
Z7
G1 Z-3 F450
G0 Z10
Y235.75
Z7
G1 Z-3 F450
G0 Z10
X112
Z7
G1 Z-3 F450
G0 Z10
Y283.75
Z7
G1 Z-3 F450
G0 Z10
Y306.1
Z7
G1 Z-3 F450
G0 Z10
Y354.1
Z7
G1 Z-3 F450
G0 Z10
X51.699 Y447.8
Z7
G1 Z-3 F450
G0 Z10
X92.607
Z7
G1 Z-3 F450
G0 Z10
X131.743 Y455.231
Z7
G1 Z-3 F450
G0 Z10
X162.727 Y498.231
Z7
G1 Z-3 F450
G0 Z10
X123.59 Y490.8
Z7
G1 Z-3 F450
G0 Z10
X92.607 Y511.961
Z7
G1 Z-3 F450
G0 Z10
X51.699
Z7
G1 Z-3 F450
G0 Z10
X20.715 Y490.8
Z7
G1 Z-3 F450
G0 Z10
Y554.961
Z7
G1 Z-3 F450
G0 Z10
X208.126 Y582.986
Z7
G1 Z-3 F450
G0 Z10
X179.484 Y565.127
Z7
G1 Z-3 F450
G0 Z10
X123.59 Y554.961
Z7
G1 Z-3 F450
G0 Z10
X148.383 Y544.818
Z7
G1 Z-3 F450
G0 Z10
X172.508 Y534.378
Z7
G1 Z-3 F450
G0 Z10
X180.937 Y538.308
Z7
G1 Z-3 F450
G0 Z10
X193.131 Y517.709
Z7
G1 Z-3 F450
G0 Z10
X203.635 Y498.231
Z7
G1 Z-3 F450
G0 Z10
X242.632 Y490.947
Z7
G1 Z-3 F450
G0 Z10
X234.619 Y455.231
Z7
G1 Z-3 F450
G0 Z10
X273.616 Y447.947
Z7
G1 Z-3 F450
G0 Z10
X314.524
Z7
G1 Z-3 F450
G0 Z10
X353.523 Y455.233
Z7
G1 Z-3 F450
G0 Z10
X345.507 Y490.947
Z7
G1 Z-3 F450
G0 Z10
X384.507 Y498.233
Z7
G1 Z-3 F450
G0 Z10
X388.977 Y515.583
Z7
G1 Z-3 F450
G0 Z10
X370.65 Y514.826
Z7
G1 Z-3 F450
G0 Z10
X358.651 Y520.645
Z7
G1 Z-3 F450
G0 Z10
X342.65
Z7
G1 Z-3 F450
G0 Z10
X330.65 Y514.826
Z7
G1 Z-3 F450
G0 Z10
X313.007 Y512.326
Z7
G1 Z-3 F450
G0 Z10
X301.008 Y518.145
Z7
G1 Z-3 F450
G0 Z10
X285.007
Z7
G1 Z-3 F450
G0 Z10
Y534.145
Z7
G1 Z-3 F450
G0 Z10
X301.008
Z7
G1 Z-3 F450
G0 Z10
Y570.507
Z7
G1 Z-3 F450
G0 Z10
X285.007
Z7
G1 Z-3 F450
G0 Z10
X273.007 Y592.326
Z7
G1 Z-3 F450
G0 Z10
X285.007 Y586.507
Z7
G1 Z-3 F450
G0 Z10
X301.008
Z7
G1 Z-3 F450
G0 Z10
X313.007 Y592.326
Z7
G1 Z-3 F450
G0 Z10
X330.65 Y594.826
Z7
G1 Z-3 F450
G0 Z10
X342.65 Y589.007
Z7
G1 Z-3 F450
G0 Z10
X358.651
Z7
G1 Z-3 F450
G0 Z10
X370.65 Y594.826
Z7
G1 Z-3 F450
G0 Z10
X358.651 Y573.007
Z7
G1 Z-3 F450
G0 Z10
X342.65
Z7
G1 Z-3 F450
G0 Z10
Y536.645
Z7
G1 Z-3 F450
G0 Z10
X358.651
Z7
G1 Z-3 F450
G0 Z10
X388.977 Y553.583
Z7
G1 Z-3 F450
G0 Z10
X438.76 Y567.751
Z7
G1 Z-3 F450
G0 Z10
X426.977 Y553.583
Z7
G1 Z-3 F450
G0 Z10
X438.76 Y529.751
Z7
G1 Z-3 F450
G0 Z10
X426.977 Y515.583
Z7
G1 Z-3 F450
G0 Z10
X425.414 Y498.233
Z7
G1 Z-3 F450
G0 Z10
X456.398 Y455.233
Z7
G1 Z-3 F450
G0 Z10
X485.787 Y459.289
Z7
G1 Z-3 F450
G0 Z10
X497.99 Y442.37
Z7
G1 Z-3 F450
G0 Z10
X538.898
Z7
G1 Z-3 F450
G0 Z10
X514.429 Y477.149
Z7
G1 Z-3 F450
G0 Z10
X545.53 Y497.457
Z7
G1 Z-3 F450
G0 Z10
X521.405 Y507.898
Z7
G1 Z-3 F450
G0 Z10
X512.976 Y503.968
Z7
G1 Z-3 F450
G0 Z10
X500.782 Y524.567
Z7
G1 Z-3 F450
G0 Z10
X476.76 Y529.751
Z7
G1 Z-3 F450
G0 Z10
X488.701 Y544.339
Z7
G1 Z-3 F450
G0 Z10
X476.76 Y567.751
Z7
G1 Z-3 F450
G0 Z10
X488.701 Y582.339
Z7
G1 Z-3 F450
G0 Z10
X526.701
Z7
G1 Z-3 F450
G0 Z10
Y544.339
Z7
G1 Z-3 F450
G0 Z10
X569.881 Y399.37
Z7
G1 Z-3 F450
G0 Z10
X538.898 Y376.076
Z7
G1 Z-3 F450
G0 Z10
X497.99
Z7
G1 Z-3 F450
G0 Z10
X467.006 Y399.37
Z7
G1 Z-3 F450
G0 Z10
Z25

(Bore1)
X68.153 Y532.421
Z25
Z2
G1 Z0.4 F1000
G18 G3 X67.753 Z0 I-0.4 K0
G1 X67.553
G17 G2 X67.153 Y532.821 I0 J0.4
X77.153 Y532.821 Z-0.5 I5 J0 F1143
X67.153 Y532.821 Z-1 I-5 J0
X77.153 Y532.821 Z-1.5 I5 J0
X67.153 Y532.821 Z-2 I-5 J0
X77.153 Y532.821 Z-2.5 I5 J0
X67.153 Y532.821 Z-3 I-5 J0
X77.153 Y532.821 I5 J0
X67.153 Y532.821 I-5 J0
X67.553 Y533.221 I0.4 J0
G1 X67.753
G18 G2 X68.153 Z-2.6 I0 K0.4
G0 Z10
Y468.26
Z2
G1 Z0.4 F1000
G3 X67.753 Z0 I-0.4 K0
G1 X67.553
G17 G2 X67.153 Y468.66 I0 J0.4
X77.153 Y468.66 Z-0.5 I5 J0 F1143
X67.153 Y468.66 Z-1 I-5 J0
X77.153 Y468.66 Z-1.5 I5 J0
X67.153 Y468.66 Z-2 I-5 J0
X77.153 Y468.66 Z-2.5 I5 J0
X67.153 Y468.66 Z-3 I-5 J0
X77.153 Y468.66 I5 J0
X67.153 Y468.66 I-5 J0
X67.553 Y469.06 I0.4 J0
G1 X67.753
G18 G2 X68.153 Z-2.6 I0 K0.4
G0 Z10
X187.181 Y477.771
Z2
G1 Z0.4 F1000
G2 X187.581 Z0 I0.4 K0
G1 X187.781
G17 G2 X188.181 Y477.371 I0 J-0.4
X178.181 Y477.371 Z-0.5 I-5 J0 F1143
X188.181 Y477.371 Z-1 I5 J0
X178.181 Y477.371 Z-1.5 I-5 J0
X188.181 Y477.371 Z-2 I5 J0
X178.181 Y477.371 Z-2.5 I-5 J0
X188.181 Y477.371 Z-3 I5 J0
X178.181 Y477.371 I-5 J0
X188.181 Y477.371 I5 J0
X187.781 Y476.971 I-0.4 J0
G1 X187.581
G18 G3 X187.181 Z-2.6 I0 K0.4
G0 Z10
X157.748 Y526.029
Z2
G1 Z0.4 F1000
G2 X158.148 Z0 I0.4 K0
G1 X158.348
G17 G2 X158.748 Y525.629 I0 J-0.4
X148.748 Y525.629 Z-0.5 I-5 J0 F1143
X158.748 Y525.629 Z-1 I5 J0
X148.748 Y525.629 Z-1.5 I-5 J0
X158.748 Y525.629 Z-2 I5 J0
X148.748 Y525.629 Z-2.5 I-5 J0
X158.748 Y525.629 Z-3 I5 J0
X148.748 Y525.629 I-5 J0
X158.748 Y525.629 I5 J0
X158.348 Y525.229 I-0.4 J0
G1 X158.148
G18 G3 X157.748 Z-2.6 I0 K0.4
G0 Z10
X224.626 Y551.386
Z2
G1 Z0.4 F1000
G2 X225.026 Z0 I0.4 K0
G1 X225.226
G17 G2 X225.626 Y550.986 I0 J-0.4
X190.626 Y550.986 Z-0.5 I-17.5 J0 F1143
X225.626 Y550.986 Z-1 I17.5 J0
X190.626 Y550.986 Z-1.5 I-17.5 J0
X225.626 Y550.986 Z-2 I17.5 J0
X190.626 Y550.986 Z-2.5 I-17.5 J0
X225.626 Y550.986 Z-3 I17.5 J0
X190.626 Y550.986 I-17.5 J0
X225.626 Y550.986 I17.5 J0
X225.226 Y550.586 I-0.4 J0
G1 X225.026
G18 G3 X224.626 Z-2.6 I0 K0.4
G0 Z10
X315.819 Y201
Z2
G1 Z0.4 F1000
G3 X315.419 Z0 I-0.4 K0
G1 X315.219
G17 G2 X314.819 Y201.4 I0 J0.4
X320.819 Y201.4 Z-0.5 I3 J0 F1143
X314.819 Y201.4 Z-1 I-3 J0
X320.819 Y201.4 Z-1.5 I3 J0
X314.819 Y201.4 Z-2 I-3 J0
X320.819 Y201.4 Z-2.5 I3 J0
X314.819 Y201.4 Z-3 I-3 J0
X320.819 Y201.4 I3 J0
X314.819 Y201.4 I-3 J0
X315.219 Y201.8 I0.4 J0
G1 X315.419
G18 G2 X315.819 Z-2.6 I0 K0.4
G0 Z10
X340 Y213
Z2
G1 Z0.4 F1000
G3 X339.6 Z0 I-0.4 K0
G1 X339.4
G17 G2 X339 Y213.4 I0 J0.4
X349 Y213.4 Z-0.5 I5 J0 F1143
X339 Y213.4 Z-1 I-5 J0
X349 Y213.4 Z-1.5 I5 J0
X339 Y213.4 Z-2 I-5 J0
X349 Y213.4 Z-2.5 I5 J0
X339 Y213.4 Z-3 I-5 J0
X349 Y213.4 I5 J0
X339 Y213.4 I-5 J0
X339.4 Y213.8 I0.4 J0
G1 X339.6
G18 G2 X340 Z-2.6 I0 K0.4
G0 Z10
X368.181 Y201
Z2
G1 Z0.4 F1000
G3 X367.781 Z0 I-0.4 K0
G1 X367.581
G17 G2 X367.181 Y201.4 I0 J0.4
X373.181 Y201.4 Z-0.5 I3 J0 F1143
X367.181 Y201.4 Z-1 I-3 J0
X373.181 Y201.4 Z-1.5 I3 J0
X367.181 Y201.4 Z-2 I-3 J0
X373.181 Y201.4 Z-2.5 I3 J0
X367.181 Y201.4 Z-3 I-3 J0
X373.181 Y201.4 I3 J0
X367.181 Y201.4 I-3 J0
X367.581 Y201.8 I0.4 J0
G1 X367.781
G18 G2 X368.181 Z-2.6 I0 K0.4
G0 Z10
X340 Y283.35
Z2
G1 Z0.4 F1000
G3 X339.6 Z0 I-0.4 K0
G1 X339.4
G17 G2 X339 Y283.75 I0 J0.4
X349 Y283.75 Z-0.5 I5 J0 F1143
X339 Y283.75 Z-1 I-5 J0
X349 Y283.75 Z-1.5 I5 J0
X339 Y283.75 Z-2 I-5 J0
X349 Y283.75 Z-2.5 I5 J0
X339 Y283.75 Z-3 I-5 J0
X349 Y283.75 I5 J0
X339 Y283.75 I-5 J0
X339.4 Y284.15 I0.4 J0
G1 X339.6
G18 G2 X340 Z-2.6 I0 K0.4
G0 Z10
Y353.7
Z2
G1 Z0.4 F1000
G3 X339.6 Z0 I-0.4 K0
G1 X339.4
G17 G2 X339 Y354.1 I0 J0.4
X349 Y354.1 Z-0.5 I5 J0 F1143
X339 Y354.1 Z-1 I-5 J0
X349 Y354.1 Z-1.5 I5 J0
X339 Y354.1 Z-2 I-5 J0
X349 Y354.1 Z-2.5 I5 J0
X339 Y354.1 Z-3 I-5 J0
X349 Y354.1 I5 J0
X339 Y354.1 I-5 J0
X339.4 Y354.5 I0.4 J0
G1 X339.6
G18 G2 X340 Z-2.6 I0 K0.4
G0 Z10
X368.181 Y412.05
Z2
G1 Z0.4 F1000
G3 X367.781 Z0 I-0.4 K0
G1 X367.581
G17 G2 X367.181 Y412.45 I0 J0.4
X373.181 Y412.45 Z-0.5 I3 J0 F1143
X367.181 Y412.45 Z-1 I-3 J0
X373.181 Y412.45 Z-1.5 I3 J0
X367.181 Y412.45 Z-2 I-3 J0
X373.181 Y412.45 Z-2.5 I3 J0
X367.181 Y412.45 Z-3 I-3 J0
X373.181 Y412.45 I3 J0
X367.181 Y412.45 I-3 J0
X367.581 Y412.85 I0.4 J0
G1 X367.781
G18 G2 X368.181 Z-2.6 I0 K0.4
G0 Z10
X340 Y424.05
Z2
G1 Z0.4 F1000
G3 X339.6 Z0 I-0.4 K0
G1 X339.4
G17 G2 X339 Y424.45 I0 J0.4
X349 Y424.45 Z-0.5 I5 J0 F1143
X339 Y424.45 Z-1 I-5 J0
X349 Y424.45 Z-1.5 I5 J0
X339 Y424.45 Z-2 I-5 J0
X349 Y424.45 Z-2.5 I5 J0
X339 Y424.45 Z-3 I-5 J0
X349 Y424.45 I5 J0
X339 Y424.45 I-5 J0
X339.4 Y424.85 I0.4 J0
G1 X339.6
G18 G2 X340 Z-2.6 I0 K0.4
G0 Z10
X315.819 Y412.05
Z2
G1 Z0.4 F1000
G3 X315.419 Z0 I-0.4 K0
G1 X315.219
G17 G2 X314.819 Y412.45 I0 J0.4
X320.819 Y412.45 Z-0.5 I3 J0 F1143
X314.819 Y412.45 Z-1 I-3 J0
X320.819 Y412.45 Z-1.5 I3 J0
X314.819 Y412.45 Z-2 I-3 J0
X320.819 Y412.45 Z-2.5 I3 J0
X314.819 Y412.45 Z-3 I-3 J0
X320.819 Y412.45 I3 J0
X314.819 Y412.45 I-3 J0
X315.219 Y412.85 I0.4 J0
G1 X315.419
G18 G2 X315.819 Z-2.6 I0 K0.4
G0 Z10
X290.07 Y468.407
Z2
G1 Z0.4 F1000
G3 X289.67 Z0 I-0.4 K0
G1 X289.47
G17 G2 X289.07 Y468.807 I0 J0.4
X299.07 Y468.807 Z-0.5 I5 J0 F1143
X289.07 Y468.807 Z-1 I-5 J0
X299.07 Y468.807 Z-1.5 I5 J0
X289.07 Y468.807 Z-2 I-5 J0
X299.07 Y468.807 Z-2.5 I5 J0
X289.07 Y468.807 Z-3 I-5 J0
X299.07 Y468.807 I5 J0
X289.07 Y468.807 I-5 J0
X289.47 Y469.207 I0.4 J0
G1 X289.67
G18 G2 X290.07 Z-2.6 I0 K0.4
G0 Z10
X289.007 Y525.745
Z2
G1 Z0.4 F1000
G3 X288.607 Z0 I-0.4 K0
G1 X288.407
G17 G2 X288.007 Y526.145 I0 J0.4
X298.007 Y526.145 Z-0.5 I5 J0 F1143
X288.007 Y526.145 Z-1 I-5 J0
X298.007 Y526.145 Z-1.5 I5 J0
X288.007 Y526.145 Z-2 I-5 J0
X298.007 Y526.145 Z-2.5 I5 J0
X288.007 Y526.145 Z-3 I-5 J0
X298.007 Y526.145 I5 J0
X288.007 Y526.145 I-5 J0
X288.407 Y526.545 I0.4 J0
G1 X288.607
G18 G2 X289.007 Z-2.6 I0 K0.4
G0 Z10
X277.007 Y551.926
Z2
G1 Z0.4 F1000
G3 X276.607 Z0 I-0.4 K0
G1 X276.407
G17 G2 X276.007 Y552.326 I0 J0.4
X286.007 Y552.326 Z-0.5 I5 J0 F1143
X276.007 Y552.326 Z-1 I-5 J0
X286.007 Y552.326 Z-1.5 I5 J0
X276.007 Y552.326 Z-2 I-5 J0
X286.007 Y552.326 Z-2.5 I5 J0
X276.007 Y552.326 Z-3 I-5 J0
X286.007 Y552.326 I5 J0
X276.007 Y552.326 I-5 J0
X276.407 Y552.726 I0.4 J0
G1 X276.607
G18 G2 X277.007 Z-2.6 I0 K0.4
G0 Z10
X289.007 Y578.107
Z2
G1 Z0.4 F1000
G3 X288.607 Z0 I-0.4 K0
G1 X288.407
G17 G2 X288.007 Y578.507 I0 J0.4
X298.007 Y578.507 Z-0.5 I5 J0 F1143
X288.007 Y578.507 Z-1 I-5 J0
X298.007 Y578.507 Z-1.5 I5 J0
X288.007 Y578.507 Z-2 I-5 J0
X298.007 Y578.507 Z-2.5 I5 J0
X288.007 Y578.507 Z-3 I-5 J0
X298.007 Y578.507 I5 J0
X288.007 Y578.507 I-5 J0
X288.407 Y578.907 I0.4 J0
G1 X288.607
G18 G2 X289.007 Z-2.6 I0 K0.4
G0 Z10
X346.65 Y580.607
Z2
G1 Z0.4 F1000
G3 X346.25 Z0 I-0.4 K0
G1 X346.05
G17 G2 X345.65 Y581.007 I0 J0.4
X355.65 Y581.007 Z-0.5 I5 J0 F1143
X345.65 Y581.007 Z-1 I-5 J0
X355.65 Y581.007 Z-1.5 I5 J0
X345.65 Y581.007 Z-2 I-5 J0
X355.65 Y581.007 Z-2.5 I5 J0
X345.65 Y581.007 Z-3 I-5 J0
X355.65 Y581.007 I5 J0
X345.65 Y581.007 I-5 J0
X346.05 Y581.407 I0.4 J0
G1 X346.25
G18 G2 X346.65 Z-2.6 I0 K0.4
G0 Z10
X334.65 Y554.426
Z2
G1 Z0.4 F1000
G3 X334.25 Z0 I-0.4 K0
G1 X334.05
G17 G2 X333.65 Y554.826 I0 J0.4
X343.65 Y554.826 Z-0.5 I5 J0 F1143
X333.65 Y554.826 Z-1 I-5 J0
X343.65 Y554.826 Z-1.5 I5 J0
X333.65 Y554.826 Z-2 I-5 J0
X343.65 Y554.826 Z-2.5 I5 J0
X333.65 Y554.826 Z-3 I-5 J0
X343.65 Y554.826 I5 J0
X333.65 Y554.826 I-5 J0
X334.05 Y555.226 I0.4 J0
G1 X334.25
G18 G2 X334.65 Z-2.6 I0 K0.4
G0 Z10
X346.65 Y528.245
Z2
G1 Z0.4 F1000
G3 X346.25 Z0 I-0.4 K0
G1 X346.05
G17 G2 X345.65 Y528.645 I0 J0.4
X355.65 Y528.645 Z-0.5 I5 J0 F1143
X345.65 Y528.645 Z-1 I-5 J0
X355.65 Y528.645 Z-1.5 I5 J0
X345.65 Y528.645 Z-2 I-5 J0
X355.65 Y528.645 Z-2.5 I5 J0
X345.65 Y528.645 Z-3 I-5 J0
X355.65 Y528.645 I5 J0
X345.65 Y528.645 I-5 J0
X346.05 Y529.045 I0.4 J0
G1 X346.25
G18 G2 X346.65 Z-2.6 I0 K0.4
G0 Z10
X411.977 Y534.983
Z2
G1 Z0.4 F1000
G2 X412.377 Z0 I0.4 K0
G1 X412.577
G17 G2 X412.977 Y534.583 I0 J-0.4
X402.977 Y534.583 Z-0.5 I-5 J0 F1143
X412.977 Y534.583 Z-1 I5 J0
X402.977 Y534.583 Z-1.5 I-5 J0
X412.977 Y534.583 Z-2 I5 J0
X402.977 Y534.583 Z-2.5 I-5 J0
X412.977 Y534.583 Z-3 I5 J0
X402.977 Y534.583 I-5 J0
X412.977 Y534.583 I5 J0
X412.577 Y534.183 I-0.4 J0
G1 X412.377
G18 G3 X411.977 Z-2.6 I0 K0.4
G0 Z10
X453.76 Y548.351
Z2
G1 Z0.4 F1000
G3 X453.36 Z0 I-0.4 K0
G1 X453.16
G17 G2 X452.76 Y548.751 I0 J0.4
X462.76 Y548.751 Z-0.5 I5 J0 F1143
X452.76 Y548.751 Z-1 I-5 J0
X462.76 Y548.751 Z-1.5 I5 J0
X452.76 Y548.751 Z-2 I-5 J0
X462.76 Y548.751 Z-2.5 I5 J0
X452.76 Y548.751 Z-3 I-5 J0
X462.76 Y548.751 I5 J0
X452.76 Y548.751 I-5 J0
X453.16 Y549.151 I0.4 J0
G1 X453.36
G18 G2 X453.76 Z-2.6 I0 K0.4
G0 Z10
X511.701 Y563.739
Z2
G1 Z0.4 F1000
G2 X512.101 Z0 I0.4 K0
G1 X512.301
G17 G2 X512.701 Y563.339 I0 J-0.4
X502.701 Y563.339 Z-0.5 I-5 J0 F1143
X512.701 Y563.339 Z-1 I5 J0
X502.701 Y563.339 Z-1.5 I-5 J0
X512.701 Y563.339 Z-2 I5 J0
X502.701 Y563.339 Z-2.5 I-5 J0
X512.701 Y563.339 Z-3 I5 J0
X502.701 Y563.339 I-5 J0
X512.701 Y563.339 I5 J0
X512.301 Y562.939 I-0.4 J0
G1 X512.101
G18 G3 X511.701 Z-2.6 I0 K0.4
G0 Z10
X536.165 Y516.247
Z2
G1 Z0.4 F1000
G3 X535.765 Z0 I-0.4 K0
G1 X535.565
G17 G2 X535.165 Y516.647 I0 J0.4
X545.165 Y516.647 Z-0.5 I5 J0 F1143
X535.165 Y516.647 Z-1 I-5 J0
X545.165 Y516.647 Z-1.5 I5 J0
X535.165 Y516.647 Z-2 I-5 J0
X545.165 Y516.647 Z-2.5 I5 J0
X535.165 Y516.647 Z-3 I-5 J0
X545.165 Y516.647 I5 J0
X535.165 Y516.647 I-5 J0
X535.565 Y517.047 I0.4 J0
G1 X535.765
G18 G2 X536.165 Z-2.6 I0 K0.4
G0 Z10
X469.287 Y490.889
Z2
G1 Z0.4 F1000
G3 X468.887 Z0 I-0.4 K0
G1 X468.687
G17 G2 X468.287 Y491.289 I0 J0.4
X503.287 Y491.289 Z-0.5 I17.5 J0 F1143
X468.287 Y491.289 Z-1 I-17.5 J0
X503.287 Y491.289 Z-1.5 I17.5 J0
X468.287 Y491.289 Z-2 I-17.5 J0
X503.287 Y491.289 Z-2.5 I17.5 J0
X468.287 Y491.289 Z-3 I-17.5 J0
X503.287 Y491.289 I17.5 J0
X468.287 Y491.289 I-17.5 J0
X468.687 Y491.689 I0.4 J0
G1 X468.887
G18 G2 X469.287 Z-2.6 I0 K0.4
G0 Z10
X408.961 Y477.773
Z2
G1 Z0.4 F1000
G2 X409.361 Z0 I0.4 K0
G1 X409.561
G17 G2 X409.961 Y477.373 I0 J-0.4
X399.961 Y477.373 Z-0.5 I-5 J0 F1143
X409.961 Y477.373 Z-1 I5 J0
X399.961 Y477.373 Z-1.5 I-5 J0
X409.961 Y477.373 Z-2 I5 J0
X399.961 Y477.373 Z-2.5 I-5 J0
X409.961 Y477.373 Z-3 I5 J0
X399.961 Y477.373 I-5 J0
X409.961 Y477.373 I5 J0
X409.561 Y476.973 I-0.4 J0
G1 X409.361
G18 G3 X408.961 Z-2.6 I0 K0.4
G0 Z10
X501.944 Y421.11
Z2
G1 Z0.4 F1000
G3 X501.544 Z0 I-0.4 K0
G1 X501.344
G17 G2 X500.944 Y421.51 I0 J0.4
X535.944 Y421.51 Z-0.5 I17.5 J0 F1143
X500.944 Y421.51 Z-1 I-17.5 J0
X535.944 Y421.51 Z-1.5 I17.5 J0
X500.944 Y421.51 Z-2 I-17.5 J0
X535.944 Y421.51 Z-2.5 I17.5 J0
X500.944 Y421.51 Z-3 I-17.5 J0
X535.944 Y421.51 I17.5 J0
X500.944 Y421.51 I-17.5 J0
X501.344 Y421.91 I0.4 J0
G1 X501.544
G18 G2 X501.944 Z-2.6 I0 K0.4
G0 Z10
Y354.816
Z2
G1 Z0.4 F1000
G3 X501.544 Z0 I-0.4 K0
G1 X501.344
G17 G2 X500.944 Y355.216 I0 J0.4
X535.944 Y355.216 Z-0.5 I17.5 J0 F1143
X500.944 Y355.216 Z-1 I-17.5 J0
X535.944 Y355.216 Z-1.5 I17.5 J0
X500.944 Y355.216 Z-2 I-17.5 J0
X535.944 Y355.216 Z-2.5 I17.5 J0
X500.944 Y355.216 Z-3 I-17.5 J0
X535.944 Y355.216 I17.5 J0
X500.944 Y355.216 I-17.5 J0
X501.344 Y355.616 I0.4 J0
G1 X501.544
G18 G2 X501.944 Z-2.6 I0 K0.4
G0 Z10
Y288.523
Z2
G1 Z0.4 F1000
G3 X501.544 Z0 I-0.4 K0
G1 X501.344
G17 G2 X500.944 Y288.923 I0 J0.4
X535.944 Y288.923 Z-0.5 I17.5 J0 F1143
X500.944 Y288.923 Z-1 I-17.5 J0
X535.944 Y288.923 Z-1.5 I17.5 J0
X500.944 Y288.923 Z-2 I-17.5 J0
X535.944 Y288.923 Z-2.5 I17.5 J0
X500.944 Y288.923 Z-3 I-17.5 J0
X535.944 Y288.923 I17.5 J0
X500.944 Y288.923 I-17.5 J0
X501.344 Y289.323 I0.4 J0
G1 X501.544
G18 G2 X501.944 Z-2.6 I0 K0.4
G0 Z10
Y222.23
Z2
G1 Z0.4 F1000
G3 X501.544 Z0 I-0.4 K0
G1 X501.344
G17 G2 X500.944 Y222.63 I0 J0.4
X535.944 Y222.63 Z-0.5 I17.5 J0 F1143
X500.944 Y222.63 Z-1 I-17.5 J0
X535.944 Y222.63 Z-1.5 I17.5 J0
X500.944 Y222.63 Z-2 I-17.5 J0
X535.944 Y222.63 Z-2.5 I17.5 J0
X500.944 Y222.63 Z-3 I-17.5 J0
X535.944 Y222.63 I17.5 J0
X500.944 Y222.63 I-17.5 J0
X501.344 Y223.03 I0.4 J0
G1 X501.544
G18 G2 X501.944 Z-2.6 I0 K0.4
G0 Z10
X504.751 Y155.696
Z2
G1 Z0.4 F1000
G3 X504.351 Z0 I-0.4 K0
G1 X504.151
G17 G2 X503.751 Y156.096 I0 J0.4
X538.751 Y156.096 Z-0.5 I17.5 J0 F1143
X503.751 Y156.096 Z-1 I-17.5 J0
X538.751 Y156.096 Z-1.5 I17.5 J0
X503.751 Y156.096 Z-2 I-17.5 J0
X538.751 Y156.096 Z-2.5 I17.5 J0
X503.751 Y156.096 Z-3 I-17.5 J0
X538.751 Y156.096 I17.5 J0
X503.751 Y156.096 I-17.5 J0
X504.151 Y156.496 I0.4 J0
G1 X504.351
G18 G2 X504.751 Z-2.6 I0 K0.4
G0 Z10
X562.344 Y99.185
Z2
G1 Z0.4 F1000
G2 X562.744 Z0 I0.4 K0
G1 X562.944
G17 G2 X563.344 Y98.785 I0 J-0.4
X553.344 Y98.785 Z-0.5 I-5 J0 F1143
X563.344 Y98.785 Z-1 I5 J0
X553.344 Y98.785 Z-1.5 I-5 J0
X563.344 Y98.785 Z-2 I5 J0
X553.344 Y98.785 Z-2.5 I-5 J0
X563.344 Y98.785 Z-3 I5 J0
X553.344 Y98.785 I-5 J0
X563.344 Y98.785 I5 J0
X562.944 Y98.385 I-0.4 J0
G1 X562.744
G18 G3 X562.344 Z-2.6 I0 K0.4
G0 Z10
X513.839 Y83.873
Z2
G1 Z0.4 F1000
G2 X514.239 Z0 I0.4 K0
G1 X514.439
G17 G2 X514.839 Y83.473 I0 J-0.4
X504.839 Y83.473 Z-0.5 I-5 J0 F1143
X514.839 Y83.473 Z-1 I5 J0
X504.839 Y83.473 Z-1.5 I-5 J0
X514.839 Y83.473 Z-2 I5 J0
X504.839 Y83.473 Z-2.5 I-5 J0
X514.839 Y83.473 Z-3 I5 J0
X504.839 Y83.473 I-5 J0
X514.839 Y83.473 I5 J0
X514.439 Y83.073 I-0.4 J0
G1 X514.239
G18 G3 X513.839 Z-2.6 I0 K0.4
G0 Z10
X487.834 Y99.185
Z2
G1 Z0.4 F1000
G2 X488.234 Z0 I0.4 K0
G1 X488.434
G17 G2 X488.834 Y98.785 I0 J-0.4
X478.834 Y98.785 Z-0.5 I-5 J0 F1143
X488.834 Y98.785 Z-1 I5 J0
X478.834 Y98.785 Z-1.5 I-5 J0
X488.834 Y98.785 Z-2 I5 J0
X478.834 Y98.785 Z-2.5 I-5 J0
X488.834 Y98.785 Z-3 I5 J0
X478.834 Y98.785 I-5 J0
X488.834 Y98.785 I5 J0
X488.434 Y98.385 I-0.4 J0
G1 X488.234
G18 G3 X487.834 Z-2.6 I0 K0.4
G0 Z10
Y41.779
Z2
G1 Z0.4 F1000
G2 X488.234 Z0 I0.4 K0
G1 X488.434
G17 G2 X488.834 Y41.379 I0 J-0.4
X478.834 Y41.379 Z-0.5 I-5 J0 F1143
X488.834 Y41.379 Z-1 I5 J0
X478.834 Y41.379 Z-1.5 I-5 J0
X488.834 Y41.379 Z-2 I5 J0
X478.834 Y41.379 Z-2.5 I-5 J0
X488.834 Y41.379 Z-3 I5 J0
X478.834 Y41.379 I-5 J0
X488.834 Y41.379 I5 J0
X488.434 Y40.979 I-0.4 J0
G1 X488.234
G18 G3 X487.834 Z-2.6 I0 K0.4
G0 Z10
X513.839 Y26.468
Z2
G1 Z0.4 F1000
G2 X514.239 Z0 I0.4 K0
G1 X514.439
G17 G2 X514.839 Y26.068 I0 J-0.4
X504.839 Y26.068 Z-0.5 I-5 J0 F1143
X514.839 Y26.068 Z-1 I5 J0
X504.839 Y26.068 Z-1.5 I-5 J0
X514.839 Y26.068 Z-2 I5 J0
X504.839 Y26.068 Z-2.5 I-5 J0
X514.839 Y26.068 Z-3 I5 J0
X504.839 Y26.068 I-5 J0
X514.839 Y26.068 I5 J0
X514.439 Y25.668 I-0.4 J0
G1 X514.239
G18 G3 X513.839 Z-2.6 I0 K0.4
G0 Z10
X562.344 Y41.779
Z2
G1 Z0.4 F1000
G2 X562.744 Z0 I0.4 K0
G1 X562.944
G17 G2 X563.344 Y41.379 I0 J-0.4
X553.344 Y41.379 Z-0.5 I-5 J0 F1143
X563.344 Y41.379 Z-1 I5 J0
X553.344 Y41.379 Z-1.5 I-5 J0
X563.344 Y41.379 Z-2 I5 J0
X553.344 Y41.379 Z-2.5 I-5 J0
X563.344 Y41.379 Z-3 I5 J0
X553.344 Y41.379 I-5 J0
X563.344 Y41.379 I5 J0
X562.944 Y40.979 I-0.4 J0
G1 X562.744
G18 G3 X562.344 Z-2.6 I0 K0.4
G0 Z25
G17
G28 G91 Z0
G90
G28 G91 X0 Y0
G90
M5
M30
