(Setup 1 drilling and boring 2)
(T1  D=4 CR=0 - ZMIN=-3 - flat end mill)
G90 G94
G17
G21
G28 G91 Z0
G90

(Drill1 2)
T1
S10000 M3
G54
G0 X16 Y205.4
Z25
Z10
Z7
G1 Z-3 F450
G0 Z10
X24
Z7
G1 Z-3 F450
G0 Z10
X32
Z7
G1 Z-3 F450
G0 Z10
X40
Z7
G1 Z-3 F450
G0 Z10
X48
Z7
G1 Z-3 F450
G0 Z10
X56
Z7
G1 Z-3 F450
G0 Z10
X64
Z7
G1 Z-3 F450
G0 Z10
X72
Z7
G1 Z-3 F450
G0 Z10
X80
Z7
G1 Z-3 F450
G0 Z10
X88
Z7
G1 Z-3 F450
G0 Z10
X96
Z7
G1 Z-3 F450
G0 Z10
X104
Z7
G1 Z-3 F450
G0 Z10
X112
Z7
G1 Z-3 F450
G0 Z10
X120
Z7
G1 Z-3 F450
G0 Z10
X128
Z7
G1 Z-3 F450
G0 Z10
X136
Z7
G1 Z-3 F450
G0 Z10
X144
Z7
G1 Z-3 F450
G0 Z10
X152
Z7
G1 Z-3 F450
G0 Z10
X160
Z7
G1 Z-3 F450
G0 Z10
X168
Z7
G1 Z-3 F450
G0 Z10
X176
Z7
G1 Z-3 F450
G0 Z10
X184
Z7
G1 Z-3 F450
G0 Z10
X192
Z7
G1 Z-3 F450
G0 Z10
X200
Z7
G1 Z-3 F450
G0 Z10
X208
Z7
G1 Z-3 F450
G0 Z10
X216
Z7
G1 Z-3 F450
G0 Z10
X224
Z7
G1 Z-3 F450
G0 Z10
X232
Z7
G1 Z-3 F450
G0 Z10
X240
Z7
G1 Z-3 F450
G0 Z10
X248
Z7
G1 Z-3 F450
G0 Z10
X256
Z7
G1 Z-3 F450
G0 Z10
X264
Z7
G1 Z-3 F450
G0 Z10
X272
Z7
G1 Z-3 F450
G0 Z10
X280
Z7
G1 Z-3 F450
G0 Z10
X288
Z7
G1 Z-3 F450
G0 Z10
X296
Z7
G1 Z-3 F450
G0 Z10
X304
Z7
G1 Z-3 F450
G0 Z10
X312
Z7
G1 Z-3 F450
G0 Z10
Y197.4
Z7
G1 Z-3 F450
G0 Z10
X304
Z7
G1 Z-3 F450
G0 Z10
X296
Z7
G1 Z-3 F450
G0 Z10
X288
Z7
G1 Z-3 F450
G0 Z10
X280
Z7
G1 Z-3 F450
G0 Z10
X272
Z7
G1 Z-3 F450
G0 Z10
X264
Z7
G1 Z-3 F450
G0 Z10
X256
Z7
G1 Z-3 F450
G0 Z10
X248
Z7
G1 Z-3 F450
G0 Z10
X240
Z7
G1 Z-3 F450
G0 Z10
X232
Z7
G1 Z-3 F450
G0 Z10
X224
Z7
G1 Z-3 F450
G0 Z10
X216
Z7
G1 Z-3 F450
G0 Z10
X208
Z7
G1 Z-3 F450
G0 Z10
X200
Z7
G1 Z-3 F450
G0 Z10
X192
Z7
G1 Z-3 F450
G0 Z10
X184
Z7
G1 Z-3 F450
G0 Z10
X176
Z7
G1 Z-3 F450
G0 Z10
X168
Z7
G1 Z-3 F450
G0 Z10
X160
Z7
G1 Z-3 F450
G0 Z10
X152
Z7
G1 Z-3 F450
G0 Z10
X144
Z7
G1 Z-3 F450
G0 Z10
X136
Z7
G1 Z-3 F450
G0 Z10
X128
Z7
G1 Z-3 F450
G0 Z10
X120
Z7
G1 Z-3 F450
G0 Z10
X112
Z7
G1 Z-3 F450
G0 Z10
X104
Z7
G1 Z-3 F450
G0 Z10
X96
Z7
G1 Z-3 F450
G0 Z10
X88
Z7
G1 Z-3 F450
G0 Z10
X80
Z7
G1 Z-3 F450
G0 Z10
X72
Z7
G1 Z-3 F450
G0 Z10
X64
Z7
G1 Z-3 F450
G0 Z10
X56
Z7
G1 Z-3 F450
G0 Z10
X48
Z7
G1 Z-3 F450
G0 Z10
X40
Z7
G1 Z-3 F450
G0 Z10
X32
Z7
G1 Z-3 F450
G0 Z10
X24
Z7
G1 Z-3 F450
G0 Z10
X16
Z7
G1 Z-3 F450
G0 Z10
Y189.4
Z7
G1 Z-3 F450
G0 Z10
X24
Z7
G1 Z-3 F450
G0 Z10
X32
Z7
G1 Z-3 F450
G0 Z10
X40
Z7
G1 Z-3 F450
G0 Z10
X48
Z7
G1 Z-3 F450
G0 Z10
X56
Z7
G1 Z-3 F450
G0 Z10
X64
Z7
G1 Z-3 F450
G0 Z10
X72
Z7
G1 Z-3 F450
G0 Z10
X80
Z7
G1 Z-3 F450
G0 Z10
X88
Z7
G1 Z-3 F450
G0 Z10
X96
Z7
G1 Z-3 F450
G0 Z10
X104
Z7
G1 Z-3 F450
G0 Z10
X112
Z7
G1 Z-3 F450
G0 Z10
X120
Z7
G1 Z-3 F450
G0 Z10
X128
Z7
G1 Z-3 F450
G0 Z10
X136
Z7
G1 Z-3 F450
G0 Z10
X144
Z7
G1 Z-3 F450
G0 Z10
X152
Z7
G1 Z-3 F450
G0 Z10
X160
Z7
G1 Z-3 F450
G0 Z10
X168
Z7
G1 Z-3 F450
G0 Z10
X176
Z7
G1 Z-3 F450
G0 Z10
X184
Z7
G1 Z-3 F450
G0 Z10
X192
Z7
G1 Z-3 F450
G0 Z10
X200
Z7
G1 Z-3 F450
G0 Z10
X208
Z7
G1 Z-3 F450
G0 Z10
X216
Z7
G1 Z-3 F450
G0 Z10
X224
Z7
G1 Z-3 F450
G0 Z10
X232
Z7
G1 Z-3 F450
G0 Z10
X240
Z7
G1 Z-3 F450
G0 Z10
X248
Z7
G1 Z-3 F450
G0 Z10
X256
Z7
G1 Z-3 F450
G0 Z10
X264
Z7
G1 Z-3 F450
G0 Z10
X272
Z7
G1 Z-3 F450
G0 Z10
X280
Z7
G1 Z-3 F450
G0 Z10
X288
Z7
G1 Z-3 F450
G0 Z10
X296
Z7
G1 Z-3 F450
G0 Z10
X304
Z7
G1 Z-3 F450
G0 Z10
X312
Z7
G1 Z-3 F450
G0 Z10
X320
Z7
G1 Z-3 F450
G0 Z10
X328
Z7
G1 Z-3 F450
G0 Z10
X336
Z7
G1 Z-3 F450
G0 Z10
X344
Z7
G1 Z-3 F450
G0 Z10
X352
Z7
G1 Z-3 F450
G0 Z10
X360
Z7
G1 Z-3 F450
G0 Z10
X368
Z7
G1 Z-3 F450
G0 Z10
X376
Z7
G1 Z-3 F450
G0 Z10
X384
Z7
G1 Z-3 F450
G0 Z10
X392
Z7
G1 Z-3 F450
G0 Z10
X400
Z7
G1 Z-3 F450
G0 Z10
X408
Z7
G1 Z-3 F450
G0 Z10
X416
Z7
G1 Z-3 F450
G0 Z10
X424
Z7
G1 Z-3 F450
G0 Z10
X432
Z7
G1 Z-3 F450
G0 Z10
X440
Z7
G1 Z-3 F450
G0 Z10
Y197.4
Z7
G1 Z-3 F450
G0 Z10
X432
Z7
G1 Z-3 F450
G0 Z10
X424
Z7
G1 Z-3 F450
G0 Z10
X416
Z7
G1 Z-3 F450
G0 Z10
X408
Z7
G1 Z-3 F450
G0 Z10
X400
Z7
G1 Z-3 F450
G0 Z10
X392
Z7
G1 Z-3 F450
G0 Z10
X384
Z7
G1 Z-3 F450
G0 Z10
X376
Z7
G1 Z-3 F450
G0 Z10
Y205.4
Z7
G1 Z-3 F450
G0 Z10
X384
Z7
G1 Z-3 F450
G0 Z10
X392
Z7
G1 Z-3 F450
G0 Z10
X400
Z7
G1 Z-3 F450
G0 Z10
X408
Z7
G1 Z-3 F450
G0 Z10
X416
Z7
G1 Z-3 F450
G0 Z10
X424
Z7
G1 Z-3 F450
G0 Z10
X432
Z7
G1 Z-3 F450
G0 Z10
X440
Z7
G1 Z-3 F450
G0 Z10
Y181.4
Z7
G1 Z-3 F450
G0 Z10
X432
Z7
G1 Z-3 F450
G0 Z10
X424
Z7
G1 Z-3 F450
G0 Z10
X416
Z7
G1 Z-3 F450
G0 Z10
X408
Z7
G1 Z-3 F450
G0 Z10
X400
Z7
G1 Z-3 F450
G0 Z10
X392
Z7
G1 Z-3 F450
G0 Z10
X384
Z7
G1 Z-3 F450
G0 Z10
X376
Z7
G1 Z-3 F450
G0 Z10
X368
Z7
G1 Z-3 F450
G0 Z10
X360
Z7
G1 Z-3 F450
G0 Z10
X352
Z7
G1 Z-3 F450
G0 Z10
X344
Z7
G1 Z-3 F450
G0 Z10
X336
Z7
G1 Z-3 F450
G0 Z10
X328
Z7
G1 Z-3 F450
G0 Z10
X320
Z7
G1 Z-3 F450
G0 Z10
X312
Z7
G1 Z-3 F450
G0 Z10
X304
Z7
G1 Z-3 F450
G0 Z10
X296
Z7
G1 Z-3 F450
G0 Z10
X288
Z7
G1 Z-3 F450
G0 Z10
X280
Z7
G1 Z-3 F450
G0 Z10
X272
Z7
G1 Z-3 F450
G0 Z10
X264
Z7
G1 Z-3 F450
G0 Z10
X256
Z7
G1 Z-3 F450
G0 Z10
X248
Z7
G1 Z-3 F450
G0 Z10
X240
Z7
G1 Z-3 F450
G0 Z10
X232
Z7
G1 Z-3 F450
G0 Z10
X224
Z7
G1 Z-3 F450
G0 Z10
X216
Z7
G1 Z-3 F450
G0 Z10
X208
Z7
G1 Z-3 F450
G0 Z10
X200
Z7
G1 Z-3 F450
G0 Z10
X192
Z7
G1 Z-3 F450
G0 Z10
X184
Z7
G1 Z-3 F450
G0 Z10
X176
Z7
G1 Z-3 F450
G0 Z10
X168
Z7
G1 Z-3 F450
G0 Z10
X160
Z7
G1 Z-3 F450
G0 Z10
X152
Z7
G1 Z-3 F450
G0 Z10
X144
Z7
G1 Z-3 F450
G0 Z10
X136
Z7
G1 Z-3 F450
G0 Z10
X128
Z7
G1 Z-3 F450
G0 Z10
X120
Z7
G1 Z-3 F450
G0 Z10
X112
Z7
G1 Z-3 F450
G0 Z10
X104
Z7
G1 Z-3 F450
G0 Z10
X96
Z7
G1 Z-3 F450
G0 Z10
X88
Z7
G1 Z-3 F450
G0 Z10
X80
Z7
G1 Z-3 F450
G0 Z10
X72
Z7
G1 Z-3 F450
G0 Z10
X64
Z7
G1 Z-3 F450
G0 Z10
X56
Z7
G1 Z-3 F450
G0 Z10
X48
Z7
G1 Z-3 F450
G0 Z10
X40
Z7
G1 Z-3 F450
G0 Z10
X32
Z7
G1 Z-3 F450
G0 Z10
X24
Z7
G1 Z-3 F450
G0 Z10
X16
Z7
G1 Z-3 F450
G0 Z10
Y173.4
Z7
G1 Z-3 F450
G0 Z10
X24
Z7
G1 Z-3 F450
G0 Z10
X32
Z7
G1 Z-3 F450
G0 Z10
X40
Z7
G1 Z-3 F450
G0 Z10
X48
Z7
G1 Z-3 F450
G0 Z10
X56
Z7
G1 Z-3 F450
G0 Z10
X64
Z7
G1 Z-3 F450
G0 Z10
X72
Z7
G1 Z-3 F450
G0 Z10
X80
Z7
G1 Z-3 F450
G0 Z10
X88
Z7
G1 Z-3 F450
G0 Z10
X96
Z7
G1 Z-3 F450
G0 Z10
X104
Z7
G1 Z-3 F450
G0 Z10
X112
Z7
G1 Z-3 F450
G0 Z10
X120
Z7
G1 Z-3 F450
G0 Z10
X128
Z7
G1 Z-3 F450
G0 Z10
X136
Z7
G1 Z-3 F450
G0 Z10
X144
Z7
G1 Z-3 F450
G0 Z10
X152
Z7
G1 Z-3 F450
G0 Z10
X160
Z7
G1 Z-3 F450
G0 Z10
X168
Z7
G1 Z-3 F450
G0 Z10
X176
Z7
G1 Z-3 F450
G0 Z10
X184
Z7
G1 Z-3 F450
G0 Z10
X192
Z7
G1 Z-3 F450
G0 Z10
X200
Z7
G1 Z-3 F450
G0 Z10
X208
Z7
G1 Z-3 F450
G0 Z10
X216
Z7
G1 Z-3 F450
G0 Z10
X224
Z7
G1 Z-3 F450
G0 Z10
X232
Z7
G1 Z-3 F450
G0 Z10
X240
Z7
G1 Z-3 F450
G0 Z10
X248
Z7
G1 Z-3 F450
G0 Z10
X256
Z7
G1 Z-3 F450
G0 Z10
X264
Z7
G1 Z-3 F450
G0 Z10
X272
Z7
G1 Z-3 F450
G0 Z10
X280
Z7
G1 Z-3 F450
G0 Z10
X288
Z7
G1 Z-3 F450
G0 Z10
X296
Z7
G1 Z-3 F450
G0 Z10
X304
Z7
G1 Z-3 F450
G0 Z10
X312
Z7
G1 Z-3 F450
G0 Z10
X320
Z7
G1 Z-3 F450
G0 Z10
X328
Z7
G1 Z-3 F450
G0 Z10
X336
Z7
G1 Z-3 F450
G0 Z10
X344
Z7
G1 Z-3 F450
G0 Z10
X352
Z7
G1 Z-3 F450
G0 Z10
X360
Z7
G1 Z-3 F450
G0 Z10
X368
Z7
G1 Z-3 F450
G0 Z10
X376
Z7
G1 Z-3 F450
G0 Z10
X384
Z7
G1 Z-3 F450
G0 Z10
X392
Z7
G1 Z-3 F450
G0 Z10
X400
Z7
G1 Z-3 F450
G0 Z10
X408
Z7
G1 Z-3 F450
G0 Z10
X416
Z7
G1 Z-3 F450
G0 Z10
X424
Z7
G1 Z-3 F450
G0 Z10
X432
Z7
G1 Z-3 F450
G0 Z10
X440
Z7
G1 Z-3 F450
G0 Z10
Y165.4
Z7
G1 Z-3 F450
G0 Z10
X432
Z7
G1 Z-3 F450
G0 Z10
X424
Z7
G1 Z-3 F450
G0 Z10
X416
Z7
G1 Z-3 F450
G0 Z10
X408
Z7
G1 Z-3 F450
G0 Z10
X400
Z7
G1 Z-3 F450
G0 Z10
X392
Z7
G1 Z-3 F450
G0 Z10
X384
Z7
G1 Z-3 F450
G0 Z10
X376
Z7
G1 Z-3 F450
G0 Z10
X368
Z7
G1 Z-3 F450
G0 Z10
X360
Z7
G1 Z-3 F450
G0 Z10
X352
Z7
G1 Z-3 F450
G0 Z10
X344
Z7
G1 Z-3 F450
G0 Z10
X336
Z7
G1 Z-3 F450
G0 Z10
X328
Z7
G1 Z-3 F450
G0 Z10
X320
Z7
G1 Z-3 F450
G0 Z10
X312
Z7
G1 Z-3 F450
G0 Z10
X304
Z7
G1 Z-3 F450
G0 Z10
X296
Z7
G1 Z-3 F450
G0 Z10
X288
Z7
G1 Z-3 F450
G0 Z10
X280
Z7
G1 Z-3 F450
G0 Z10
X272
Z7
G1 Z-3 F450
G0 Z10
X264
Z7
G1 Z-3 F450
G0 Z10
X256
Z7
G1 Z-3 F450
G0 Z10
X248
Z7
G1 Z-3 F450
G0 Z10
X240
Z7
G1 Z-3 F450
G0 Z10
X232
Z7
G1 Z-3 F450
G0 Z10
X224
Z7
G1 Z-3 F450
G0 Z10
X216
Z7
G1 Z-3 F450
G0 Z10
X208
Z7
G1 Z-3 F450
G0 Z10
X200
Z7
G1 Z-3 F450
G0 Z10
X192
Z7
G1 Z-3 F450
G0 Z10
X184
Z7
G1 Z-3 F450
G0 Z10
X176
Z7
G1 Z-3 F450
G0 Z10
X168
Z7
G1 Z-3 F450
G0 Z10
X160
Z7
G1 Z-3 F450
G0 Z10
X152
Z7
G1 Z-3 F450
G0 Z10
X144
Z7
G1 Z-3 F450
G0 Z10
X136
Z7
G1 Z-3 F450
G0 Z10
X128
Z7
G1 Z-3 F450
G0 Z10
X120
Z7
G1 Z-3 F450
G0 Z10
X112
Z7
G1 Z-3 F450
G0 Z10
X104
Z7
G1 Z-3 F450
G0 Z10
X96
Z7
G1 Z-3 F450
G0 Z10
X88
Z7
G1 Z-3 F450
G0 Z10
X80
Z7
G1 Z-3 F450
G0 Z10
X72
Z7
G1 Z-3 F450
G0 Z10
X64
Z7
G1 Z-3 F450
G0 Z10
X56
Z7
G1 Z-3 F450
G0 Z10
X48
Z7
G1 Z-3 F450
G0 Z10
X40
Z7
G1 Z-3 F450
G0 Z10
X32
Z7
G1 Z-3 F450
G0 Z10
X24
Z7
G1 Z-3 F450
G0 Z10
X16
Z7
G1 Z-3 F450
G0 Z10
Y115.875
Z7
G1 Z-3 F450
G0 Z10
X24
Z7
G1 Z-3 F450
G0 Z10
X32
Z7
G1 Z-3 F450
G0 Z10
X40
Z7
G1 Z-3 F450
G0 Z10
X48
Z7
G1 Z-3 F450
G0 Z10
X56
Z7
G1 Z-3 F450
G0 Z10
X64
Z7
G1 Z-3 F450
G0 Z10
X72
Z7
G1 Z-3 F450
G0 Z10
X80
Z7
G1 Z-3 F450
G0 Z10
X88
Z7
G1 Z-3 F450
G0 Z10
X96
Z7
G1 Z-3 F450
G0 Z10
X104
Z7
G1 Z-3 F450
G0 Z10
X112
Z7
G1 Z-3 F450
G0 Z10
X120
Z7
G1 Z-3 F450
G0 Z10
X128
Z7
G1 Z-3 F450
G0 Z10
X136
Z7
G1 Z-3 F450
G0 Z10
X144
Z7
G1 Z-3 F450
G0 Z10
X152
Z7
G1 Z-3 F450
G0 Z10
X160
Z7
G1 Z-3 F450
G0 Z10
X168
Z7
G1 Z-3 F450
G0 Z10
X176
Z7
G1 Z-3 F450
G0 Z10
X184
Z7
G1 Z-3 F450
G0 Z10
X192
Z7
G1 Z-3 F450
G0 Z10
X200
Z7
G1 Z-3 F450
G0 Z10
X208
Z7
G1 Z-3 F450
G0 Z10
X216
Z7
G1 Z-3 F450
G0 Z10
X224
Z7
G1 Z-3 F450
G0 Z10
X232
Z7
G1 Z-3 F450
G0 Z10
X240
Z7
G1 Z-3 F450
G0 Z10
X248
Z7
G1 Z-3 F450
G0 Z10
X256
Z7
G1 Z-3 F450
G0 Z10
X264
Z7
G1 Z-3 F450
G0 Z10
X272
Z7
G1 Z-3 F450
G0 Z10
X280
Z7
G1 Z-3 F450
G0 Z10
X288
Z7
G1 Z-3 F450
G0 Z10
X296
Z7
G1 Z-3 F450
G0 Z10
X304
Z7
G1 Z-3 F450
G0 Z10
X312
Z7
G1 Z-3 F450
G0 Z10
X320
Z7
G1 Z-3 F450
G0 Z10
X328
Z7
G1 Z-3 F450
G0 Z10
X336
Z7
G1 Z-3 F450
G0 Z10
X344
Z7
G1 Z-3 F450
G0 Z10
X352
Z7
G1 Z-3 F450
G0 Z10
X360
Z7
G1 Z-3 F450
G0 Z10
X368
Z7
G1 Z-3 F450
G0 Z10
X376
Z7
G1 Z-3 F450
G0 Z10
X384
Z7
G1 Z-3 F450
G0 Z10
X392
Z7
G1 Z-3 F450
G0 Z10
X400
Z7
G1 Z-3 F450
G0 Z10
X408
Z7
G1 Z-3 F450
G0 Z10
X416
Z7
G1 Z-3 F450
G0 Z10
X424
Z7
G1 Z-3 F450
G0 Z10
X432
Z7
G1 Z-3 F450
G0 Z10
X440
Z7
G1 Z-3 F450
G0 Z10
Y107.875
Z7
G1 Z-3 F450
G0 Z10
X432
Z7
G1 Z-3 F450
G0 Z10
X424
Z7
G1 Z-3 F450
G0 Z10
X416
Z7
G1 Z-3 F450
G0 Z10
X408
Z7
G1 Z-3 F450
G0 Z10
X400
Z7
G1 Z-3 F450
G0 Z10
X392
Z7
G1 Z-3 F450
G0 Z10
X384
Z7
G1 Z-3 F450
G0 Z10
X376
Z7
G1 Z-3 F450
G0 Z10
X368
Z7
G1 Z-3 F450
G0 Z10
X360
Z7
G1 Z-3 F450
G0 Z10
X352
Z7
G1 Z-3 F450
G0 Z10
X344
Z7
G1 Z-3 F450
G0 Z10
X336
Z7
G1 Z-3 F450
G0 Z10
X328
Z7
G1 Z-3 F450
G0 Z10
X320
Z7
G1 Z-3 F450
G0 Z10
X312
Z7
G1 Z-3 F450
G0 Z10
X304
Z7
G1 Z-3 F450
G0 Z10
X296
Z7
G1 Z-3 F450
G0 Z10
X288
Z7
G1 Z-3 F450
G0 Z10
X280
Z7
G1 Z-3 F450
G0 Z10
X272
Z7
G1 Z-3 F450
G0 Z10
X264
Z7
G1 Z-3 F450
G0 Z10
X256
Z7
G1 Z-3 F450
G0 Z10
X248
Z7
G1 Z-3 F450
G0 Z10
X240
Z7
G1 Z-3 F450
G0 Z10
X232
Z7
G1 Z-3 F450
G0 Z10
X224
Z7
G1 Z-3 F450
G0 Z10
X216
Z7
G1 Z-3 F450
G0 Z10
X208
Z7
G1 Z-3 F450
G0 Z10
X200
Z7
G1 Z-3 F450
G0 Z10
X192
Z7
G1 Z-3 F450
G0 Z10
X184
Z7
G1 Z-3 F450
G0 Z10
X176
Z7
G1 Z-3 F450
G0 Z10
X168
Z7
G1 Z-3 F450
G0 Z10
X160
Z7
G1 Z-3 F450
G0 Z10
X152
Z7
G1 Z-3 F450
G0 Z10
X144
Z7
G1 Z-3 F450
G0 Z10
X136
Z7
G1 Z-3 F450
G0 Z10
X128
Z7
G1 Z-3 F450
G0 Z10
X120
Z7
G1 Z-3 F450
G0 Z10
X112
Z7
G1 Z-3 F450
G0 Z10
X104
Z7
G1 Z-3 F450
G0 Z10
X96
Z7
G1 Z-3 F450
G0 Z10
X88
Z7
G1 Z-3 F450
G0 Z10
X80
Z7
G1 Z-3 F450
G0 Z10
X72
Z7
G1 Z-3 F450
G0 Z10
X64
Z7
G1 Z-3 F450
G0 Z10
X56
Z7
G1 Z-3 F450
G0 Z10
X48
Z7
G1 Z-3 F450
G0 Z10
X40
Z7
G1 Z-3 F450
G0 Z10
X32
Z7
G1 Z-3 F450
G0 Z10
X24
Z7
G1 Z-3 F450
G0 Z10
X16
Z7
G1 Z-3 F450
G0 Z10
X440 Y15.175
Z7
G1 Z-3 F450
G0 Z10
X432
Z7
G1 Z-3 F450
G0 Z10
X424
Z7
G1 Z-3 F450
G0 Z10
X416
Z7
G1 Z-3 F450
G0 Z10
X408
Z7
G1 Z-3 F450
G0 Z10
X400
Z7
G1 Z-3 F450
G0 Z10
X392
Z7
G1 Z-3 F450
G0 Z10
X384
Z7
G1 Z-3 F450
G0 Z10
X376
Z7
G1 Z-3 F450
G0 Z10
X368
Z7
G1 Z-3 F450
G0 Z10
X360
Z7
G1 Z-3 F450
G0 Z10
X352
Z7
G1 Z-3 F450
G0 Z10
X344
Z7
G1 Z-3 F450
G0 Z10
X336
Z7
G1 Z-3 F450
G0 Z10
X328
Z7
G1 Z-3 F450
G0 Z10
X320
Z7
G1 Z-3 F450
G0 Z10
X312
Z7
G1 Z-3 F450
G0 Z10
X304
Z7
G1 Z-3 F450
G0 Z10
X296
Z7
G1 Z-3 F450
G0 Z10
X288
Z7
G1 Z-3 F450
G0 Z10
X280
Z7
G1 Z-3 F450
G0 Z10
X272
Z7
G1 Z-3 F450
G0 Z10
X264
Z7
G1 Z-3 F450
G0 Z10
X256
Z7
G1 Z-3 F450
G0 Z10
X248
Z7
G1 Z-3 F450
G0 Z10
X240
Z7
G1 Z-3 F450
G0 Z10
X232
Z7
G1 Z-3 F450
G0 Z10
X224
Z7
G1 Z-3 F450
G0 Z10
X216
Z7
G1 Z-3 F450
G0 Z10
X208
Z7
G1 Z-3 F450
G0 Z10
X200
Z7
G1 Z-3 F450
G0 Z10
X192
Z7
G1 Z-3 F450
G0 Z10
X184
Z7
G1 Z-3 F450
G0 Z10
X176
Z7
G1 Z-3 F450
G0 Z10
X168
Z7
G1 Z-3 F450
G0 Z10
X160
Z7
G1 Z-3 F450
G0 Z10
X152
Z7
G1 Z-3 F450
G0 Z10
X144
Z7
G1 Z-3 F450
G0 Z10
X136
Z7
G1 Z-3 F450
G0 Z10
X128
Z7
G1 Z-3 F450
G0 Z10
X120
Z7
G1 Z-3 F450
G0 Z10
X112
Z7
G1 Z-3 F450
G0 Z10
X104
Z7
G1 Z-3 F450
G0 Z10
X96
Z7
G1 Z-3 F450
G0 Z10
X88
Z7
G1 Z-3 F450
G0 Z10
X80
Z7
G1 Z-3 F450
G0 Z10
X72
Z7
G1 Z-3 F450
G0 Z10
X64
Z7
G1 Z-3 F450
G0 Z10
X56
Z7
G1 Z-3 F450
G0 Z10
X48
Z7
G1 Z-3 F450
G0 Z10
X40
Z7
G1 Z-3 F450
G0 Z10
X32
Z7
G1 Z-3 F450
G0 Z10
X24
Z7
G1 Z-3 F450
G0 Z10
X16
Z7
G1 Z-3 F450
G0 Z10
Y23.175
Z7
G1 Z-3 F450
G0 Z10
X24
Z7
G1 Z-3 F450
G0 Z10
X32
Z7
G1 Z-3 F450
G0 Z10
X40
Z7
G1 Z-3 F450
G0 Z10
X48
Z7
G1 Z-3 F450
G0 Z10
X56
Z7
G1 Z-3 F450
G0 Z10
X64
Z7
G1 Z-3 F450
G0 Z10
X72
Z7
G1 Z-3 F450
G0 Z10
X80
Z7
G1 Z-3 F450
G0 Z10
X88
Z7
G1 Z-3 F450
G0 Z10
X96
Z7
G1 Z-3 F450
G0 Z10
X104
Z7
G1 Z-3 F450
G0 Z10
X112
Z7
G1 Z-3 F450
G0 Z10
X120
Z7
G1 Z-3 F450
G0 Z10
X128
Z7
G1 Z-3 F450
G0 Z10
X136
Z7
G1 Z-3 F450
G0 Z10
X144
Z7
G1 Z-3 F450
G0 Z10
X152
Z7
G1 Z-3 F450
G0 Z10
X160
Z7
G1 Z-3 F450
G0 Z10
X168
Z7
G1 Z-3 F450
G0 Z10
X176
Z7
G1 Z-3 F450
G0 Z10
X184
Z7
G1 Z-3 F450
G0 Z10
X192
Z7
G1 Z-3 F450
G0 Z10
X200
Z7
G1 Z-3 F450
G0 Z10
X208
Z7
G1 Z-3 F450
G0 Z10
X216
Z7
G1 Z-3 F450
G0 Z10
X224
Z7
G1 Z-3 F450
G0 Z10
X232
Z7
G1 Z-3 F450
G0 Z10
X240
Z7
G1 Z-3 F450
G0 Z10
X248
Z7
G1 Z-3 F450
G0 Z10
X256
Z7
G1 Z-3 F450
G0 Z10
X264
Z7
G1 Z-3 F450
G0 Z10
X272
Z7
G1 Z-3 F450
G0 Z10
X280
Z7
G1 Z-3 F450
G0 Z10
X288
Z7
G1 Z-3 F450
G0 Z10
X296
Z7
G1 Z-3 F450
G0 Z10
X304
Z7
G1 Z-3 F450
G0 Z10
X312
Z7
G1 Z-3 F450
G0 Z10
X320
Z7
G1 Z-3 F450
G0 Z10
X328
Z7
G1 Z-3 F450
G0 Z10
X336
Z7
G1 Z-3 F450
G0 Z10
X344
Z7
G1 Z-3 F450
G0 Z10
X352
Z7
G1 Z-3 F450
G0 Z10
X360
Z7
G1 Z-3 F450
G0 Z10
X368
Z7
G1 Z-3 F450
G0 Z10
X376
Z7
G1 Z-3 F450
G0 Z10
X384
Z7
G1 Z-3 F450
G0 Z10
X392
Z7
G1 Z-3 F450
G0 Z10
X400
Z7
G1 Z-3 F450
G0 Z10
X408
Z7
G1 Z-3 F450
G0 Z10
X416
Z7
G1 Z-3 F450
G0 Z10
X424
Z7
G1 Z-3 F450
G0 Z10
X432
Z7
G1 Z-3 F450
G0 Z10
X440
Z7
G1 Z-3 F450
G0 Z10
Y31.175
Z7
G1 Z-3 F450
G0 Z10
X432
Z7
G1 Z-3 F450
G0 Z10
X424
Z7
G1 Z-3 F450
G0 Z10
X416
Z7
G1 Z-3 F450
G0 Z10
X408
Z7
G1 Z-3 F450
G0 Z10
X400
Z7
G1 Z-3 F450
G0 Z10
X392
Z7
G1 Z-3 F450
G0 Z10
X384
Z7
G1 Z-3 F450
G0 Z10
X376
Z7
G1 Z-3 F450
G0 Z10
X368
Z7
G1 Z-3 F450
G0 Z10
X360
Z7
G1 Z-3 F450
G0 Z10
X352
Z7
G1 Z-3 F450
G0 Z10
X344
Z7
G1 Z-3 F450
G0 Z10
X336
Z7
G1 Z-3 F450
G0 Z10
X328
Z7
G1 Z-3 F450
G0 Z10
X320
Z7
G1 Z-3 F450
G0 Z10
X312
Z7
G1 Z-3 F450
G0 Z10
X304
Z7
G1 Z-3 F450
G0 Z10
X296
Z7
G1 Z-3 F450
G0 Z10
X288
Z7
G1 Z-3 F450
G0 Z10
X280
Z7
G1 Z-3 F450
G0 Z10
X272
Z7
G1 Z-3 F450
G0 Z10
X264
Z7
G1 Z-3 F450
G0 Z10
X256
Z7
G1 Z-3 F450
G0 Z10
X248
Z7
G1 Z-3 F450
G0 Z10
X240
Z7
G1 Z-3 F450
G0 Z10
X232
Z7
G1 Z-3 F450
G0 Z10
X224
Z7
G1 Z-3 F450
G0 Z10
X216
Z7
G1 Z-3 F450
G0 Z10
X208
Z7
G1 Z-3 F450
G0 Z10
X200
Z7
G1 Z-3 F450
G0 Z10
X192
Z7
G1 Z-3 F450
G0 Z10
X184
Z7
G1 Z-3 F450
G0 Z10
X176
Z7
G1 Z-3 F450
G0 Z10
X168
Z7
G1 Z-3 F450
G0 Z10
X160
Z7
G1 Z-3 F450
G0 Z10
X152
Z7
G1 Z-3 F450
G0 Z10
X144
Z7
G1 Z-3 F450
G0 Z10
X136
Z7
G1 Z-3 F450
G0 Z10
X128
Z7
G1 Z-3 F450
G0 Z10
X120
Z7
G1 Z-3 F450
G0 Z10
X112
Z7
G1 Z-3 F450
G0 Z10
X104
Z7
G1 Z-3 F450
G0 Z10
X96
Z7
G1 Z-3 F450
G0 Z10
X88
Z7
G1 Z-3 F450
G0 Z10
X80
Z7
G1 Z-3 F450
G0 Z10
X72
Z7
G1 Z-3 F450
G0 Z10
X64
Z7
G1 Z-3 F450
G0 Z10
X56
Z7
G1 Z-3 F450
G0 Z10
X48
Z7
G1 Z-3 F450
G0 Z10
X40
Z7
G1 Z-3 F450
G0 Z10
X32
Z7
G1 Z-3 F450
G0 Z10
X24
Z7
G1 Z-3 F450
G0 Z10
X16
Z7
G1 Z-3 F450
G0 Z10
Y39.175
Z7
G1 Z-3 F450
G0 Z10
X24
Z7
G1 Z-3 F450
G0 Z10
X32
Z7
G1 Z-3 F450
G0 Z10
X40
Z7
G1 Z-3 F450
G0 Z10
X48
Z7
G1 Z-3 F450
G0 Z10
X56
Z7
G1 Z-3 F450
G0 Z10
X64
Z7
G1 Z-3 F450
G0 Z10
X72
Z7
G1 Z-3 F450
G0 Z10
X80
Z7
G1 Z-3 F450
G0 Z10
X88
Z7
G1 Z-3 F450
G0 Z10
X96
Z7
G1 Z-3 F450
G0 Z10
X104
Z7
G1 Z-3 F450
G0 Z10
X112
Z7
G1 Z-3 F450
G0 Z10
X120
Z7
G1 Z-3 F450
G0 Z10
X128
Z7
G1 Z-3 F450
G0 Z10
X136
Z7
G1 Z-3 F450
G0 Z10
X144
Z7
G1 Z-3 F450
G0 Z10
X152
Z7
G1 Z-3 F450
G0 Z10
X160
Z7
G1 Z-3 F450
G0 Z10
X168
Z7
G1 Z-3 F450
G0 Z10
X176
Z7
G1 Z-3 F450
G0 Z10
X184
Z7
G1 Z-3 F450
G0 Z10
X192
Z7
G1 Z-3 F450
G0 Z10
X200
Z7
G1 Z-3 F450
G0 Z10
X208
Z7
G1 Z-3 F450
G0 Z10
X216
Z7
G1 Z-3 F450
G0 Z10
X224
Z7
G1 Z-3 F450
G0 Z10
X232
Z7
G1 Z-3 F450
G0 Z10
X240
Z7
G1 Z-3 F450
G0 Z10
X248
Z7
G1 Z-3 F450
G0 Z10
X256
Z7
G1 Z-3 F450
G0 Z10
X264
Z7
G1 Z-3 F450
G0 Z10
X272
Z7
G1 Z-3 F450
G0 Z10
X280
Z7
G1 Z-3 F450
G0 Z10
X288
Z7
G1 Z-3 F450
G0 Z10
X296
Z7
G1 Z-3 F450
G0 Z10
X304
Z7
G1 Z-3 F450
G0 Z10
X312
Z7
G1 Z-3 F450
G0 Z10
X320
Z7
G1 Z-3 F450
G0 Z10
X328
Z7
G1 Z-3 F450
G0 Z10
X336
Z7
G1 Z-3 F450
G0 Z10
X344
Z7
G1 Z-3 F450
G0 Z10
X352
Z7
G1 Z-3 F450
G0 Z10
X360
Z7
G1 Z-3 F450
G0 Z10
X368
Z7
G1 Z-3 F450
G0 Z10
X376
Z7
G1 Z-3 F450
G0 Z10
X384
Z7
G1 Z-3 F450
G0 Z10
X392
Z7
G1 Z-3 F450
G0 Z10
X400
Z7
G1 Z-3 F450
G0 Z10
X408
Z7
G1 Z-3 F450
G0 Z10
X416
Z7
G1 Z-3 F450
G0 Z10
X424
Z7
G1 Z-3 F450
G0 Z10
X432
Z7
G1 Z-3 F450
G0 Z10
X440
Z7
G1 Z-3 F450
G0 Z10
Y47.175
Z7
G1 Z-3 F450
G0 Z10
X432
Z7
G1 Z-3 F450
G0 Z10
X424
Z7
G1 Z-3 F450
G0 Z10
X416
Z7
G1 Z-3 F450
G0 Z10
X408
Z7
G1 Z-3 F450
G0 Z10
X400
Z7
G1 Z-3 F450
G0 Z10
X392
Z7
G1 Z-3 F450
G0 Z10
X384
Z7
G1 Z-3 F450
G0 Z10
X376
Z7
G1 Z-3 F450
G0 Z10
X368
Z7
G1 Z-3 F450
G0 Z10
X360
Z7
G1 Z-3 F450
G0 Z10
X352
Z7
G1 Z-3 F450
G0 Z10
X344
Z7
G1 Z-3 F450
G0 Z10
X336
Z7
G1 Z-3 F450
G0 Z10
X328
Z7
G1 Z-3 F450
G0 Z10
X320
Z7
G1 Z-3 F450
G0 Z10
X312
Z7
G1 Z-3 F450
G0 Z10
X304
Z7
G1 Z-3 F450
G0 Z10
X296
Z7
G1 Z-3 F450
G0 Z10
X288
Z7
G1 Z-3 F450
G0 Z10
X280
Z7
G1 Z-3 F450
G0 Z10
X272
Z7
G1 Z-3 F450
G0 Z10
X264
Z7
G1 Z-3 F450
G0 Z10
X256
Z7
G1 Z-3 F450
G0 Z10
X248
Z7
G1 Z-3 F450
G0 Z10
X240
Z7
G1 Z-3 F450
G0 Z10
X232
Z7
G1 Z-3 F450
G0 Z10
X224
Z7
G1 Z-3 F450
G0 Z10
X216
Z7
G1 Z-3 F450
G0 Z10
X208
Z7
G1 Z-3 F450
G0 Z10
X200
Z7
G1 Z-3 F450
G0 Z10
X192
Z7
G1 Z-3 F450
G0 Z10
X184
Z7
G1 Z-3 F450
G0 Z10
X176
Z7
G1 Z-3 F450
G0 Z10
X168
Z7
G1 Z-3 F450
G0 Z10
X160
Z7
G1 Z-3 F450
G0 Z10
X152
Z7
G1 Z-3 F450
G0 Z10
X144
Z7
G1 Z-3 F450
G0 Z10
X136
Z7
G1 Z-3 F450
G0 Z10
X128
Z7
G1 Z-3 F450
G0 Z10
X120
Z7
G1 Z-3 F450
G0 Z10
X112
Z7
G1 Z-3 F450
G0 Z10
X104
Z7
G1 Z-3 F450
G0 Z10
X96
Z7
G1 Z-3 F450
G0 Z10
X88
Z7
G1 Z-3 F450
G0 Z10
X80
Z7
G1 Z-3 F450
G0 Z10
X72
Z7
G1 Z-3 F450
G0 Z10
X64
Z7
G1 Z-3 F450
G0 Z10
X56
Z7
G1 Z-3 F450
G0 Z10
X48
Z7
G1 Z-3 F450
G0 Z10
X40
Z7
G1 Z-3 F450
G0 Z10
X32
Z7
G1 Z-3 F450
G0 Z10
X24
Z7
G1 Z-3 F450
G0 Z10
X16
Z7
G1 Z-3 F450
G0 Z10
Y71.175
Z7
G1 Z-3 F450
G0 Z10
X24
Z7
G1 Z-3 F450
G0 Z10
X32
Z7
G1 Z-3 F450
G0 Z10
X40
Z7
G1 Z-3 F450
G0 Z10
X48
Z7
G1 Z-3 F450
G0 Z10
X56
Z7
G1 Z-3 F450
G0 Z10
X64
Z7
G1 Z-3 F450
G0 Z10
X72
Z7
G1 Z-3 F450
G0 Z10
X80
Z7
G1 Z-3 F450
G0 Z10
X88
Z7
G1 Z-3 F450
G0 Z10
X96
Z7
G1 Z-3 F450
G0 Z10
X104
Z7
G1 Z-3 F450
G0 Z10
X112
Z7
G1 Z-3 F450
G0 Z10
X120
Z7
G1 Z-3 F450
G0 Z10
X128
Z7
G1 Z-3 F450
G0 Z10
X136
Z7
G1 Z-3 F450
G0 Z10
X144
Z7
G1 Z-3 F450
G0 Z10
X152
Z7
G1 Z-3 F450
G0 Z10
X160
Z7
G1 Z-3 F450
G0 Z10
X168
Z7
G1 Z-3 F450
G0 Z10
X176
Z7
G1 Z-3 F450
G0 Z10
X184
Z7
G1 Z-3 F450
G0 Z10
X192
Z7
G1 Z-3 F450
G0 Z10
X200
Z7
G1 Z-3 F450
G0 Z10
X208
Z7
G1 Z-3 F450
G0 Z10
X216
Z7
G1 Z-3 F450
G0 Z10
X224
Z7
G1 Z-3 F450
G0 Z10
X232
Z7
G1 Z-3 F450
G0 Z10
X240
Z7
G1 Z-3 F450
G0 Z10
X248
Z7
G1 Z-3 F450
G0 Z10
X256
Z7
G1 Z-3 F450
G0 Z10
X264
Z7
G1 Z-3 F450
G0 Z10
X272
Z7
G1 Z-3 F450
G0 Z10
X280
Z7
G1 Z-3 F450
G0 Z10
X288
Z7
G1 Z-3 F450
G0 Z10
X296
Z7
G1 Z-3 F450
G0 Z10
X304
Z7
G1 Z-3 F450
G0 Z10
X312
Z7
G1 Z-3 F450
G0 Z10
X320
Z7
G1 Z-3 F450
G0 Z10
X328
Z7
G1 Z-3 F450
G0 Z10
X336
Z7
G1 Z-3 F450
G0 Z10
X344
Z7
G1 Z-3 F450
G0 Z10
X352
Z7
G1 Z-3 F450
G0 Z10
X360
Z7
G1 Z-3 F450
G0 Z10
X368
Z7
G1 Z-3 F450
G0 Z10
X376
Z7
G1 Z-3 F450
G0 Z10
X384
Z7
G1 Z-3 F450
G0 Z10
X392
Z7
G1 Z-3 F450
G0 Z10
X400
Z7
G1 Z-3 F450
G0 Z10
X408
Z7
G1 Z-3 F450
G0 Z10
X416
Z7
G1 Z-3 F450
G0 Z10
X424
Z7
G1 Z-3 F450
G0 Z10
X432
Z7
G1 Z-3 F450
G0 Z10
X440
Z7
G1 Z-3 F450
G0 Z10
Y63.175
Z7
G1 Z-3 F450
G0 Z10
X432
Z7
G1 Z-3 F450
G0 Z10
X424
Z7
G1 Z-3 F450
G0 Z10
X416
Z7
G1 Z-3 F450
G0 Z10
X408
Z7
G1 Z-3 F450
G0 Z10
X400
Z7
G1 Z-3 F450
G0 Z10
X392
Z7
G1 Z-3 F450
G0 Z10
X384
Z7
G1 Z-3 F450
G0 Z10
X376
Z7
G1 Z-3 F450
G0 Z10
X368
Z7
G1 Z-3 F450
G0 Z10
X360
Z7
G1 Z-3 F450
G0 Z10
X352
Z7
G1 Z-3 F450
G0 Z10
X344
Z7
G1 Z-3 F450
G0 Z10
X336
Z7
G1 Z-3 F450
G0 Z10
X328
Z7
G1 Z-3 F450
G0 Z10
X320
Z7
G1 Z-3 F450
G0 Z10
X312
Z7
G1 Z-3 F450
G0 Z10
X304
Z7
G1 Z-3 F450
G0 Z10
X296
Z7
G1 Z-3 F450
G0 Z10
X288
Z7
G1 Z-3 F450
G0 Z10
X280
Z7
G1 Z-3 F450
G0 Z10
X272
Z7
G1 Z-3 F450
G0 Z10
X264
Z7
G1 Z-3 F450
G0 Z10
X256
Z7
G1 Z-3 F450
G0 Z10
X248
Z7
G1 Z-3 F450
G0 Z10
X240
Z7
G1 Z-3 F450
G0 Z10
X232
Z7
G1 Z-3 F450
G0 Z10
X224
Z7
G1 Z-3 F450
G0 Z10
X216
Z7
G1 Z-3 F450
G0 Z10
X208
Z7
G1 Z-3 F450
G0 Z10
X200
Z7
G1 Z-3 F450
G0 Z10
X192
Z7
G1 Z-3 F450
G0 Z10
X184
Z7
G1 Z-3 F450
G0 Z10
X176
Z7
G1 Z-3 F450
G0 Z10
X168
Z7
G1 Z-3 F450
G0 Z10
X160
Z7
G1 Z-3 F450
G0 Z10
X152
Z7
G1 Z-3 F450
G0 Z10
X144
Z7
G1 Z-3 F450
G0 Z10
X136
Z7
G1 Z-3 F450
G0 Z10
X128
Z7
G1 Z-3 F450
G0 Z10
X120
Z7
G1 Z-3 F450
G0 Z10
X112
Z7
G1 Z-3 F450
G0 Z10
X104
Z7
G1 Z-3 F450
G0 Z10
X96
Z7
G1 Z-3 F450
G0 Z10
X88
Z7
G1 Z-3 F450
G0 Z10
X80
Z7
G1 Z-3 F450
G0 Z10
X72
Z7
G1 Z-3 F450
G0 Z10
X64
Z7
G1 Z-3 F450
G0 Z10
X56
Z7
G1 Z-3 F450
G0 Z10
X48
Z7
G1 Z-3 F450
G0 Z10
X40
Z7
G1 Z-3 F450
G0 Z10
X32
Z7
G1 Z-3 F450
G0 Z10
X24
Z7
G1 Z-3 F450
G0 Z10
X16
Z7
G1 Z-3 F450
G0 Z10
Y55.175
Z7
G1 Z-3 F450
G0 Z10
X24
Z7
G1 Z-3 F450
G0 Z10
X32
Z7
G1 Z-3 F450
G0 Z10
X40
Z7
G1 Z-3 F450
G0 Z10
X48
Z7
G1 Z-3 F450
G0 Z10
X56
Z7
G1 Z-3 F450
G0 Z10
X64
Z7
G1 Z-3 F450
G0 Z10
X72
Z7
G1 Z-3 F450
G0 Z10
X80
Z7
G1 Z-3 F450
G0 Z10
X88
Z7
G1 Z-3 F450
G0 Z10
X96
Z7
G1 Z-3 F450
G0 Z10
X104
Z7
G1 Z-3 F450
G0 Z10
X112
Z7
G1 Z-3 F450
G0 Z10
X120
Z7
G1 Z-3 F450
G0 Z10
X128
Z7
G1 Z-3 F450
G0 Z10
X136
Z7
G1 Z-3 F450
G0 Z10
X144
Z7
G1 Z-3 F450
G0 Z10
X152
Z7
G1 Z-3 F450
G0 Z10
X160
Z7
G1 Z-3 F450
G0 Z10
X168
Z7
G1 Z-3 F450
G0 Z10
X176
Z7
G1 Z-3 F450
G0 Z10
X184
Z7
G1 Z-3 F450
G0 Z10
X192
Z7
G1 Z-3 F450
G0 Z10
X200
Z7
G1 Z-3 F450
G0 Z10
X208
Z7
G1 Z-3 F450
G0 Z10
X216
Z7
G1 Z-3 F450
G0 Z10
X224
Z7
G1 Z-3 F450
G0 Z10
X232
Z7
G1 Z-3 F450
G0 Z10
X240
Z7
G1 Z-3 F450
G0 Z10
X248
Z7
G1 Z-3 F450
G0 Z10
X256
Z7
G1 Z-3 F450
G0 Z10
X264
Z7
G1 Z-3 F450
G0 Z10
X272
Z7
G1 Z-3 F450
G0 Z10
X280
Z7
G1 Z-3 F450
G0 Z10
X288
Z7
G1 Z-3 F450
G0 Z10
X296
Z7
G1 Z-3 F450
G0 Z10
X304
Z7
G1 Z-3 F450
G0 Z10
X312
Z7
G1 Z-3 F450
G0 Z10
X320
Z7
G1 Z-3 F450
G0 Z10
X328
Z7
G1 Z-3 F450
G0 Z10
X336
Z7
G1 Z-3 F450
G0 Z10
X344
Z7
G1 Z-3 F450
G0 Z10
X352
Z7
G1 Z-3 F450
G0 Z10
X360
Z7
G1 Z-3 F450
G0 Z10
X368
Z7
G1 Z-3 F450
G0 Z10
X376
Z7
G1 Z-3 F450
G0 Z10
X384
Z7
G1 Z-3 F450
G0 Z10
X392
Z7
G1 Z-3 F450
G0 Z10
X400
Z7
G1 Z-3 F450
G0 Z10
X408
Z7
G1 Z-3 F450
G0 Z10
X416
Z7
G1 Z-3 F450
G0 Z10
X424
Z7
G1 Z-3 F450
G0 Z10
X432
Z7
G1 Z-3 F450
G0 Z10
X440
Z7
G1 Z-3 F450
G0 Z10
Y91.875
Z7
G1 Z-3 F450
G0 Z10
X432
Z7
G1 Z-3 F450
G0 Z10
X424
Z7
G1 Z-3 F450
G0 Z10
X416
Z7
G1 Z-3 F450
G0 Z10
X408
Z7
G1 Z-3 F450
G0 Z10
X400
Z7
G1 Z-3 F450
G0 Z10
X392
Z7
G1 Z-3 F450
G0 Z10
X384
Z7
G1 Z-3 F450
G0 Z10
X376
Z7
G1 Z-3 F450
G0 Z10
X368
Z7
G1 Z-3 F450
G0 Z10
X360
Z7
G1 Z-3 F450
G0 Z10
X352
Z7
G1 Z-3 F450
G0 Z10
X344
Z7
G1 Z-3 F450
G0 Z10
X336
Z7
G1 Z-3 F450
G0 Z10
X328
Z7
G1 Z-3 F450
G0 Z10
X320
Z7
G1 Z-3 F450
G0 Z10
X312
Z7
G1 Z-3 F450
G0 Z10
X304
Z7
G1 Z-3 F450
G0 Z10
X296
Z7
G1 Z-3 F450
G0 Z10
X288
Z7
G1 Z-3 F450
G0 Z10
X280
Z7
G1 Z-3 F450
G0 Z10
X272
Z7
G1 Z-3 F450
G0 Z10
X264
Z7
G1 Z-3 F450
G0 Z10
X256
Z7
G1 Z-3 F450
G0 Z10
X248
Z7
G1 Z-3 F450
G0 Z10
X240
Z7
G1 Z-3 F450
G0 Z10
X232
Z7
G1 Z-3 F450
G0 Z10
X224
Z7
G1 Z-3 F450
G0 Z10
X216
Z7
G1 Z-3 F450
G0 Z10
X208
Z7
G1 Z-3 F450
G0 Z10
X200
Z7
G1 Z-3 F450
G0 Z10
X192
Z7
G1 Z-3 F450
G0 Z10
X184
Z7
G1 Z-3 F450
G0 Z10
X176
Z7
G1 Z-3 F450
G0 Z10
X168
Z7
G1 Z-3 F450
G0 Z10
X160
Z7
G1 Z-3 F450
G0 Z10
X152
Z7
G1 Z-3 F450
G0 Z10
X144
Z7
G1 Z-3 F450
G0 Z10
X136
Z7
G1 Z-3 F450
G0 Z10
X128
Z7
G1 Z-3 F450
G0 Z10
X120
Z7
G1 Z-3 F450
G0 Z10
X112
Z7
G1 Z-3 F450
G0 Z10
X104
Z7
G1 Z-3 F450
G0 Z10
X96
Z7
G1 Z-3 F450
G0 Z10
X88
Z7
G1 Z-3 F450
G0 Z10
X80
Z7
G1 Z-3 F450
G0 Z10
X72
Z7
G1 Z-3 F450
G0 Z10
X64
Z7
G1 Z-3 F450
G0 Z10
X56
Z7
G1 Z-3 F450
G0 Z10
X48
Z7
G1 Z-3 F450
G0 Z10
X40
Z7
G1 Z-3 F450
G0 Z10
X32
Z7
G1 Z-3 F450
G0 Z10
X24
Z7
G1 Z-3 F450
G0 Z10
X16
Z7
G1 Z-3 F450
G0 Z10
Y99.875
Z7
G1 Z-3 F450
G0 Z10
X24
Z7
G1 Z-3 F450
G0 Z10
X32
Z7
G1 Z-3 F450
G0 Z10
X40
Z7
G1 Z-3 F450
G0 Z10
X48
Z7
G1 Z-3 F450
G0 Z10
X56
Z7
G1 Z-3 F450
G0 Z10
X64
Z7
G1 Z-3 F450
G0 Z10
X72
Z7
G1 Z-3 F450
G0 Z10
X80
Z7
G1 Z-3 F450
G0 Z10
X88
Z7
G1 Z-3 F450
G0 Z10
X96
Z7
G1 Z-3 F450
G0 Z10
X104
Z7
G1 Z-3 F450
G0 Z10
X112
Z7
G1 Z-3 F450
G0 Z10
X120
Z7
G1 Z-3 F450
G0 Z10
X128
Z7
G1 Z-3 F450
G0 Z10
X136
Z7
G1 Z-3 F450
G0 Z10
X144
Z7
G1 Z-3 F450
G0 Z10
X152
Z7
G1 Z-3 F450
G0 Z10
X160
Z7
G1 Z-3 F450
G0 Z10
X168
Z7
G1 Z-3 F450
G0 Z10
X176
Z7
G1 Z-3 F450
G0 Z10
X184
Z7
G1 Z-3 F450
G0 Z10
X192
Z7
G1 Z-3 F450
G0 Z10
X200
Z7
G1 Z-3 F450
G0 Z10
X208
Z7
G1 Z-3 F450
G0 Z10
X216
Z7
G1 Z-3 F450
G0 Z10
X224
Z7
G1 Z-3 F450
G0 Z10
X232
Z7
G1 Z-3 F450
G0 Z10
X240
Z7
G1 Z-3 F450
G0 Z10
X248
Z7
G1 Z-3 F450
G0 Z10
X256
Z7
G1 Z-3 F450
G0 Z10
X264
Z7
G1 Z-3 F450
G0 Z10
X272
Z7
G1 Z-3 F450
G0 Z10
X280
Z7
G1 Z-3 F450
G0 Z10
X288
Z7
G1 Z-3 F450
G0 Z10
X296
Z7
G1 Z-3 F450
G0 Z10
X304
Z7
G1 Z-3 F450
G0 Z10
X312
Z7
G1 Z-3 F450
G0 Z10
X320
Z7
G1 Z-3 F450
G0 Z10
X328
Z7
G1 Z-3 F450
G0 Z10
X336
Z7
G1 Z-3 F450
G0 Z10
X344
Z7
G1 Z-3 F450
G0 Z10
X352
Z7
G1 Z-3 F450
G0 Z10
X360
Z7
G1 Z-3 F450
G0 Z10
X368
Z7
G1 Z-3 F450
G0 Z10
X376
Z7
G1 Z-3 F450
G0 Z10
X384
Z7
G1 Z-3 F450
G0 Z10
X392
Z7
G1 Z-3 F450
G0 Z10
X400
Z7
G1 Z-3 F450
G0 Z10
X408
Z7
G1 Z-3 F450
G0 Z10
X416
Z7
G1 Z-3 F450
G0 Z10
X424
Z7
G1 Z-3 F450
G0 Z10
X432
Z7
G1 Z-3 F450
G0 Z10
X440
Z7
G1 Z-3 F450
G0 Z10
Y123.875
Z7
G1 Z-3 F450
G0 Z10
X432
Z7
G1 Z-3 F450
G0 Z10
X424
Z7
G1 Z-3 F450
G0 Z10
X416
Z7
G1 Z-3 F450
G0 Z10
X408
Z7
G1 Z-3 F450
G0 Z10
X400
Z7
G1 Z-3 F450
G0 Z10
X392
Z7
G1 Z-3 F450
G0 Z10
X384
Z7
G1 Z-3 F450
G0 Z10
X376
Z7
G1 Z-3 F450
G0 Z10
X368
Z7
G1 Z-3 F450
G0 Z10
X360
Z7
G1 Z-3 F450
G0 Z10
X352
Z7
G1 Z-3 F450
G0 Z10
X344
Z7
G1 Z-3 F450
G0 Z10
X336
Z7
G1 Z-3 F450
G0 Z10
X328
Z7
G1 Z-3 F450
G0 Z10
X320
Z7
G1 Z-3 F450
G0 Z10
X312
Z7
G1 Z-3 F450
G0 Z10
X304
Z7
G1 Z-3 F450
G0 Z10
X296
Z7
G1 Z-3 F450
G0 Z10
X288
Z7
G1 Z-3 F450
G0 Z10
X280
Z7
G1 Z-3 F450
G0 Z10
X272
Z7
G1 Z-3 F450
G0 Z10
X264
Z7
G1 Z-3 F450
G0 Z10
X256
Z7
G1 Z-3 F450
G0 Z10
X248
Z7
G1 Z-3 F450
G0 Z10
X240
Z7
G1 Z-3 F450
G0 Z10
X232
Z7
G1 Z-3 F450
G0 Z10
X224
Z7
G1 Z-3 F450
G0 Z10
X216
Z7
G1 Z-3 F450
G0 Z10
X208
Z7
G1 Z-3 F450
G0 Z10
X200
Z7
G1 Z-3 F450
G0 Z10
X192
Z7
G1 Z-3 F450
G0 Z10
X184
Z7
G1 Z-3 F450
G0 Z10
X176
Z7
G1 Z-3 F450
G0 Z10
X168
Z7
G1 Z-3 F450
G0 Z10
X160
Z7
G1 Z-3 F450
G0 Z10
X152
Z7
G1 Z-3 F450
G0 Z10
X144
Z7
G1 Z-3 F450
G0 Z10
X136
Z7
G1 Z-3 F450
G0 Z10
X128
Z7
G1 Z-3 F450
G0 Z10
X120
Z7
G1 Z-3 F450
G0 Z10
X112
Z7
G1 Z-3 F450
G0 Z10
X104
Z7
G1 Z-3 F450
G0 Z10
X96
Z7
G1 Z-3 F450
G0 Z10
X88
Z7
G1 Z-3 F450
G0 Z10
X80
Z7
G1 Z-3 F450
G0 Z10
X72
Z7
G1 Z-3 F450
G0 Z10
X64
Z7
G1 Z-3 F450
G0 Z10
X56
Z7
G1 Z-3 F450
G0 Z10
X48
Z7
G1 Z-3 F450
G0 Z10
X40
Z7
G1 Z-3 F450
G0 Z10
X32
Z7
G1 Z-3 F450
G0 Z10
X24
Z7
G1 Z-3 F450
G0 Z10
X16
Z7
G1 Z-3 F450
G0 Z10
Y131.875
Z7
G1 Z-3 F450
G0 Z10
X24
Z7
G1 Z-3 F450
G0 Z10
X32
Z7
G1 Z-3 F450
G0 Z10
X40
Z7
G1 Z-3 F450
G0 Z10
X48
Z7
G1 Z-3 F450
G0 Z10
X56
Z7
G1 Z-3 F450
G0 Z10
X64
Z7
G1 Z-3 F450
G0 Z10
X72
Z7
G1 Z-3 F450
G0 Z10
X80
Z7
G1 Z-3 F450
G0 Z10
X88
Z7
G1 Z-3 F450
G0 Z10
X96
Z7
G1 Z-3 F450
G0 Z10
X104
Z7
G1 Z-3 F450
G0 Z10
X112
Z7
G1 Z-3 F450
G0 Z10
X120
Z7
G1 Z-3 F450
G0 Z10
X128
Z7
G1 Z-3 F450
G0 Z10
X136
Z7
G1 Z-3 F450
G0 Z10
X144
Z7
G1 Z-3 F450
G0 Z10
X152
Z7
G1 Z-3 F450
G0 Z10
X160
Z7
G1 Z-3 F450
G0 Z10
X168
Z7
G1 Z-3 F450
G0 Z10
X176
Z7
G1 Z-3 F450
G0 Z10
X184
Z7
G1 Z-3 F450
G0 Z10
X192
Z7
G1 Z-3 F450
G0 Z10
X200
Z7
G1 Z-3 F450
G0 Z10
X208
Z7
G1 Z-3 F450
G0 Z10
X216
Z7
G1 Z-3 F450
G0 Z10
X224
Z7
G1 Z-3 F450
G0 Z10
X232
Z7
G1 Z-3 F450
G0 Z10
X240
Z7
G1 Z-3 F450
G0 Z10
X248
Z7
G1 Z-3 F450
G0 Z10
X256
Z7
G1 Z-3 F450
G0 Z10
X264
Z7
G1 Z-3 F450
G0 Z10
X272
Z7
G1 Z-3 F450
G0 Z10
X280
Z7
G1 Z-3 F450
G0 Z10
X288
Z7
G1 Z-3 F450
G0 Z10
X296
Z7
G1 Z-3 F450
G0 Z10
X304
Z7
G1 Z-3 F450
G0 Z10
X312
Z7
G1 Z-3 F450
G0 Z10
X320
Z7
G1 Z-3 F450
G0 Z10
X328
Z7
G1 Z-3 F450
G0 Z10
X336
Z7
G1 Z-3 F450
G0 Z10
X344
Z7
G1 Z-3 F450
G0 Z10
X352
Z7
G1 Z-3 F450
G0 Z10
X360
Z7
G1 Z-3 F450
G0 Z10
X368
Z7
G1 Z-3 F450
G0 Z10
X376
Z7
G1 Z-3 F450
G0 Z10
X384
Z7
G1 Z-3 F450
G0 Z10
X392
Z7
G1 Z-3 F450
G0 Z10
X400
Z7
G1 Z-3 F450
G0 Z10
X408
Z7
G1 Z-3 F450
G0 Z10
X416
Z7
G1 Z-3 F450
G0 Z10
X424
Z7
G1 Z-3 F450
G0 Z10
X432
Z7
G1 Z-3 F450
G0 Z10
X440
Z7
G1 Z-3 F450
G0 Z10
Y139.875
Z7
G1 Z-3 F450
G0 Z10
X432
Z7
G1 Z-3 F450
G0 Z10
X424
Z7
G1 Z-3 F450
G0 Z10
X416
Z7
G1 Z-3 F450
G0 Z10
X408
Z7
G1 Z-3 F450
G0 Z10
X400
Z7
G1 Z-3 F450
G0 Z10
X392
Z7
G1 Z-3 F450
G0 Z10
X384
Z7
G1 Z-3 F450
G0 Z10
X376
Z7
G1 Z-3 F450
G0 Z10
X368
Z7
G1 Z-3 F450
G0 Z10
X360
Z7
G1 Z-3 F450
G0 Z10
X352
Z7
G1 Z-3 F450
G0 Z10
X344
Z7
G1 Z-3 F450
G0 Z10
X336
Z7
G1 Z-3 F450
G0 Z10
X328
Z7
G1 Z-3 F450
G0 Z10
X320
Z7
G1 Z-3 F450
G0 Z10
X312
Z7
G1 Z-3 F450
G0 Z10
X304
Z7
G1 Z-3 F450
G0 Z10
X296
Z7
G1 Z-3 F450
G0 Z10
X288
Z7
G1 Z-3 F450
G0 Z10
X280
Z7
G1 Z-3 F450
G0 Z10
X272
Z7
G1 Z-3 F450
G0 Z10
X264
Z7
G1 Z-3 F450
G0 Z10
X256
Z7
G1 Z-3 F450
G0 Z10
X248
Z7
G1 Z-3 F450
G0 Z10
X240
Z7
G1 Z-3 F450
G0 Z10
X232
Z7
G1 Z-3 F450
G0 Z10
X224
Z7
G1 Z-3 F450
G0 Z10
X216
Z7
G1 Z-3 F450
G0 Z10
X208
Z7
G1 Z-3 F450
G0 Z10
X200
Z7
G1 Z-3 F450
G0 Z10
X192
Z7
G1 Z-3 F450
G0 Z10
X184
Z7
G1 Z-3 F450
G0 Z10
X176
Z7
G1 Z-3 F450
G0 Z10
X168
Z7
G1 Z-3 F450
G0 Z10
X160
Z7
G1 Z-3 F450
G0 Z10
X152
Z7
G1 Z-3 F450
G0 Z10
X144
Z7
G1 Z-3 F450
G0 Z10
X136
Z7
G1 Z-3 F450
G0 Z10
X128
Z7
G1 Z-3 F450
G0 Z10
X120
Z7
G1 Z-3 F450
G0 Z10
X112
Z7
G1 Z-3 F450
G0 Z10
X104
Z7
G1 Z-3 F450
G0 Z10
X96
Z7
G1 Z-3 F450
G0 Z10
X88
Z7
G1 Z-3 F450
G0 Z10
X80
Z7
G1 Z-3 F450
G0 Z10
X72
Z7
G1 Z-3 F450
G0 Z10
X64
Z7
G1 Z-3 F450
G0 Z10
X56
Z7
G1 Z-3 F450
G0 Z10
X48
Z7
G1 Z-3 F450
G0 Z10
X40
Z7
G1 Z-3 F450
G0 Z10
X32
Z7
G1 Z-3 F450
G0 Z10
X24
Z7
G1 Z-3 F450
G0 Z10
X16
Z7
G1 Z-3 F450
G0 Z10
Y147.875
Z7
G1 Z-3 F450
G0 Z10
X24
Z7
G1 Z-3 F450
G0 Z10
X32
Z7
G1 Z-3 F450
G0 Z10
X40
Z7
G1 Z-3 F450
G0 Z10
X48
Z7
G1 Z-3 F450
G0 Z10
X56
Z7
G1 Z-3 F450
G0 Z10
X64
Z7
G1 Z-3 F450
G0 Z10
X72
Z7
G1 Z-3 F450
G0 Z10
X80
Z7
G1 Z-3 F450
G0 Z10
X88
Z7
G1 Z-3 F450
G0 Z10
X96
Z7
G1 Z-3 F450
G0 Z10
X104
Z7
G1 Z-3 F450
G0 Z10
X112
Z7
G1 Z-3 F450
G0 Z10
X120
Z7
G1 Z-3 F450
G0 Z10
X128
Z7
G1 Z-3 F450
G0 Z10
X136
Z7
G1 Z-3 F450
G0 Z10
X144
Z7
G1 Z-3 F450
G0 Z10
X152
Z7
G1 Z-3 F450
G0 Z10
X160
Z7
G1 Z-3 F450
G0 Z10
X168
Z7
G1 Z-3 F450
G0 Z10
X176
Z7
G1 Z-3 F450
G0 Z10
X184
Z7
G1 Z-3 F450
G0 Z10
X192
Z7
G1 Z-3 F450
G0 Z10
X200
Z7
G1 Z-3 F450
G0 Z10
X208
Z7
G1 Z-3 F450
G0 Z10
X216
Z7
G1 Z-3 F450
G0 Z10
X224
Z7
G1 Z-3 F450
G0 Z10
X232
Z7
G1 Z-3 F450
G0 Z10
X240
Z7
G1 Z-3 F450
G0 Z10
X248
Z7
G1 Z-3 F450
G0 Z10
X256
Z7
G1 Z-3 F450
G0 Z10
X264
Z7
G1 Z-3 F450
G0 Z10
X272
Z7
G1 Z-3 F450
G0 Z10
X280
Z7
G1 Z-3 F450
G0 Z10
X288
Z7
G1 Z-3 F450
G0 Z10
X296
Z7
G1 Z-3 F450
G0 Z10
X304
Z7
G1 Z-3 F450
G0 Z10
X312
Z7
G1 Z-3 F450
G0 Z10
X320
Z7
G1 Z-3 F450
G0 Z10
X328
Z7
G1 Z-3 F450
G0 Z10
X336
Z7
G1 Z-3 F450
G0 Z10
X344
Z7
G1 Z-3 F450
G0 Z10
X352
Z7
G1 Z-3 F450
G0 Z10
X360
Z7
G1 Z-3 F450
G0 Z10
X368
Z7
G1 Z-3 F450
G0 Z10
X376
Z7
G1 Z-3 F450
G0 Z10
X384
Z7
G1 Z-3 F450
G0 Z10
X392
Z7
G1 Z-3 F450
G0 Z10
X400
Z7
G1 Z-3 F450
G0 Z10
X408
Z7
G1 Z-3 F450
G0 Z10
X416
Z7
G1 Z-3 F450
G0 Z10
X424
Z7
G1 Z-3 F450
G0 Z10
X432
Z7
G1 Z-3 F450
G0 Z10
X440
Z7
G1 Z-3 F450
G0 Z10
X352 Y221.4
Z7
G1 Z-3 F450
G0 Z10
X360
Z7
G1 Z-3 F450
G0 Z10
X368
Z7
G1 Z-3 F450
G0 Z10
X376
Z7
G1 Z-3 F450
G0 Z10
X384
Z7
G1 Z-3 F450
G0 Z10
X392
Z7
G1 Z-3 F450
G0 Z10
X400
Z7
G1 Z-3 F450
G0 Z10
X408
Z7
G1 Z-3 F450
G0 Z10
X416
Z7
G1 Z-3 F450
G0 Z10
X424
Z7
G1 Z-3 F450
G0 Z10
X432
Z7
G1 Z-3 F450
G0 Z10
X440
Z7
G1 Z-3 F450
G0 Z10
Y213.4
Z7
G1 Z-3 F450
G0 Z10
X432
Z7
G1 Z-3 F450
G0 Z10
X424
Z7
G1 Z-3 F450
G0 Z10
X416
Z7
G1 Z-3 F450
G0 Z10
X408
Z7
G1 Z-3 F450
G0 Z10
X400
Z7
G1 Z-3 F450
G0 Z10
X392
Z7
G1 Z-3 F450
G0 Z10
X384
Z7
G1 Z-3 F450
G0 Z10
X376
Z7
G1 Z-3 F450
G0 Z10
X368
Z7
G1 Z-3 F450
G0 Z10
X360
Z7
G1 Z-3 F450
G0 Z10
X352 Y205.4
Z7
G1 Z-3 F450
G0 Z10
X360
Z7
G1 Z-3 F450
G0 Z10
Y197.4
Z7
G1 Z-3 F450
G0 Z10
X352
Z7
G1 Z-3 F450
G0 Z10
X344
Z7
G1 Z-3 F450
G0 Z10
X336
Z7
G1 Z-3 F450
G0 Z10
X328
Z7
G1 Z-3 F450
G0 Z10
X336 Y205.4
Z7
G1 Z-3 F450
G0 Z10
X328
Z7
G1 Z-3 F450
G0 Z10
Y213.4
Z7
G1 Z-3 F450
G0 Z10
X320
Z7
G1 Z-3 F450
G0 Z10
X312
Z7
G1 Z-3 F450
G0 Z10
X304
Z7
G1 Z-3 F450
G0 Z10
X296
Z7
G1 Z-3 F450
G0 Z10
X288
Z7
G1 Z-3 F450
G0 Z10
X280
Z7
G1 Z-3 F450
G0 Z10
X272
Z7
G1 Z-3 F450
G0 Z10
X264
Z7
G1 Z-3 F450
G0 Z10
X256
Z7
G1 Z-3 F450
G0 Z10
X248
Z7
G1 Z-3 F450
G0 Z10
X240
Z7
G1 Z-3 F450
G0 Z10
X232
Z7
G1 Z-3 F450
G0 Z10
X224
Z7
G1 Z-3 F450
G0 Z10
X216
Z7
G1 Z-3 F450
G0 Z10
X208
Z7
G1 Z-3 F450
G0 Z10
X200
Z7
G1 Z-3 F450
G0 Z10
X192
Z7
G1 Z-3 F450
G0 Z10
X184
Z7
G1 Z-3 F450
G0 Z10
X176
Z7
G1 Z-3 F450
G0 Z10
X168
Z7
G1 Z-3 F450
G0 Z10
X160
Z7
G1 Z-3 F450
G0 Z10
X152
Z7
G1 Z-3 F450
G0 Z10
X144
Z7
G1 Z-3 F450
G0 Z10
X136
Z7
G1 Z-3 F450
G0 Z10
X128
Z7
G1 Z-3 F450
G0 Z10
X120
Z7
G1 Z-3 F450
G0 Z10
X112
Z7
G1 Z-3 F450
G0 Z10
X104
Z7
G1 Z-3 F450
G0 Z10
X96
Z7
G1 Z-3 F450
G0 Z10
X88
Z7
G1 Z-3 F450
G0 Z10
X80
Z7
G1 Z-3 F450
G0 Z10
X72
Z7
G1 Z-3 F450
G0 Z10
X64
Z7
G1 Z-3 F450
G0 Z10
X56
Z7
G1 Z-3 F450
G0 Z10
X48
Z7
G1 Z-3 F450
G0 Z10
X40
Z7
G1 Z-3 F450
G0 Z10
X32
Z7
G1 Z-3 F450
G0 Z10
X24
Z7
G1 Z-3 F450
G0 Z10
X16
Z7
G1 Z-3 F450
G0 Z10
Y221.4
Z7
G1 Z-3 F450
G0 Z10
X24
Z7
G1 Z-3 F450
G0 Z10
X32
Z7
G1 Z-3 F450
G0 Z10
X40
Z7
G1 Z-3 F450
G0 Z10
X48
Z7
G1 Z-3 F450
G0 Z10
X56
Z7
G1 Z-3 F450
G0 Z10
X64
Z7
G1 Z-3 F450
G0 Z10
X72
Z7
G1 Z-3 F450
G0 Z10
X80
Z7
G1 Z-3 F450
G0 Z10
X88
Z7
G1 Z-3 F450
G0 Z10
X96
Z7
G1 Z-3 F450
G0 Z10
X104
Z7
G1 Z-3 F450
G0 Z10
X112
Z7
G1 Z-3 F450
G0 Z10
X120
Z7
G1 Z-3 F450
G0 Z10
X128
Z7
G1 Z-3 F450
G0 Z10
X136
Z7
G1 Z-3 F450
G0 Z10
X144
Z7
G1 Z-3 F450
G0 Z10
X152
Z7
G1 Z-3 F450
G0 Z10
X160
Z7
G1 Z-3 F450
G0 Z10
X168
Z7
G1 Z-3 F450
G0 Z10
X176
Z7
G1 Z-3 F450
G0 Z10
X184
Z7
G1 Z-3 F450
G0 Z10
X192
Z7
G1 Z-3 F450
G0 Z10
X200
Z7
G1 Z-3 F450
G0 Z10
X208
Z7
G1 Z-3 F450
G0 Z10
X216
Z7
G1 Z-3 F450
G0 Z10
X224
Z7
G1 Z-3 F450
G0 Z10
X232
Z7
G1 Z-3 F450
G0 Z10
X240
Z7
G1 Z-3 F450
G0 Z10
X248
Z7
G1 Z-3 F450
G0 Z10
X256
Z7
G1 Z-3 F450
G0 Z10
X264
Z7
G1 Z-3 F450
G0 Z10
X272
Z7
G1 Z-3 F450
G0 Z10
X280
Z7
G1 Z-3 F450
G0 Z10
X288
Z7
G1 Z-3 F450
G0 Z10
X296
Z7
G1 Z-3 F450
G0 Z10
X304
Z7
G1 Z-3 F450
G0 Z10
X312
Z7
G1 Z-3 F450
G0 Z10
X320
Z7
G1 Z-3 F450
G0 Z10
X328
Z7
G1 Z-3 F450
G0 Z10
X336
Z7
G1 Z-3 F450
G0 Z10
X312 Y408.45
Z7
G1 Z-3 F450
G0 Z10
X304
Z7
G1 Z-3 F450
G0 Z10
X296
Z7
G1 Z-3 F450
G0 Z10
X288
Z7
G1 Z-3 F450
G0 Z10
X280
Z7
G1 Z-3 F450
G0 Z10
X272
Z7
G1 Z-3 F450
G0 Z10
X264
Z7
G1 Z-3 F450
G0 Z10
X256
Z7
G1 Z-3 F450
G0 Z10
X248
Z7
G1 Z-3 F450
G0 Z10
X240
Z7
G1 Z-3 F450
G0 Z10
X232
Z7
G1 Z-3 F450
G0 Z10
X224
Z7
G1 Z-3 F450
G0 Z10
X216
Z7
G1 Z-3 F450
G0 Z10
X208
Z7
G1 Z-3 F450
G0 Z10
X200
Z7
G1 Z-3 F450
G0 Z10
X192
Z7
G1 Z-3 F450
G0 Z10
X184
Z7
G1 Z-3 F450
G0 Z10
X176
Z7
G1 Z-3 F450
G0 Z10
X168
Z7
G1 Z-3 F450
G0 Z10
X160
Z7
G1 Z-3 F450
G0 Z10
X152
Z7
G1 Z-3 F450
G0 Z10
X144
Z7
G1 Z-3 F450
G0 Z10
X136
Z7
G1 Z-3 F450
G0 Z10
X128
Z7
G1 Z-3 F450
G0 Z10
X120
Z7
G1 Z-3 F450
G0 Z10
X112
Z7
G1 Z-3 F450
G0 Z10
X104
Z7
G1 Z-3 F450
G0 Z10
X96
Z7
G1 Z-3 F450
G0 Z10
X88
Z7
G1 Z-3 F450
G0 Z10
X80
Z7
G1 Z-3 F450
G0 Z10
X72
Z7
G1 Z-3 F450
G0 Z10
X64
Z7
G1 Z-3 F450
G0 Z10
X56
Z7
G1 Z-3 F450
G0 Z10
X48
Z7
G1 Z-3 F450
G0 Z10
X40
Z7
G1 Z-3 F450
G0 Z10
X32
Z7
G1 Z-3 F450
G0 Z10
X24
Z7
G1 Z-3 F450
G0 Z10
X16
Z7
G1 Z-3 F450
G0 Z10
Y416.45
Z7
G1 Z-3 F450
G0 Z10
X24
Z7
G1 Z-3 F450
G0 Z10
X32
Z7
G1 Z-3 F450
G0 Z10
X40
Z7
G1 Z-3 F450
G0 Z10
X48
Z7
G1 Z-3 F450
G0 Z10
X56
Z7
G1 Z-3 F450
G0 Z10
X64
Z7
G1 Z-3 F450
G0 Z10
X72
Z7
G1 Z-3 F450
G0 Z10
X80
Z7
G1 Z-3 F450
G0 Z10
X88
Z7
G1 Z-3 F450
G0 Z10
X96
Z7
G1 Z-3 F450
G0 Z10
X104
Z7
G1 Z-3 F450
G0 Z10
X112
Z7
G1 Z-3 F450
G0 Z10
X120
Z7
G1 Z-3 F450
G0 Z10
X128
Z7
G1 Z-3 F450
G0 Z10
X136
Z7
G1 Z-3 F450
G0 Z10
X144
Z7
G1 Z-3 F450
G0 Z10
X152
Z7
G1 Z-3 F450
G0 Z10
X160
Z7
G1 Z-3 F450
G0 Z10
X168
Z7
G1 Z-3 F450
G0 Z10
X176
Z7
G1 Z-3 F450
G0 Z10
X184
Z7
G1 Z-3 F450
G0 Z10
X192
Z7
G1 Z-3 F450
G0 Z10
X200
Z7
G1 Z-3 F450
G0 Z10
X208
Z7
G1 Z-3 F450
G0 Z10
X216
Z7
G1 Z-3 F450
G0 Z10
X224
Z7
G1 Z-3 F450
G0 Z10
X232
Z7
G1 Z-3 F450
G0 Z10
X240
Z7
G1 Z-3 F450
G0 Z10
X248
Z7
G1 Z-3 F450
G0 Z10
X256
Z7
G1 Z-3 F450
G0 Z10
X264
Z7
G1 Z-3 F450
G0 Z10
X272
Z7
G1 Z-3 F450
G0 Z10
X280
Z7
G1 Z-3 F450
G0 Z10
X288
Z7
G1 Z-3 F450
G0 Z10
X296
Z7
G1 Z-3 F450
G0 Z10
X304
Z7
G1 Z-3 F450
G0 Z10
X312
Z7
G1 Z-3 F450
G0 Z10
X336 Y432.45
Z7
G1 Z-3 F450
G0 Z10
X328
Z7
G1 Z-3 F450
G0 Z10
X320
Z7
G1 Z-3 F450
G0 Z10
X312
Z7
G1 Z-3 F450
G0 Z10
X304
Z7
G1 Z-3 F450
G0 Z10
X296
Z7
G1 Z-3 F450
G0 Z10
X288
Z7
G1 Z-3 F450
G0 Z10
X280
Z7
G1 Z-3 F450
G0 Z10
X272
Z7
G1 Z-3 F450
G0 Z10
X264
Z7
G1 Z-3 F450
G0 Z10
X256
Z7
G1 Z-3 F450
G0 Z10
X248
Z7
G1 Z-3 F450
G0 Z10
X240
Z7
G1 Z-3 F450
G0 Z10
X232
Z7
G1 Z-3 F450
G0 Z10
X224
Z7
G1 Z-3 F450
G0 Z10
X216
Z7
G1 Z-3 F450
G0 Z10
X208
Z7
G1 Z-3 F450
G0 Z10
X200
Z7
G1 Z-3 F450
G0 Z10
X192
Z7
G1 Z-3 F450
G0 Z10
X184
Z7
G1 Z-3 F450
G0 Z10
X176
Z7
G1 Z-3 F450
G0 Z10
X168
Z7
G1 Z-3 F450
G0 Z10
X160
Z7
G1 Z-3 F450
G0 Z10
X152
Z7
G1 Z-3 F450
G0 Z10
X144
Z7
G1 Z-3 F450
G0 Z10
X136
Z7
G1 Z-3 F450
G0 Z10
X128
Z7
G1 Z-3 F450
G0 Z10
X120
Z7
G1 Z-3 F450
G0 Z10
X112
Z7
G1 Z-3 F450
G0 Z10
X104
Z7
G1 Z-3 F450
G0 Z10
X96
Z7
G1 Z-3 F450
G0 Z10
X88
Z7
G1 Z-3 F450
G0 Z10
X80
Z7
G1 Z-3 F450
G0 Z10
X72
Z7
G1 Z-3 F450
G0 Z10
X64
Z7
G1 Z-3 F450
G0 Z10
X56
Z7
G1 Z-3 F450
G0 Z10
X48
Z7
G1 Z-3 F450
G0 Z10
X40
Z7
G1 Z-3 F450
G0 Z10
X32
Z7
G1 Z-3 F450
G0 Z10
X24
Z7
G1 Z-3 F450
G0 Z10
X16
Z7
G1 Z-3 F450
G0 Z10
Y424.45
Z7
G1 Z-3 F450
G0 Z10
X24
Z7
G1 Z-3 F450
G0 Z10
X32
Z7
G1 Z-3 F450
G0 Z10
X40
Z7
G1 Z-3 F450
G0 Z10
X48
Z7
G1 Z-3 F450
G0 Z10
X56
Z7
G1 Z-3 F450
G0 Z10
X64
Z7
G1 Z-3 F450
G0 Z10
X72
Z7
G1 Z-3 F450
G0 Z10
X80
Z7
G1 Z-3 F450
G0 Z10
X88
Z7
G1 Z-3 F450
G0 Z10
X96
Z7
G1 Z-3 F450
G0 Z10
X104
Z7
G1 Z-3 F450
G0 Z10
X112
Z7
G1 Z-3 F450
G0 Z10
X120
Z7
G1 Z-3 F450
G0 Z10
X128
Z7
G1 Z-3 F450
G0 Z10
X136
Z7
G1 Z-3 F450
G0 Z10
X144
Z7
G1 Z-3 F450
G0 Z10
X152
Z7
G1 Z-3 F450
G0 Z10
X160
Z7
G1 Z-3 F450
G0 Z10
X168
Z7
G1 Z-3 F450
G0 Z10
X176
Z7
G1 Z-3 F450
G0 Z10
X184
Z7
G1 Z-3 F450
G0 Z10
X192
Z7
G1 Z-3 F450
G0 Z10
X200
Z7
G1 Z-3 F450
G0 Z10
X208
Z7
G1 Z-3 F450
G0 Z10
X216
Z7
G1 Z-3 F450
G0 Z10
X224
Z7
G1 Z-3 F450
G0 Z10
X232
Z7
G1 Z-3 F450
G0 Z10
X240
Z7
G1 Z-3 F450
G0 Z10
X248
Z7
G1 Z-3 F450
G0 Z10
X256
Z7
G1 Z-3 F450
G0 Z10
X264
Z7
G1 Z-3 F450
G0 Z10
X272
Z7
G1 Z-3 F450
G0 Z10
X280
Z7
G1 Z-3 F450
G0 Z10
X288
Z7
G1 Z-3 F450
G0 Z10
X296
Z7
G1 Z-3 F450
G0 Z10
X304
Z7
G1 Z-3 F450
G0 Z10
X312
Z7
G1 Z-3 F450
G0 Z10
X320
Z7
G1 Z-3 F450
G0 Z10
X328
Z7
G1 Z-3 F450
G0 Z10
Y416.45
Z7
G1 Z-3 F450
G0 Z10
X336
Z7
G1 Z-3 F450
G0 Z10
X328 Y408.45
Z7
G1 Z-3 F450
G0 Z10
X336
Z7
G1 Z-3 F450
G0 Z10
X344
Z7
G1 Z-3 F450
G0 Z10
X352
Z7
G1 Z-3 F450
G0 Z10
X360
Z7
G1 Z-3 F450
G0 Z10
Y416.45
Z7
G1 Z-3 F450
G0 Z10
X352
Z7
G1 Z-3 F450
G0 Z10
X440 Y432.45
Z7
G1 Z-3 F450
G0 Z10
X432
Z7
G1 Z-3 F450
G0 Z10
X424
Z7
G1 Z-3 F450
G0 Z10
X416
Z7
G1 Z-3 F450
G0 Z10
X408
Z7
G1 Z-3 F450
G0 Z10
X400
Z7
G1 Z-3 F450
G0 Z10
X392
Z7
G1 Z-3 F450
G0 Z10
X384
Z7
G1 Z-3 F450
G0 Z10
X376
Z7
G1 Z-3 F450
G0 Z10
X368
Z7
G1 Z-3 F450
G0 Z10
X360
Z7
G1 Z-3 F450
G0 Z10
X352
Z7
G1 Z-3 F450
G0 Z10
X360 Y424.45
Z7
G1 Z-3 F450
G0 Z10
X368
Z7
G1 Z-3 F450
G0 Z10
X376
Z7
G1 Z-3 F450
G0 Z10
X384
Z7
G1 Z-3 F450
G0 Z10
X392
Z7
G1 Z-3 F450
G0 Z10
X400
Z7
G1 Z-3 F450
G0 Z10
X408
Z7
G1 Z-3 F450
G0 Z10
X416
Z7
G1 Z-3 F450
G0 Z10
X424
Z7
G1 Z-3 F450
G0 Z10
X432
Z7
G1 Z-3 F450
G0 Z10
X440
Z7
G1 Z-3 F450
G0 Z10
Y416.45
Z7
G1 Z-3 F450
G0 Z10
X432
Z7
G1 Z-3 F450
G0 Z10
X424
Z7
G1 Z-3 F450
G0 Z10
X416
Z7
G1 Z-3 F450
G0 Z10
X408
Z7
G1 Z-3 F450
G0 Z10
X400
Z7
G1 Z-3 F450
G0 Z10
X392
Z7
G1 Z-3 F450
G0 Z10
X384
Z7
G1 Z-3 F450
G0 Z10
X376
Z7
G1 Z-3 F450
G0 Z10
Y408.45
Z7
G1 Z-3 F450
G0 Z10
X384
Z7
G1 Z-3 F450
G0 Z10
X392
Z7
G1 Z-3 F450
G0 Z10
X400
Z7
G1 Z-3 F450
G0 Z10
X408
Z7
G1 Z-3 F450
G0 Z10
X416
Z7
G1 Z-3 F450
G0 Z10
X424
Z7
G1 Z-3 F450
G0 Z10
X432
Z7
G1 Z-3 F450
G0 Z10
X440
Z7
G1 Z-3 F450
G0 Z10
Y400.45
Z7
G1 Z-3 F450
G0 Z10
X432
Z7
G1 Z-3 F450
G0 Z10
X424
Z7
G1 Z-3 F450
G0 Z10
X416
Z7
G1 Z-3 F450
G0 Z10
X408
Z7
G1 Z-3 F450
G0 Z10
X400
Z7
G1 Z-3 F450
G0 Z10
X392
Z7
G1 Z-3 F450
G0 Z10
X384
Z7
G1 Z-3 F450
G0 Z10
X376
Z7
G1 Z-3 F450
G0 Z10
X368
Z7
G1 Z-3 F450
G0 Z10
X360
Z7
G1 Z-3 F450
G0 Z10
X352
Z7
G1 Z-3 F450
G0 Z10
X344
Z7
G1 Z-3 F450
G0 Z10
X336
Z7
G1 Z-3 F450
G0 Z10
X328
Z7
G1 Z-3 F450
G0 Z10
X320
Z7
G1 Z-3 F450
G0 Z10
X312
Z7
G1 Z-3 F450
G0 Z10
X304
Z7
G1 Z-3 F450
G0 Z10
X296
Z7
G1 Z-3 F450
G0 Z10
X288
Z7
G1 Z-3 F450
G0 Z10
X280
Z7
G1 Z-3 F450
G0 Z10
X272
Z7
G1 Z-3 F450
G0 Z10
X264
Z7
G1 Z-3 F450
G0 Z10
X256
Z7
G1 Z-3 F450
G0 Z10
X248
Z7
G1 Z-3 F450
G0 Z10
X240
Z7
G1 Z-3 F450
G0 Z10
X232
Z7
G1 Z-3 F450
G0 Z10
X224
Z7
G1 Z-3 F450
G0 Z10
X216
Z7
G1 Z-3 F450
G0 Z10
X208
Z7
G1 Z-3 F450
G0 Z10
X200
Z7
G1 Z-3 F450
G0 Z10
X192
Z7
G1 Z-3 F450
G0 Z10
X184
Z7
G1 Z-3 F450
G0 Z10
X176
Z7
G1 Z-3 F450
G0 Z10
X168
Z7
G1 Z-3 F450
G0 Z10
X160
Z7
G1 Z-3 F450
G0 Z10
X152
Z7
G1 Z-3 F450
G0 Z10
X144
Z7
G1 Z-3 F450
G0 Z10
X136
Z7
G1 Z-3 F450
G0 Z10
X128
Z7
G1 Z-3 F450
G0 Z10
X120
Z7
G1 Z-3 F450
G0 Z10
X112
Z7
G1 Z-3 F450
G0 Z10
X104
Z7
G1 Z-3 F450
G0 Z10
X96
Z7
G1 Z-3 F450
G0 Z10
X88
Z7
G1 Z-3 F450
G0 Z10
X80
Z7
G1 Z-3 F450
G0 Z10
X72
Z7
G1 Z-3 F450
G0 Z10
X64
Z7
G1 Z-3 F450
G0 Z10
X56
Z7
G1 Z-3 F450
G0 Z10
X48
Z7
G1 Z-3 F450
G0 Z10
X40
Z7
G1 Z-3 F450
G0 Z10
X32
Z7
G1 Z-3 F450
G0 Z10
X24
Z7
G1 Z-3 F450
G0 Z10
X16
Z7
G1 Z-3 F450
G0 Z10
Y376.45
Z7
G1 Z-3 F450
G0 Z10
X24
Z7
G1 Z-3 F450
G0 Z10
X32
Z7
G1 Z-3 F450
G0 Z10
X40
Z7
G1 Z-3 F450
G0 Z10
X48
Z7
G1 Z-3 F450
G0 Z10
X56
Z7
G1 Z-3 F450
G0 Z10
X64
Z7
G1 Z-3 F450
G0 Z10
X72
Z7
G1 Z-3 F450
G0 Z10
X80
Z7
G1 Z-3 F450
G0 Z10
X88
Z7
G1 Z-3 F450
G0 Z10
X96
Z7
G1 Z-3 F450
G0 Z10
X104
Z7
G1 Z-3 F450
G0 Z10
X112
Z7
G1 Z-3 F450
G0 Z10
X120
Z7
G1 Z-3 F450
G0 Z10
X128
Z7
G1 Z-3 F450
G0 Z10
X136
Z7
G1 Z-3 F450
G0 Z10
X144
Z7
G1 Z-3 F450
G0 Z10
X152
Z7
G1 Z-3 F450
G0 Z10
X160
Z7
G1 Z-3 F450
G0 Z10
X168
Z7
G1 Z-3 F450
G0 Z10
X176
Z7
G1 Z-3 F450
G0 Z10
X184
Z7
G1 Z-3 F450
G0 Z10
X192
Z7
G1 Z-3 F450
G0 Z10
X200
Z7
G1 Z-3 F450
G0 Z10
X208
Z7
G1 Z-3 F450
G0 Z10
X216
Z7
G1 Z-3 F450
G0 Z10
X224
Z7
G1 Z-3 F450
G0 Z10
X232
Z7
G1 Z-3 F450
G0 Z10
X240
Z7
G1 Z-3 F450
G0 Z10
X248
Z7
G1 Z-3 F450
G0 Z10
X256
Z7
G1 Z-3 F450
G0 Z10
X264
Z7
G1 Z-3 F450
G0 Z10
X272
Z7
G1 Z-3 F450
G0 Z10
X280
Z7
G1 Z-3 F450
G0 Z10
X288
Z7
G1 Z-3 F450
G0 Z10
X296
Z7
G1 Z-3 F450
G0 Z10
X304
Z7
G1 Z-3 F450
G0 Z10
X312
Z7
G1 Z-3 F450
G0 Z10
X320
Z7
G1 Z-3 F450
G0 Z10
X328
Z7
G1 Z-3 F450
G0 Z10
X336
Z7
G1 Z-3 F450
G0 Z10
X344
Z7
G1 Z-3 F450
G0 Z10
X352
Z7
G1 Z-3 F450
G0 Z10
X360
Z7
G1 Z-3 F450
G0 Z10
X368
Z7
G1 Z-3 F450
G0 Z10
X376
Z7
G1 Z-3 F450
G0 Z10
X384
Z7
G1 Z-3 F450
G0 Z10
X392
Z7
G1 Z-3 F450
G0 Z10
X400
Z7
G1 Z-3 F450
G0 Z10
X408
Z7
G1 Z-3 F450
G0 Z10
X416
Z7
G1 Z-3 F450
G0 Z10
X424
Z7
G1 Z-3 F450
G0 Z10
X432
Z7
G1 Z-3 F450
G0 Z10
X440
Z7
G1 Z-3 F450
G0 Z10
Y384.45
Z7
G1 Z-3 F450
G0 Z10
X432
Z7
G1 Z-3 F450
G0 Z10
X424
Z7
G1 Z-3 F450
G0 Z10
X416
Z7
G1 Z-3 F450
G0 Z10
X408
Z7
G1 Z-3 F450
G0 Z10
X400
Z7
G1 Z-3 F450
G0 Z10
X392
Z7
G1 Z-3 F450
G0 Z10
X384
Z7
G1 Z-3 F450
G0 Z10
X376
Z7
G1 Z-3 F450
G0 Z10
X368
Z7
G1 Z-3 F450
G0 Z10
X360
Z7
G1 Z-3 F450
G0 Z10
X352
Z7
G1 Z-3 F450
G0 Z10
X344
Z7
G1 Z-3 F450
G0 Z10
X336
Z7
G1 Z-3 F450
G0 Z10
X328
Z7
G1 Z-3 F450
G0 Z10
X320
Z7
G1 Z-3 F450
G0 Z10
X312
Z7
G1 Z-3 F450
G0 Z10
X304
Z7
G1 Z-3 F450
G0 Z10
X296
Z7
G1 Z-3 F450
G0 Z10
X288
Z7
G1 Z-3 F450
G0 Z10
X280
Z7
G1 Z-3 F450
G0 Z10
X272
Z7
G1 Z-3 F450
G0 Z10
X264
Z7
G1 Z-3 F450
G0 Z10
X256
Z7
G1 Z-3 F450
G0 Z10
X248
Z7
G1 Z-3 F450
G0 Z10
X240
Z7
G1 Z-3 F450
G0 Z10
X232
Z7
G1 Z-3 F450
G0 Z10
X224
Z7
G1 Z-3 F450
G0 Z10
X216
Z7
G1 Z-3 F450
G0 Z10
X208
Z7
G1 Z-3 F450
G0 Z10
X200
Z7
G1 Z-3 F450
G0 Z10
X192
Z7
G1 Z-3 F450
G0 Z10
X184
Z7
G1 Z-3 F450
G0 Z10
X176
Z7
G1 Z-3 F450
G0 Z10
X168
Z7
G1 Z-3 F450
G0 Z10
X160
Z7
G1 Z-3 F450
G0 Z10
X152
Z7
G1 Z-3 F450
G0 Z10
X144
Z7
G1 Z-3 F450
G0 Z10
X136
Z7
G1 Z-3 F450
G0 Z10
X128
Z7
G1 Z-3 F450
G0 Z10
X120
Z7
G1 Z-3 F450
G0 Z10
X112
Z7
G1 Z-3 F450
G0 Z10
X104
Z7
G1 Z-3 F450
G0 Z10
X96
Z7
G1 Z-3 F450
G0 Z10
X88
Z7
G1 Z-3 F450
G0 Z10
X80
Z7
G1 Z-3 F450
G0 Z10
X72
Z7
G1 Z-3 F450
G0 Z10
X64
Z7
G1 Z-3 F450
G0 Z10
X56
Z7
G1 Z-3 F450
G0 Z10
X48
Z7
G1 Z-3 F450
G0 Z10
X40
Z7
G1 Z-3 F450
G0 Z10
X32
Z7
G1 Z-3 F450
G0 Z10
X24
Z7
G1 Z-3 F450
G0 Z10
X16
Z7
G1 Z-3 F450
G0 Z10
Y392.45
Z7
G1 Z-3 F450
G0 Z10
X24
Z7
G1 Z-3 F450
G0 Z10
X32
Z7
G1 Z-3 F450
G0 Z10
X40
Z7
G1 Z-3 F450
G0 Z10
X48
Z7
G1 Z-3 F450
G0 Z10
X56
Z7
G1 Z-3 F450
G0 Z10
X64
Z7
G1 Z-3 F450
G0 Z10
X72
Z7
G1 Z-3 F450
G0 Z10
X80
Z7
G1 Z-3 F450
G0 Z10
X88
Z7
G1 Z-3 F450
G0 Z10
X96
Z7
G1 Z-3 F450
G0 Z10
X104
Z7
G1 Z-3 F450
G0 Z10
X112
Z7
G1 Z-3 F450
G0 Z10
X120
Z7
G1 Z-3 F450
G0 Z10
X128
Z7
G1 Z-3 F450
G0 Z10
X136
Z7
G1 Z-3 F450
G0 Z10
X144
Z7
G1 Z-3 F450
G0 Z10
X152
Z7
G1 Z-3 F450
G0 Z10
X160
Z7
G1 Z-3 F450
G0 Z10
X168
Z7
G1 Z-3 F450
G0 Z10
X176
Z7
G1 Z-3 F450
G0 Z10
X184
Z7
G1 Z-3 F450
G0 Z10
X192
Z7
G1 Z-3 F450
G0 Z10
X200
Z7
G1 Z-3 F450
G0 Z10
X208
Z7
G1 Z-3 F450
G0 Z10
X216
Z7
G1 Z-3 F450
G0 Z10
X224
Z7
G1 Z-3 F450
G0 Z10
X232
Z7
G1 Z-3 F450
G0 Z10
X240
Z7
G1 Z-3 F450
G0 Z10
X248
Z7
G1 Z-3 F450
G0 Z10
X256
Z7
G1 Z-3 F450
G0 Z10
X264
Z7
G1 Z-3 F450
G0 Z10
X272
Z7
G1 Z-3 F450
G0 Z10
X280
Z7
G1 Z-3 F450
G0 Z10
X288
Z7
G1 Z-3 F450
G0 Z10
X296
Z7
G1 Z-3 F450
G0 Z10
X304
Z7
G1 Z-3 F450
G0 Z10
X312
Z7
G1 Z-3 F450
G0 Z10
X320
Z7
G1 Z-3 F450
G0 Z10
X328
Z7
G1 Z-3 F450
G0 Z10
X336
Z7
G1 Z-3 F450
G0 Z10
X344
Z7
G1 Z-3 F450
G0 Z10
X352
Z7
G1 Z-3 F450
G0 Z10
X360
Z7
G1 Z-3 F450
G0 Z10
X368
Z7
G1 Z-3 F450
G0 Z10
X376
Z7
G1 Z-3 F450
G0 Z10
X384
Z7
G1 Z-3 F450
G0 Z10
X392
Z7
G1 Z-3 F450
G0 Z10
X400
Z7
G1 Z-3 F450
G0 Z10
X408
Z7
G1 Z-3 F450
G0 Z10
X416
Z7
G1 Z-3 F450
G0 Z10
X424
Z7
G1 Z-3 F450
G0 Z10
X432
Z7
G1 Z-3 F450
G0 Z10
X440
Z7
G1 Z-3 F450
G0 Z10
Z25
G28 G91 Z0
G90
G28 G91 X0 Y0
G90
M5
M30
